( pcb2gcode 1.1.4 )

G94     ( Inches per minute feed rate. )
G20     ( Units == INCHES.             )
G90     ( Absolute coordinates.        )
S30000  ( RPM spindle speed.           )
M3      ( Spindle on clockwise.        )

G64 P0.00500 ( set maximum deviation from commanded toolpath )

G04 P0 ( dwell for no time -- G64 should not smooth over this point )
G00 Z0.08000 ( retract )

G00 X0.66545 Y1.96345 ( rapid move to begin. )
G01 Z-0.00200 F6.00000 ( plunge. )
G04 P0 ( dwell for no time -- G64 should not smooth over this point )
X0.66545 Y1.96345
X0.66245 Y1.96345
X0.66245 Y1.96245
X0.65945 Y1.96245
X0.65945 Y1.96145
X0.65745 Y1.96145
X0.65745 Y1.96045
X0.65645 Y1.96045
X0.65645 Y1.95945
X0.65445 Y1.95945
X0.65445 Y1.95845
X0.65245 Y1.95845
X0.65245 Y1.95745
X0.65045 Y1.95745
X0.65045 Y1.95645
X0.64845 Y1.95645
X0.64845 Y1.95545
X0.64645 Y1.95545
X0.64645 Y1.95445
X0.64545 Y1.95445
X0.64545 Y1.95345
X0.64345 Y1.95345
X0.64345 Y1.95245
X0.64245 Y1.95245
X0.64245 Y1.95145
X0.64045 Y1.95145
X0.64045 Y1.95045
X0.63945 Y1.95045
X0.63945 Y1.94945
X0.63845 Y1.94945
X0.63845 Y1.94845
X0.63745 Y1.94845
X0.63745 Y1.94745
X0.63645 Y1.94745
X0.63645 Y1.94645
X0.63445 Y1.94645
X0.63445 Y1.94545
X0.63345 Y1.94545
X0.63345 Y1.94445
X0.63245 Y1.94445
X0.63245 Y1.94345
X0.63145 Y1.94345
X0.63145 Y1.94245
X0.62945 Y1.94245
X0.62945 Y1.94145
X0.62845 Y1.94145
X0.62845 Y1.94045
X0.62745 Y1.94045
X0.62745 Y1.93845
X0.62645 Y1.93845
X0.62645 Y1.93745
X0.62545 Y1.93745
X0.62545 Y1.93645
X0.62445 Y1.93645
X0.62445 Y1.93545
X0.62345 Y1.93545
X0.62345 Y1.93345
X0.62245 Y1.93345
X0.62245 Y1.93245
X0.62145 Y1.93245
X0.62145 Y1.93145
X0.62045 Y1.93145
X0.62045 Y1.93045
X0.61945 Y1.93045
X0.61945 Y1.92945
X0.61845 Y1.92945
X0.61845 Y1.92745
X0.61745 Y1.92745
X0.61745 Y1.92645
X0.61645 Y1.92645
X0.61645 Y1.92445
X0.61545 Y1.92445
X0.61545 Y1.92345
X0.61445 Y1.92345
X0.61445 Y1.92145
X0.61345 Y1.92145
X0.61345 Y1.91945
X0.61245 Y1.91945
X0.61245 Y1.91745
X0.61145 Y1.91745
X0.61145 Y1.91545
X0.61045 Y1.91545
X0.61045 Y1.91345
X0.60945 Y1.91345
X0.60945 Y1.91245
X0.60845 Y1.91245
X0.60845 Y1.91045
X0.60745 Y1.91045
X0.60745 Y1.90745
X0.60645 Y1.90745
X0.60645 Y1.90445
X0.60545 Y1.90445
X0.60545 Y1.90045
X0.60445 Y1.90045
X0.60445 Y1.89745
X0.60345 Y1.89745
X0.60345 Y1.89445
X0.60245 Y1.89445
X0.60245 Y1.89045
X0.60145 Y1.89045
X0.60145 Y1.88045
X0.60045 Y1.88045
X0.60045 Y1.85145
X0.60145 Y1.85145
X0.60145 Y1.84145
X0.60245 Y1.84145
X0.60245 Y1.83745
X0.60345 Y1.83745
X0.60345 Y1.83445
X0.60445 Y1.83445
X0.60445 Y1.83145
X0.60545 Y1.83145
X0.60545 Y1.82745
X0.60645 Y1.82745
X0.60645 Y1.82445
X0.60745 Y1.82445
X0.60745 Y1.82145
X0.60845 Y1.82145
X0.60845 Y1.81945
X0.60945 Y1.81945
X0.60945 Y1.81845
X0.61045 Y1.81845
X0.61045 Y1.81645
X0.61145 Y1.81645
X0.61145 Y1.81445
X0.61245 Y1.81445
X0.61245 Y1.81245
X0.61345 Y1.81245
X0.61345 Y1.81045
X0.61445 Y1.81045
X0.61445 Y1.80845
X0.61545 Y1.80845
X0.61545 Y1.80745
X0.61645 Y1.80745
X0.61645 Y1.80545
X0.61745 Y1.80545
X0.61745 Y1.80445
X0.61845 Y1.80445
X0.61845 Y1.80245
X0.61945 Y1.80245
X0.61945 Y1.80145
X0.62045 Y1.80145
X0.62045 Y1.80045
X0.62145 Y1.80045
X0.62145 Y1.79945
X0.62245 Y1.79945
X0.62245 Y1.79845
X0.62345 Y1.79845
X0.62345 Y1.79645
X0.62445 Y1.79645
X0.62445 Y1.79545
X0.62545 Y1.79545
X0.62545 Y1.79445
X0.62645 Y1.79445
X0.62645 Y1.79345
X0.62745 Y1.79345
X0.62745 Y1.79145
X0.62845 Y1.79145
X0.62845 Y1.79045
X0.62945 Y1.79045
X0.62945 Y1.78945
X0.63145 Y1.78945
X0.63145 Y1.78845
X0.63245 Y1.78845
X0.63245 Y1.78745
X0.63345 Y1.78745
X0.63345 Y1.78645
X0.63445 Y1.78645
X0.63445 Y1.78545
X0.63645 Y1.78545
X0.63645 Y1.78445
X0.63745 Y1.78445
X0.63745 Y1.78345
X0.63845 Y1.78345
X0.63845 Y1.78245
X0.63945 Y1.78245
X0.63945 Y1.78145
X0.64045 Y1.78145
X0.64045 Y1.78045
X0.64245 Y1.78045
X0.64245 Y1.77945
X0.64345 Y1.77945
X0.64345 Y1.77845
X0.64545 Y1.77845
X0.64545 Y1.77745
X0.64645 Y1.77745
X0.64645 Y1.77645
X0.64845 Y1.77645
X0.64845 Y1.77545
X0.65045 Y1.77545
X0.65045 Y1.77445
X0.65245 Y1.77445
X0.65245 Y1.77345
X0.65445 Y1.77345
X0.65445 Y1.77245
X0.65645 Y1.77245
X0.65645 Y1.77145
X0.65745 Y1.77145
X0.65745 Y1.77045
X0.65945 Y1.77045
X0.65945 Y1.76945
X0.66245 Y1.76945
X0.66245 Y1.76845
X0.66545 Y1.76845
X0.66545 Y1.76745
X0.66945 Y1.76745
X0.66945 Y1.76645
X0.67245 Y1.76645
X0.67245 Y1.76545
X0.67545 Y1.76545
X0.67545 Y1.76445
X0.67945 Y1.76445
X0.67945 Y1.76345
X0.68945 Y1.76345
X0.68945 Y1.76245
X0.71845 Y1.76245
X0.71845 Y1.76345
X0.72845 Y1.76345
X0.72845 Y1.76445
X0.73245 Y1.76445
X0.73245 Y1.76545
X0.73545 Y1.76545
X0.73545 Y1.76645
X0.73845 Y1.76645
X0.73845 Y1.76745
X0.74245 Y1.76745
X0.74245 Y1.76845
X0.74545 Y1.76845
X0.74545 Y1.76945
X0.74845 Y1.76945
X0.74845 Y1.77045
X0.75045 Y1.77045
X0.75045 Y1.77145
X0.75145 Y1.77145
X0.75145 Y1.77245
X0.75345 Y1.77245
X0.75345 Y1.77345
X0.75545 Y1.77345
X0.75545 Y1.77445
X0.75745 Y1.77445
X0.75745 Y1.77545
X0.75945 Y1.77545
X0.75945 Y1.77645
X0.76145 Y1.77645
X0.76145 Y1.77745
X0.76245 Y1.77745
X0.76245 Y1.77845
X0.76445 Y1.77845
X0.76445 Y1.77945
X0.76545 Y1.77945
X0.76545 Y1.78045
X0.76745 Y1.78045
X0.76745 Y1.78145
X0.76845 Y1.78145
X0.76845 Y1.78245
X0.76945 Y1.78245
X0.76945 Y1.78345
X0.77045 Y1.78345
X0.77045 Y1.78445
X0.77145 Y1.78445
X0.77145 Y1.78545
X0.77345 Y1.78545
X0.77345 Y1.78645
X0.77445 Y1.78645
X0.77445 Y1.78745
X0.77545 Y1.78745
X0.77545 Y1.78845
X0.77645 Y1.78845
X0.77645 Y1.78945
X0.77845 Y1.78945
X0.77845 Y1.79045
X0.77945 Y1.79045
X0.77945 Y1.79145
X0.78045 Y1.79145
X0.78045 Y1.79345
X0.78145 Y1.79345
X0.78145 Y1.79445
X0.78245 Y1.79445
X0.78245 Y1.79545
X0.78345 Y1.79545
X0.78345 Y1.79645
X0.78445 Y1.79645
X0.78445 Y1.79845
X0.78545 Y1.79845
X0.78545 Y1.79945
X0.78645 Y1.79945
X0.78645 Y1.80045
X0.78745 Y1.80045
X0.78745 Y1.80145
X0.78845 Y1.80145
X0.78845 Y1.80245
X0.78945 Y1.80245
X0.78945 Y1.80445
X0.79045 Y1.80445
X0.79045 Y1.80545
X0.79145 Y1.80545
X0.79145 Y1.80745
X0.79245 Y1.80745
X0.79245 Y1.80845
X0.79345 Y1.80845
X0.79345 Y1.81045
X0.79445 Y1.81045
X0.79445 Y1.81245
X0.79545 Y1.81245
X0.79545 Y1.81445
X0.79645 Y1.81445
X0.79645 Y1.81645
X0.79745 Y1.81645
X0.79745 Y1.81845
X0.79845 Y1.81845
X0.79845 Y1.81945
X0.79945 Y1.81945
X0.79945 Y1.82145
X0.80045 Y1.82145
X0.80045 Y1.82445
X0.80145 Y1.82445
X0.80145 Y1.82745
X0.80245 Y1.82745
X0.80245 Y1.83145
X0.80345 Y1.83145
X0.80345 Y1.83445
X0.80445 Y1.83445
X0.80445 Y1.83745
X0.80545 Y1.83745
X0.80545 Y1.84145
X0.80645 Y1.84145
X0.80645 Y1.85145
X0.80745 Y1.85145
X0.80745 Y1.88045
X0.80645 Y1.88045
X0.80645 Y1.89045
X0.80545 Y1.89045
X0.80545 Y1.89445
X0.80445 Y1.89445
X0.80445 Y1.89745
X0.80345 Y1.89745
X0.80345 Y1.90045
X0.80245 Y1.90045
X0.80245 Y1.90445
X0.80145 Y1.90445
X0.80145 Y1.90745
X0.80045 Y1.90745
X0.80045 Y1.91045
X0.79945 Y1.91045
X0.79945 Y1.91245
X0.79845 Y1.91245
X0.79845 Y1.91345
X0.79745 Y1.91345
X0.79745 Y1.91545
X0.79645 Y1.91545
X0.79645 Y1.91745
X0.79545 Y1.91745
X0.79545 Y1.91945
X0.79445 Y1.91945
X0.79445 Y1.92145
X0.79345 Y1.92145
X0.79345 Y1.92345
X0.79245 Y1.92345
X0.79245 Y1.92445
X0.79145 Y1.92445
X0.79145 Y1.92645
X0.79045 Y1.92645
X0.79045 Y1.92745
X0.78945 Y1.92745
X0.78945 Y1.92945
X0.78845 Y1.92945
X0.78845 Y1.93045
X0.78745 Y1.93045
X0.78745 Y1.93145
X0.78645 Y1.93145
X0.78645 Y1.93245
X0.78545 Y1.93245
X0.78545 Y1.93345
X0.78445 Y1.93345
X0.78445 Y1.93545
X0.78345 Y1.93545
X0.78345 Y1.93645
X0.78245 Y1.93645
X0.78245 Y1.93745
X0.78145 Y1.93745
X0.78145 Y1.93845
X0.78045 Y1.93845
X0.78045 Y1.94045
X0.77945 Y1.94045
X0.77945 Y1.94145
X0.77845 Y1.94145
X0.77845 Y1.94245
X0.77645 Y1.94245
X0.77645 Y1.94345
X0.77545 Y1.94345
X0.77545 Y1.94445
X0.77445 Y1.94445
X0.77445 Y1.94545
X0.77345 Y1.94545
X0.77345 Y1.94645
X0.77145 Y1.94645
X0.77145 Y1.94745
X0.77045 Y1.94745
X0.77045 Y1.94845
X0.76945 Y1.94845
X0.76945 Y1.94945
X0.76845 Y1.94945
X0.76845 Y1.95045
X0.76745 Y1.95045
X0.76745 Y1.95145
X0.76545 Y1.95145
X0.76545 Y1.95245
X0.76445 Y1.95245
X0.76445 Y1.95345
X0.76245 Y1.95345
X0.76245 Y1.95445
X0.76145 Y1.95445
X0.76145 Y1.95545
X0.75945 Y1.95545
X0.75945 Y1.95645
X0.75745 Y1.95645
X0.75745 Y1.95745
X0.75545 Y1.95745
X0.75545 Y1.95845
X0.75345 Y1.95845
X0.75345 Y1.95945
X0.75145 Y1.95945
X0.75145 Y1.96045
X0.75045 Y1.96045
X0.75045 Y1.96145
X0.74845 Y1.96145
X0.74845 Y1.96245
X0.74545 Y1.96245
X0.74545 Y1.96345
X0.74245 Y1.96345
X0.74245 Y1.96445
X0.73845 Y1.96445
X0.73845 Y1.96545
X0.73545 Y1.96545
X0.73545 Y1.96645
X0.73245 Y1.96645
X0.73245 Y1.96745
X0.72845 Y1.96745
X0.72845 Y1.96845
X0.71845 Y1.96845
X0.71845 Y1.96945
X0.68945 Y1.96945
X0.68945 Y1.96845
X0.67945 Y1.96845
X0.67945 Y1.96745
X0.67545 Y1.96745
X0.67545 Y1.96645
X0.67245 Y1.96645
X0.67245 Y1.96545
X0.66945 Y1.96545
X0.66945 Y1.96445
X0.66545 Y1.96445
X0.66545 Y1.96345
G04 P0 ( dwell for no time -- G64 should not smooth over this point )
G00 Z0.08000 ( retract )

G00 X-0.18455 Y1.96345 ( rapid move to begin. )
G01 Z-0.00200 F6.00000 ( plunge. )
G04 P0 ( dwell for no time -- G64 should not smooth over this point )
X-0.18455 Y1.96345
X-0.18755 Y1.96345
X-0.18755 Y1.96245
X-0.19055 Y1.96245
X-0.19055 Y1.96145
X-0.19255 Y1.96145
X-0.19255 Y1.96045
X-0.19355 Y1.96045
X-0.19355 Y1.95945
X-0.19555 Y1.95945
X-0.19555 Y1.95845
X-0.19755 Y1.95845
X-0.19755 Y1.95745
X-0.19955 Y1.95745
X-0.19955 Y1.95645
X-0.20155 Y1.95645
X-0.20155 Y1.95545
X-0.20355 Y1.95545
X-0.20355 Y1.95445
X-0.20455 Y1.95445
X-0.20455 Y1.95345
X-0.20655 Y1.95345
X-0.20655 Y1.95245
X-0.20755 Y1.95245
X-0.20755 Y1.95145
X-0.20955 Y1.95145
X-0.20955 Y1.95045
X-0.21055 Y1.95045
X-0.21055 Y1.94945
X-0.21155 Y1.94945
X-0.21155 Y1.94845
X-0.21255 Y1.94845
X-0.21255 Y1.94745
X-0.21355 Y1.94745
X-0.21355 Y1.94645
X-0.21555 Y1.94645
X-0.21555 Y1.94545
X-0.21655 Y1.94545
X-0.21655 Y1.94445
X-0.21755 Y1.94445
X-0.21755 Y1.94345
X-0.21855 Y1.94345
X-0.21855 Y1.94245
X-0.22055 Y1.94245
X-0.22055 Y1.94145
X-0.22155 Y1.94145
X-0.22155 Y1.94045
X-0.22255 Y1.94045
X-0.22255 Y1.93845
X-0.22355 Y1.93845
X-0.22355 Y1.93745
X-0.22455 Y1.93745
X-0.22455 Y1.93645
X-0.22555 Y1.93645
X-0.22555 Y1.93545
X-0.22655 Y1.93545
X-0.22655 Y1.93345
X-0.22755 Y1.93345
X-0.22755 Y1.93245
X-0.22855 Y1.93245
X-0.22855 Y1.93145
X-0.22955 Y1.93145
X-0.22955 Y1.93045
X-0.23055 Y1.93045
X-0.23055 Y1.92945
X-0.23155 Y1.92945
X-0.23155 Y1.92745
X-0.23255 Y1.92745
X-0.23255 Y1.92645
X-0.23355 Y1.92645
X-0.23355 Y1.92445
X-0.23455 Y1.92445
X-0.23455 Y1.92345
X-0.23555 Y1.92345
X-0.23555 Y1.92145
X-0.23655 Y1.92145
X-0.23655 Y1.91945
X-0.23755 Y1.91945
X-0.23755 Y1.91745
X-0.23855 Y1.91745
X-0.23855 Y1.91545
X-0.23955 Y1.91545
X-0.23955 Y1.91345
X-0.24055 Y1.91345
X-0.24055 Y1.91245
X-0.24155 Y1.91245
X-0.24155 Y1.91045
X-0.24255 Y1.91045
X-0.24255 Y1.90745
X-0.24355 Y1.90745
X-0.24355 Y1.90445
X-0.24455 Y1.90445
X-0.24455 Y1.90045
X-0.24555 Y1.90045
X-0.24555 Y1.89745
X-0.24655 Y1.89745
X-0.24655 Y1.89445
X-0.24755 Y1.89445
X-0.24755 Y1.89045
X-0.24855 Y1.89045
X-0.24855 Y1.88045
X-0.24955 Y1.88045
X-0.24955 Y1.85145
X-0.24855 Y1.85145
X-0.24855 Y1.84145
X-0.24755 Y1.84145
X-0.24755 Y1.83745
X-0.24655 Y1.83745
X-0.24655 Y1.83445
X-0.24555 Y1.83445
X-0.24555 Y1.83145
X-0.24455 Y1.83145
X-0.24455 Y1.82745
X-0.24355 Y1.82745
X-0.24355 Y1.82445
X-0.24255 Y1.82445
X-0.24255 Y1.82145
X-0.24155 Y1.82145
X-0.24155 Y1.81945
X-0.24055 Y1.81945
X-0.24055 Y1.81845
X-0.23955 Y1.81845
X-0.23955 Y1.81645
X-0.23855 Y1.81645
X-0.23855 Y1.81445
X-0.23755 Y1.81445
X-0.23755 Y1.81245
X-0.23655 Y1.81245
X-0.23655 Y1.81045
X-0.23555 Y1.81045
X-0.23555 Y1.80845
X-0.23455 Y1.80845
X-0.23455 Y1.80745
X-0.23355 Y1.80745
X-0.23355 Y1.80545
X-0.23255 Y1.80545
X-0.23255 Y1.80445
X-0.23155 Y1.80445
X-0.23155 Y1.80245
X-0.23055 Y1.80245
X-0.23055 Y1.80145
X-0.22955 Y1.80145
X-0.22955 Y1.80045
X-0.22855 Y1.80045
X-0.22855 Y1.79945
X-0.22755 Y1.79945
X-0.22755 Y1.79845
X-0.22655 Y1.79845
X-0.22655 Y1.79645
X-0.22555 Y1.79645
X-0.22555 Y1.79545
X-0.22455 Y1.79545
X-0.22455 Y1.79445
X-0.22355 Y1.79445
X-0.22355 Y1.79345
X-0.22255 Y1.79345
X-0.22255 Y1.79145
X-0.22155 Y1.79145
X-0.22155 Y1.79045
X-0.22055 Y1.79045
X-0.22055 Y1.78945
X-0.21855 Y1.78945
X-0.21855 Y1.78845
X-0.21755 Y1.78845
X-0.21755 Y1.78745
X-0.21655 Y1.78745
X-0.21655 Y1.78645
X-0.21555 Y1.78645
X-0.21555 Y1.78545
X-0.21355 Y1.78545
X-0.21355 Y1.78445
X-0.21255 Y1.78445
X-0.21255 Y1.78345
X-0.21155 Y1.78345
X-0.21155 Y1.78245
X-0.21055 Y1.78245
X-0.21055 Y1.78145
X-0.20955 Y1.78145
X-0.20955 Y1.78045
X-0.20755 Y1.78045
X-0.20755 Y1.77945
X-0.20655 Y1.77945
X-0.20655 Y1.77845
X-0.20455 Y1.77845
X-0.20455 Y1.77745
X-0.20355 Y1.77745
X-0.20355 Y1.77645
X-0.20155 Y1.77645
X-0.20155 Y1.77545
X-0.19955 Y1.77545
X-0.19955 Y1.77445
X-0.19755 Y1.77445
X-0.19755 Y1.77345
X-0.19555 Y1.77345
X-0.19555 Y1.77245
X-0.19355 Y1.77245
X-0.19355 Y1.77145
X-0.19255 Y1.77145
X-0.19255 Y1.77045
X-0.19055 Y1.77045
X-0.19055 Y1.76945
X-0.18755 Y1.76945
X-0.18755 Y1.76845
X-0.18455 Y1.76845
X-0.18455 Y1.76745
X-0.18055 Y1.76745
X-0.18055 Y1.76645
X-0.17755 Y1.76645
X-0.17755 Y1.76545
X-0.17455 Y1.76545
X-0.17455 Y1.76445
X-0.17055 Y1.76445
X-0.17055 Y1.76345
X-0.16055 Y1.76345
X-0.16055 Y1.76245
X-0.13155 Y1.76245
X-0.13155 Y1.76345
X-0.12155 Y1.76345
X-0.12155 Y1.76445
X-0.11755 Y1.76445
X-0.11755 Y1.76545
X-0.11455 Y1.76545
X-0.11455 Y1.76645
X-0.11155 Y1.76645
X-0.11155 Y1.76745
X-0.10755 Y1.76745
X-0.10755 Y1.76845
X-0.10455 Y1.76845
X-0.10455 Y1.76945
X-0.10155 Y1.76945
X-0.10155 Y1.77045
X-0.09955 Y1.77045
X-0.09955 Y1.77145
X-0.09855 Y1.77145
X-0.09855 Y1.77245
X-0.09655 Y1.77245
X-0.09655 Y1.77345
X-0.09455 Y1.77345
X-0.09455 Y1.77445
X-0.09255 Y1.77445
X-0.09255 Y1.77545
X-0.09055 Y1.77545
X-0.09055 Y1.77645
X-0.08855 Y1.77645
X-0.08855 Y1.77745
X-0.08755 Y1.77745
X-0.08755 Y1.77845
X-0.08555 Y1.77845
X-0.08555 Y1.77945
X-0.08455 Y1.77945
X-0.08455 Y1.78045
X-0.08255 Y1.78045
X-0.08255 Y1.78145
X-0.08155 Y1.78145
X-0.08155 Y1.78245
X-0.08055 Y1.78245
X-0.08055 Y1.78345
X-0.07955 Y1.78345
X-0.07955 Y1.78445
X-0.07855 Y1.78445
X-0.07855 Y1.78545
X-0.07655 Y1.78545
X-0.07655 Y1.78645
X-0.07555 Y1.78645
X-0.07555 Y1.78745
X-0.07455 Y1.78745
X-0.07455 Y1.78845
X-0.07355 Y1.78845
X-0.07355 Y1.78945
X-0.07155 Y1.78945
X-0.07155 Y1.79045
X-0.07055 Y1.79045
X-0.07055 Y1.79145
X-0.06955 Y1.79145
X-0.06955 Y1.79345
X-0.06855 Y1.79345
X-0.06855 Y1.79445
X-0.06755 Y1.79445
X-0.06755 Y1.79545
X-0.06655 Y1.79545
X-0.06655 Y1.79645
X-0.06555 Y1.79645
X-0.06555 Y1.79845
X-0.06455 Y1.79845
X-0.06455 Y1.79945
X-0.06355 Y1.79945
X-0.06355 Y1.80045
X-0.06255 Y1.80045
X-0.06255 Y1.80145
X-0.06155 Y1.80145
X-0.06155 Y1.80245
X-0.06055 Y1.80245
X-0.06055 Y1.80445
X-0.05955 Y1.80445
X-0.05955 Y1.80545
X-0.05855 Y1.80545
X-0.05855 Y1.80745
X-0.05755 Y1.80745
X-0.05755 Y1.80845
X-0.05655 Y1.80845
X-0.05655 Y1.81045
X-0.05555 Y1.81045
X-0.05555 Y1.81245
X-0.05455 Y1.81245
X-0.05455 Y1.81445
X-0.05355 Y1.81445
X-0.05355 Y1.81645
X-0.05255 Y1.81645
X-0.05255 Y1.81845
X-0.05155 Y1.81845
X-0.05155 Y1.81945
X-0.05055 Y1.81945
X-0.05055 Y1.82145
X-0.04955 Y1.82145
X-0.04955 Y1.82445
X-0.04855 Y1.82445
X-0.04855 Y1.82745
X-0.04755 Y1.82745
X-0.04755 Y1.83145
X-0.04655 Y1.83145
X-0.04655 Y1.83445
X-0.04555 Y1.83445
X-0.04555 Y1.83745
X-0.04455 Y1.83745
X-0.04455 Y1.84145
X-0.04355 Y1.84145
X-0.04355 Y1.85145
X-0.04255 Y1.85145
X-0.04255 Y1.88045
X-0.04355 Y1.88045
X-0.04355 Y1.89045
X-0.04455 Y1.89045
X-0.04455 Y1.89445
X-0.04555 Y1.89445
X-0.04555 Y1.89745
X-0.04655 Y1.89745
X-0.04655 Y1.90045
X-0.04755 Y1.90045
X-0.04755 Y1.90445
X-0.04855 Y1.90445
X-0.04855 Y1.90745
X-0.04955 Y1.90745
X-0.04955 Y1.91045
X-0.05055 Y1.91045
X-0.05055 Y1.91245
X-0.05155 Y1.91245
X-0.05155 Y1.91345
X-0.05255 Y1.91345
X-0.05255 Y1.91545
X-0.05355 Y1.91545
X-0.05355 Y1.91745
X-0.05455 Y1.91745
X-0.05455 Y1.91945
X-0.05555 Y1.91945
X-0.05555 Y1.92145
X-0.05655 Y1.92145
X-0.05655 Y1.92345
X-0.05755 Y1.92345
X-0.05755 Y1.92445
X-0.05855 Y1.92445
X-0.05855 Y1.92645
X-0.05955 Y1.92645
X-0.05955 Y1.92745
X-0.06055 Y1.92745
X-0.06055 Y1.92945
X-0.06155 Y1.92945
X-0.06155 Y1.93045
X-0.06255 Y1.93045
X-0.06255 Y1.93145
X-0.06355 Y1.93145
X-0.06355 Y1.93245
X-0.06455 Y1.93245
X-0.06455 Y1.93345
X-0.06555 Y1.93345
X-0.06555 Y1.93545
X-0.06655 Y1.93545
X-0.06655 Y1.93645
X-0.06755 Y1.93645
X-0.06755 Y1.93745
X-0.06855 Y1.93745
X-0.06855 Y1.93845
X-0.06955 Y1.93845
X-0.06955 Y1.94045
X-0.07055 Y1.94045
X-0.07055 Y1.94145
X-0.07155 Y1.94145
X-0.07155 Y1.94245
X-0.07355 Y1.94245
X-0.07355 Y1.94345
X-0.07455 Y1.94345
X-0.07455 Y1.94445
X-0.07555 Y1.94445
X-0.07555 Y1.94545
X-0.07655 Y1.94545
X-0.07655 Y1.94645
X-0.07855 Y1.94645
X-0.07855 Y1.94745
X-0.07955 Y1.94745
X-0.07955 Y1.94845
X-0.08055 Y1.94845
X-0.08055 Y1.94945
X-0.08155 Y1.94945
X-0.08155 Y1.95045
X-0.08255 Y1.95045
X-0.08255 Y1.95145
X-0.08455 Y1.95145
X-0.08455 Y1.95245
X-0.08555 Y1.95245
X-0.08555 Y1.95345
X-0.08755 Y1.95345
X-0.08755 Y1.95445
X-0.08855 Y1.95445
X-0.08855 Y1.95545
X-0.09055 Y1.95545
X-0.09055 Y1.95645
X-0.09255 Y1.95645
X-0.09255 Y1.95745
X-0.09455 Y1.95745
X-0.09455 Y1.95845
X-0.09655 Y1.95845
X-0.09655 Y1.95945
X-0.09855 Y1.95945
X-0.09855 Y1.96045
X-0.09955 Y1.96045
X-0.09955 Y1.96145
X-0.10155 Y1.96145
X-0.10155 Y1.96245
X-0.10455 Y1.96245
X-0.10455 Y1.96345
X-0.10755 Y1.96345
X-0.10755 Y1.96445
X-0.11155 Y1.96445
X-0.11155 Y1.96545
X-0.11455 Y1.96545
X-0.11455 Y1.96645
X-0.11755 Y1.96645
X-0.11755 Y1.96745
X-0.12155 Y1.96745
X-0.12155 Y1.96845
X-0.13155 Y1.96845
X-0.13155 Y1.96945
X-0.16055 Y1.96945
X-0.16055 Y1.96845
X-0.17055 Y1.96845
X-0.17055 Y1.96745
X-0.17455 Y1.96745
X-0.17455 Y1.96645
X-0.17755 Y1.96645
X-0.17755 Y1.96545
X-0.18055 Y1.96545
X-0.18055 Y1.96445
X-0.18455 Y1.96445
X-0.18455 Y1.96345
G04 P0 ( dwell for no time -- G64 should not smooth over this point )
G00 Z0.08000 ( retract )

G00 X0.08545 Y1.82545 ( rapid move to begin. )
G01 Z-0.00200 F6.00000 ( plunge. )
G04 P0 ( dwell for no time -- G64 should not smooth over this point )
X0.08545 Y1.82545
X0.08445 Y1.82545
X0.08445 Y1.82445
X0.08345 Y1.82445
X0.08345 Y1.82345
X0.08245 Y1.82345
X0.08245 Y1.82245
X0.08145 Y1.82245
X0.08145 Y1.82145
X0.08045 Y1.82145
X0.08045 Y1.82045
X0.07945 Y1.82045
X0.07945 Y1.81945
X0.07845 Y1.81945
X0.07845 Y1.81845
X0.07745 Y1.81845
X0.07745 Y1.81745
X0.07645 Y1.81745
X0.07645 Y1.81645
X0.07545 Y1.81645
X0.07545 Y1.81545
X0.07445 Y1.81545
X0.07445 Y1.81445
X0.07345 Y1.81445
X0.07345 Y1.81345
X0.07245 Y1.81345
X0.07245 Y1.81245
X0.07145 Y1.81245
X0.07145 Y1.81145
X0.07045 Y1.81145
X0.07045 Y1.81045
X0.06945 Y1.81045
X0.06945 Y1.80945
X0.06845 Y1.80945
X0.06845 Y1.80845
X0.06745 Y1.80845
X0.06745 Y1.80745
X0.06645 Y1.80745
X0.06645 Y1.80645
X0.06545 Y1.80645
X0.06545 Y1.80545
X0.06445 Y1.80545
X0.06445 Y1.80445
X0.06345 Y1.80445
X0.06345 Y1.80345
X0.06245 Y1.80345
X0.06245 Y1.80245
X0.06145 Y1.80245
X0.06145 Y1.80145
X0.06045 Y1.80145
X0.06045 Y1.80045
X0.05945 Y1.80045
X0.05945 Y1.79945
X0.05845 Y1.79945
X0.05845 Y1.79845
X0.05745 Y1.79845
X0.05745 Y1.79745
X0.05645 Y1.79745
X0.05645 Y1.79645
X0.05545 Y1.79645
X0.05545 Y1.79545
X0.05445 Y1.79545
X0.05445 Y1.79445
X0.05345 Y1.79445
X0.05345 Y1.79345
X0.05245 Y1.79345
X0.05245 Y1.79245
X0.05145 Y1.79245
X0.05145 Y1.79145
X0.05045 Y1.79145
X0.05045 Y1.79045
X0.04945 Y1.79045
X0.04945 Y1.78945
X0.04845 Y1.78945
X0.04845 Y1.78845
X0.04745 Y1.78845
X0.04745 Y1.78745
X0.04645 Y1.78745
X0.04645 Y1.78645
X0.04545 Y1.78645
X0.04545 Y1.78545
X0.04445 Y1.78545
X0.04445 Y1.78445
X0.04345 Y1.78445
X0.04345 Y1.78345
X0.04245 Y1.78345
X0.04245 Y1.78245
X0.04145 Y1.78245
X0.04145 Y1.78145
X0.04045 Y1.78145
X0.04045 Y1.78045
X0.03945 Y1.78045
X0.03945 Y1.77945
X0.03845 Y1.77945
X0.03845 Y1.77845
X0.03745 Y1.77845
X0.03745 Y1.77745
X0.03645 Y1.77745
X0.03645 Y1.77645
X0.03545 Y1.77645
X0.03545 Y1.77545
X0.03445 Y1.77545
X0.03445 Y1.77445
X0.03345 Y1.77445
X0.03345 Y1.77345
X0.03245 Y1.77345
X0.03245 Y1.77245
X0.03145 Y1.77245
X0.03145 Y1.77145
X0.03045 Y1.77145
X0.03045 Y1.77045
X0.02945 Y1.77045
X0.02945 Y1.76945
X0.02845 Y1.76945
X0.02845 Y1.76845
X0.02745 Y1.76845
X0.02745 Y1.76745
X0.02645 Y1.76745
X0.02645 Y1.76645
X0.02545 Y1.76645
X0.02545 Y1.76545
X0.02445 Y1.76545
X0.02445 Y1.76445
X0.02345 Y1.76445
X0.02345 Y1.76345
X0.02245 Y1.76345
X0.02245 Y1.76245
X0.02145 Y1.76245
X0.02145 Y1.76145
X0.02045 Y1.76145
X0.02045 Y1.76045
X0.01945 Y1.76045
X0.01945 Y1.75945
X0.01845 Y1.75945
X0.01845 Y1.75845
X0.01745 Y1.75845
X0.01745 Y1.75745
X0.01645 Y1.75745
X0.01645 Y1.75645
X0.01545 Y1.75645
X0.01545 Y1.75545
X0.01445 Y1.75545
X0.01445 Y1.75445
X0.01345 Y1.75445
X0.01345 Y1.75345
X0.01245 Y1.75345
X0.01245 Y1.75245
X0.01145 Y1.75245
X0.01145 Y1.75145
X0.01045 Y1.75145
X0.01045 Y1.75045
X0.00945 Y1.75045
X0.00945 Y1.74945
X0.00845 Y1.74945
X0.00845 Y1.74845
X0.00745 Y1.74845
X0.00745 Y1.74745
X0.00645 Y1.74745
X0.00645 Y1.74645
X0.00545 Y1.74645
X0.00545 Y1.74545
X0.00445 Y1.74545
X0.00445 Y1.74445
X0.00345 Y1.74445
X0.00345 Y1.74345
X0.00245 Y1.74345
X0.00245 Y1.74245
X0.00145 Y1.74245
X0.00145 Y1.74145
X0.00045 Y1.74145
X0.00045 Y1.74045
X-0.00055 Y1.74045
X-0.00055 Y1.73945
X-0.00155 Y1.73945
X-0.00155 Y1.73845
X-0.00255 Y1.73845
X-0.00255 Y1.73745
X-0.00355 Y1.73745
X-0.00355 Y1.73645
X-0.00455 Y1.73645
X-0.00455 Y1.73545
X-0.00555 Y1.73545
X-0.00555 Y1.73445
X-0.00655 Y1.73445
X-0.00655 Y1.73345
X-0.00755 Y1.73345
X-0.00755 Y1.73245
X-0.00855 Y1.73245
X-0.00855 Y1.73145
X-0.00955 Y1.73145
X-0.00955 Y1.73045
X-0.01055 Y1.73045
X-0.01055 Y1.72945
X-0.01155 Y1.72945
X-0.01155 Y1.72845
X-0.01255 Y1.72845
X-0.01255 Y1.72745
X-0.01355 Y1.72745
X-0.01355 Y1.72645
X-0.01455 Y1.72645
X-0.01455 Y1.72545
X-0.01555 Y1.72545
X-0.01555 Y1.72445
X-0.01655 Y1.72445
X-0.01655 Y1.72345
X-0.01755 Y1.72345
X-0.01755 Y1.72245
X-0.01855 Y1.72245
X-0.01855 Y1.72145
X-0.01955 Y1.72145
X-0.01955 Y1.72045
X-0.02055 Y1.72045
X-0.02055 Y1.71945
X-0.02155 Y1.71945
X-0.02155 Y1.71845
X-0.02255 Y1.71845
X-0.02255 Y1.71745
X-0.02355 Y1.71745
X-0.02355 Y1.71645
X-0.02455 Y1.71645
X-0.02455 Y1.71545
X-0.02555 Y1.71545
X-0.02555 Y1.71445
X-0.02655 Y1.71445
X-0.02655 Y1.71345
X-0.02755 Y1.71345
X-0.02755 Y1.71245
X-0.02855 Y1.71245
X-0.02855 Y1.71145
X-0.02955 Y1.71145
X-0.02955 Y1.71045
X-0.03055 Y1.71045
X-0.03055 Y1.70945
X-0.03155 Y1.70945
X-0.03155 Y1.70845
X-0.03255 Y1.70845
X-0.03255 Y1.70745
X-0.03355 Y1.70745
X-0.03355 Y1.70645
X-0.03455 Y1.70645
X-0.03455 Y1.70545
X-0.03555 Y1.70545
X-0.03555 Y1.70445
X-0.03655 Y1.70445
X-0.03655 Y1.70345
X-0.03755 Y1.70345
X-0.03755 Y1.70245
X-0.03855 Y1.70245
X-0.03855 Y1.70145
X-0.03955 Y1.70145
X-0.03955 Y1.70045
X-0.04055 Y1.70045
X-0.04055 Y1.69945
X-0.04155 Y1.69945
X-0.04155 Y1.69845
X-0.04255 Y1.69845
X-0.04255 Y1.69745
X-0.04355 Y1.69745
X-0.04355 Y1.69645
X-0.04455 Y1.69645
X-0.04455 Y1.69545
X-0.04555 Y1.69545
X-0.04555 Y1.69445
X-0.04655 Y1.69445
X-0.04655 Y1.69345
X-0.04755 Y1.69345
X-0.04755 Y1.69245
X-0.04855 Y1.69245
X-0.04855 Y1.69145
X-0.04955 Y1.69145
X-0.04955 Y1.69045
X-0.05055 Y1.69045
X-0.05055 Y1.68945
X-0.05155 Y1.68945
X-0.05155 Y1.68845
X-0.05255 Y1.68845
X-0.05255 Y1.68745
X-0.05355 Y1.68745
X-0.05355 Y1.68645
X-0.05455 Y1.68645
X-0.05455 Y1.68545
X-0.05555 Y1.68545
X-0.05555 Y1.68445
X-0.05655 Y1.68445
X-0.05655 Y1.68345
X-0.05755 Y1.68345
X-0.05755 Y1.68245
X-0.05855 Y1.68245
X-0.05855 Y1.68145
X-0.05955 Y1.68145
X-0.05955 Y1.68045
X-0.06055 Y1.68045
X-0.06055 Y1.67945
X-0.06155 Y1.67945
X-0.06155 Y1.67845
X-0.06255 Y1.67845
X-0.06255 Y1.67745
X-0.06355 Y1.67745
X-0.06355 Y1.67645
X-0.06455 Y1.67645
X-0.06455 Y1.67545
X-0.06555 Y1.67545
X-0.06555 Y1.67445
X-0.06655 Y1.67445
X-0.06655 Y1.67345
X-0.06755 Y1.67345
X-0.06755 Y1.67245
X-0.06855 Y1.67245
X-0.06855 Y1.67145
X-0.06955 Y1.67145
X-0.06955 Y1.67045
X-0.07055 Y1.67045
X-0.07055 Y1.66945
X-0.07155 Y1.66945
X-0.07155 Y1.66845
X-0.07255 Y1.66845
X-0.07255 Y1.66745
X-0.07355 Y1.66745
X-0.07355 Y1.66645
X-0.07455 Y1.66645
X-0.07455 Y1.66545
X-0.07555 Y1.66545
X-0.07555 Y1.66445
X-0.07655 Y1.66445
X-0.07655 Y1.66345
X-0.09255 Y1.66345
X-0.09255 Y1.66245
X-0.09455 Y1.66245
X-0.09455 Y1.66145
X-0.09655 Y1.66145
X-0.09655 Y1.66045
X-0.09755 Y1.66045
X-0.09755 Y1.65945
X-0.09855 Y1.65945
X-0.09855 Y1.65845
X-0.09955 Y1.65845
X-0.09955 Y1.65745
X-0.10055 Y1.65745
X-0.10055 Y1.65645
X-0.10155 Y1.65645
X-0.10155 Y1.65445
X-0.10255 Y1.65445
X-0.10255 Y1.65145
X-0.10355 Y1.65145
X-0.10355 Y1.63045
X-0.10255 Y1.63045
X-0.10255 Y1.62745
X-0.10155 Y1.62745
X-0.10155 Y1.62545
X-0.10055 Y1.62545
X-0.10055 Y1.62445
X-0.09955 Y1.62445
X-0.09955 Y1.62345
X-0.09855 Y1.62345
X-0.09855 Y1.62245
X-0.09755 Y1.62245
X-0.09755 Y1.62145
X-0.09655 Y1.62145
X-0.09655 Y1.62045
X-0.09455 Y1.62045
X-0.09455 Y1.61945
X-0.09255 Y1.61945
X-0.09255 Y1.61845
X-0.06955 Y1.61845
X-0.06955 Y1.61945
X-0.06755 Y1.61945
X-0.06755 Y1.62045
X-0.06555 Y1.62045
X-0.06555 Y1.62145
X-0.06455 Y1.62145
X-0.06455 Y1.62245
X-0.06355 Y1.62245
X-0.06355 Y1.62345
X-0.06255 Y1.62345
X-0.06255 Y1.62445
X-0.06155 Y1.62445
X-0.06155 Y1.62545
X-0.06055 Y1.62545
X-0.06055 Y1.62745
X-0.05955 Y1.62745
X-0.05955 Y1.63045
X-0.05855 Y1.63045
X-0.05855 Y1.64545
X-0.05755 Y1.64545
X-0.05755 Y1.64645
X-0.05655 Y1.64645
X-0.05655 Y1.64745
X-0.05555 Y1.64745
X-0.05555 Y1.64845
X-0.05455 Y1.64845
X-0.05455 Y1.64945
X-0.05355 Y1.64945
X-0.05355 Y1.65045
X-0.05255 Y1.65045
X-0.05255 Y1.65145
X-0.05155 Y1.65145
X-0.05155 Y1.65245
X-0.05055 Y1.65245
X-0.05055 Y1.65345
X-0.04955 Y1.65345
X-0.04955 Y1.65445
X-0.04855 Y1.65445
X-0.04855 Y1.65545
X-0.04755 Y1.65545
X-0.04755 Y1.65645
X-0.04655 Y1.65645
X-0.04655 Y1.65745
X-0.04555 Y1.65745
X-0.04555 Y1.65845
X-0.04455 Y1.65845
X-0.04455 Y1.65945
X-0.04355 Y1.65945
X-0.04355 Y1.66045
X-0.04255 Y1.66045
X-0.04255 Y1.66145
X-0.04155 Y1.66145
X-0.04155 Y1.66245
X-0.04055 Y1.66245
X-0.04055 Y1.66345
X-0.03955 Y1.66345
X-0.03955 Y1.66445
X-0.03855 Y1.66445
X-0.03855 Y1.66545
X-0.03755 Y1.66545
X-0.03755 Y1.66645
X-0.03655 Y1.66645
X-0.03655 Y1.66745
X-0.03555 Y1.66745
X-0.03555 Y1.66845
X-0.03455 Y1.66845
X-0.03455 Y1.66945
X-0.03355 Y1.66945
X-0.03355 Y1.67045
X-0.03255 Y1.67045
X-0.03255 Y1.67145
X-0.03155 Y1.67145
X-0.03155 Y1.67245
X-0.03055 Y1.67245
X-0.03055 Y1.67345
X-0.02955 Y1.67345
X-0.02955 Y1.67445
X-0.02855 Y1.67445
X-0.02855 Y1.67545
X-0.02755 Y1.67545
X-0.02755 Y1.67645
X-0.02655 Y1.67645
X-0.02655 Y1.67745
X-0.02555 Y1.67745
X-0.02555 Y1.67845
X-0.02455 Y1.67845
X-0.02455 Y1.67945
X-0.02355 Y1.67945
X-0.02355 Y1.68045
X-0.02255 Y1.68045
X-0.02255 Y1.68145
X-0.02155 Y1.68145
X-0.02155 Y1.68245
X-0.02055 Y1.68245
X-0.02055 Y1.68345
X-0.01955 Y1.68345
X-0.01955 Y1.68445
X-0.01855 Y1.68445
X-0.01855 Y1.68545
X-0.01755 Y1.68545
X-0.01755 Y1.68645
X-0.01655 Y1.68645
X-0.01655 Y1.68745
X-0.01555 Y1.68745
X-0.01555 Y1.68845
X-0.01455 Y1.68845
X-0.01455 Y1.68945
X-0.01355 Y1.68945
X-0.01355 Y1.69045
X-0.01255 Y1.69045
X-0.01255 Y1.69145
X-0.01155 Y1.69145
X-0.01155 Y1.69245
X-0.01055 Y1.69245
X-0.01055 Y1.69345
X-0.00955 Y1.69345
X-0.00955 Y1.69445
X-0.00855 Y1.69445
X-0.00855 Y1.69545
X-0.00755 Y1.69545
X-0.00755 Y1.69645
X-0.00655 Y1.69645
X-0.00655 Y1.69745
X-0.00555 Y1.69745
X-0.00555 Y1.69845
X-0.00455 Y1.69845
X-0.00455 Y1.69945
X-0.00355 Y1.69945
X-0.00355 Y1.70045
X-0.00255 Y1.70045
X-0.00255 Y1.70145
X-0.00155 Y1.70145
X-0.00155 Y1.70245
X-0.00055 Y1.70245
X-0.00055 Y1.70345
X0.00045 Y1.70345
X0.00045 Y1.70445
X0.00145 Y1.70445
X0.00145 Y1.70545
X0.00245 Y1.70545
X0.00245 Y1.70645
X0.00345 Y1.70645
X0.00345 Y1.70745
X0.00445 Y1.70745
X0.00445 Y1.70845
X0.00545 Y1.70845
X0.00545 Y1.70945
X0.00645 Y1.70945
X0.00645 Y1.71045
X0.00745 Y1.71045
X0.00745 Y1.71145
X0.00845 Y1.71145
X0.00845 Y1.71245
X0.00945 Y1.71245
X0.00945 Y1.71345
X0.01045 Y1.71345
X0.01045 Y1.71445
X0.01145 Y1.71445
X0.01145 Y1.71545
X0.01245 Y1.71545
X0.01245 Y1.71645
X0.01345 Y1.71645
X0.01345 Y1.71745
X0.01445 Y1.71745
X0.01445 Y1.71845
X0.01545 Y1.71845
X0.01545 Y1.71945
X0.01645 Y1.71945
X0.01645 Y1.72045
X0.01745 Y1.72045
X0.01745 Y1.72145
X0.01845 Y1.72145
X0.01845 Y1.72245
X0.01945 Y1.72245
X0.01945 Y1.72345
X0.02045 Y1.72345
X0.02045 Y1.72445
X0.02145 Y1.72445
X0.02145 Y1.72545
X0.02245 Y1.72545
X0.02245 Y1.72645
X0.02345 Y1.72645
X0.02345 Y1.72745
X0.02445 Y1.72745
X0.02445 Y1.72845
X0.02545 Y1.72845
X0.02545 Y1.72945
X0.02645 Y1.72945
X0.02645 Y1.73045
X0.02745 Y1.73045
X0.02745 Y1.73145
X0.02845 Y1.73145
X0.02845 Y1.73245
X0.02945 Y1.73245
X0.02945 Y1.73345
X0.03045 Y1.73345
X0.03045 Y1.73445
X0.03145 Y1.73445
X0.03145 Y1.73545
X0.03245 Y1.73545
X0.03245 Y1.73645
X0.03345 Y1.73645
X0.03345 Y1.73745
X0.03445 Y1.73745
X0.03445 Y1.73845
X0.03545 Y1.73845
X0.03545 Y1.73945
X0.03645 Y1.73945
X0.03645 Y1.74045
X0.03745 Y1.74045
X0.03745 Y1.74145
X0.03845 Y1.74145
X0.03845 Y1.74245
X0.03945 Y1.74245
X0.03945 Y1.74345
X0.04045 Y1.74345
X0.04045 Y1.74445
X0.04145 Y1.74445
X0.04145 Y1.74545
X0.04245 Y1.74545
X0.04245 Y1.74645
X0.04345 Y1.74645
X0.04345 Y1.74745
X0.04445 Y1.74745
X0.04445 Y1.74845
X0.04545 Y1.74845
X0.04545 Y1.74945
X0.04645 Y1.74945
X0.04645 Y1.75045
X0.04745 Y1.75045
X0.04745 Y1.75145
X0.04845 Y1.75145
X0.04845 Y1.75245
X0.04945 Y1.75245
X0.04945 Y1.75345
X0.05045 Y1.75345
X0.05045 Y1.75445
X0.05145 Y1.75445
X0.05145 Y1.75545
X0.05245 Y1.75545
X0.05245 Y1.75645
X0.05345 Y1.75645
X0.05345 Y1.75745
X0.05445 Y1.75745
X0.05445 Y1.75845
X0.05545 Y1.75845
X0.05545 Y1.75945
X0.05645 Y1.75945
X0.05645 Y1.76045
X0.05745 Y1.76045
X0.05745 Y1.76145
X0.05845 Y1.76145
X0.05845 Y1.76245
X0.05945 Y1.76245
X0.05945 Y1.76345
X0.06045 Y1.76345
X0.06045 Y1.76445
X0.06145 Y1.76445
X0.06145 Y1.76545
X0.06245 Y1.76545
X0.06245 Y1.76645
X0.06345 Y1.76645
X0.06345 Y1.76745
X0.06445 Y1.76745
X0.06445 Y1.76845
X0.06545 Y1.76845
X0.06545 Y1.76945
X0.06645 Y1.76945
X0.06645 Y1.77045
X0.06745 Y1.77045
X0.06745 Y1.77145
X0.06845 Y1.77145
X0.06845 Y1.77245
X0.06945 Y1.77245
X0.06945 Y1.77345
X0.07045 Y1.77345
X0.07045 Y1.77445
X0.07145 Y1.77445
X0.07145 Y1.77545
X0.07245 Y1.77545
X0.07245 Y1.77645
X0.07345 Y1.77645
X0.07345 Y1.77745
X0.07445 Y1.77745
X0.07445 Y1.77845
X0.07545 Y1.77845
X0.07545 Y1.77945
X0.07645 Y1.77945
X0.07645 Y1.78045
X0.07745 Y1.78045
X0.07745 Y1.78145
X0.07845 Y1.78145
X0.07845 Y1.78245
X0.07945 Y1.78245
X0.07945 Y1.78345
X0.08045 Y1.78345
X0.08045 Y1.78445
X0.08145 Y1.78445
X0.08145 Y1.78545
X0.08245 Y1.78545
X0.08245 Y1.78645
X0.08345 Y1.78645
X0.08345 Y1.78745
X0.08445 Y1.78745
X0.08445 Y1.78845
X0.08545 Y1.78845
X0.08545 Y1.78945
X0.08645 Y1.78945
X0.08645 Y1.79045
X0.08745 Y1.79045
X0.08745 Y1.79145
X0.08845 Y1.79145
X0.08845 Y1.79245
X0.08945 Y1.79245
X0.08945 Y1.79345
X0.09045 Y1.79345
X0.09045 Y1.79445
X0.09145 Y1.79445
X0.09145 Y1.79545
X0.09245 Y1.79545
X0.09245 Y1.79645
X0.09345 Y1.79645
X0.09345 Y1.79745
X0.09445 Y1.79745
X0.09445 Y1.79845
X0.09545 Y1.79845
X0.09545 Y1.79945
X0.09645 Y1.79945
X0.09645 Y1.80045
X0.09745 Y1.80045
X0.09745 Y1.80145
X0.09845 Y1.80145
X0.09845 Y1.80245
X0.09945 Y1.80245
X0.09945 Y1.80345
X0.10045 Y1.80345
X0.10045 Y1.80445
X0.10145 Y1.80445
X0.10145 Y1.80545
X0.10245 Y1.80545
X0.10245 Y1.80645
X0.10345 Y1.80645
X0.10345 Y1.80745
X0.10445 Y1.80745
X0.10445 Y1.80845
X0.10545 Y1.80845
X0.10545 Y1.80945
X0.10645 Y1.80945
X0.10645 Y1.81045
X0.45145 Y1.81045
X0.45145 Y1.80945
X0.45245 Y1.80945
X0.45245 Y1.80845
X0.45345 Y1.80845
X0.45345 Y1.80745
X0.45445 Y1.80745
X0.45445 Y1.80645
X0.45545 Y1.80645
X0.45545 Y1.80545
X0.45645 Y1.80545
X0.45645 Y1.80445
X0.45745 Y1.80445
X0.45745 Y1.80345
X0.45845 Y1.80345
X0.45845 Y1.80245
X0.45945 Y1.80245
X0.45945 Y1.80145
X0.46045 Y1.80145
X0.46045 Y1.80045
X0.46145 Y1.80045
X0.46145 Y1.79945
X0.46245 Y1.79945
X0.46245 Y1.79845
X0.46345 Y1.79845
X0.46345 Y1.79745
X0.46445 Y1.79745
X0.46445 Y1.79645
X0.46545 Y1.79645
X0.46545 Y1.79545
X0.46645 Y1.79545
X0.46645 Y1.79445
X0.46745 Y1.79445
X0.46745 Y1.79345
X0.46845 Y1.79345
X0.46845 Y1.79245
X0.46945 Y1.79245
X0.46945 Y1.79145
X0.47045 Y1.79145
X0.47045 Y1.79045
X0.47145 Y1.79045
X0.47145 Y1.78945
X0.47245 Y1.78945
X0.47245 Y1.78845
X0.47345 Y1.78845
X0.47345 Y1.78745
X0.47445 Y1.78745
X0.47445 Y1.78645
X0.47545 Y1.78645
X0.47545 Y1.78545
X0.47645 Y1.78545
X0.47645 Y1.78445
X0.47745 Y1.78445
X0.47745 Y1.78345
X0.47845 Y1.78345
X0.47845 Y1.78245
X0.47945 Y1.78245
X0.47945 Y1.78145
X0.48045 Y1.78145
X0.48045 Y1.78045
X0.48145 Y1.78045
X0.48145 Y1.77945
X0.48245 Y1.77945
X0.48245 Y1.77845
X0.48345 Y1.77845
X0.48345 Y1.77745
X0.48445 Y1.77745
X0.48445 Y1.77645
X0.48545 Y1.77645
X0.48545 Y1.77545
X0.48645 Y1.77545
X0.48645 Y1.77445
X0.48745 Y1.77445
X0.48745 Y1.77345
X0.48845 Y1.77345
X0.48845 Y1.77245
X0.48945 Y1.77245
X0.48945 Y1.77145
X0.49045 Y1.77145
X0.49045 Y1.77045
X0.49145 Y1.77045
X0.49145 Y1.76945
X0.49245 Y1.76945
X0.49245 Y1.76845
X0.49345 Y1.76845
X0.49345 Y1.76745
X0.49445 Y1.76745
X0.49445 Y1.76645
X0.49545 Y1.76645
X0.49545 Y1.76545
X0.49645 Y1.76545
X0.49645 Y1.76445
X0.49745 Y1.76445
X0.49745 Y1.76345
X0.49845 Y1.76345
X0.49845 Y1.76245
X0.49945 Y1.76245
X0.49945 Y1.76145
X0.50045 Y1.76145
X0.50045 Y1.76045
X0.50145 Y1.76045
X0.50145 Y1.75945
X0.50245 Y1.75945
X0.50245 Y1.75845
X0.50345 Y1.75845
X0.50345 Y1.75745
X0.50445 Y1.75745
X0.50445 Y1.75645
X0.50545 Y1.75645
X0.50545 Y1.75545
X0.50645 Y1.75545
X0.50645 Y1.75445
X0.50745 Y1.75445
X0.50745 Y1.75345
X0.50845 Y1.75345
X0.50845 Y1.75245
X0.50945 Y1.75245
X0.50945 Y1.75145
X0.51045 Y1.75145
X0.51045 Y1.75045
X0.51145 Y1.75045
X0.51145 Y1.74945
X0.51245 Y1.74945
X0.51245 Y1.74845
X0.51345 Y1.74845
X0.51345 Y1.74745
X0.51445 Y1.74745
X0.51445 Y1.74645
X0.51545 Y1.74645
X0.51545 Y1.74545
X0.51645 Y1.74545
X0.51645 Y1.74445
X0.51745 Y1.74445
X0.51745 Y1.74345
X0.51845 Y1.74345
X0.51845 Y1.74245
X0.51945 Y1.74245
X0.51945 Y1.74145
X0.52045 Y1.74145
X0.52045 Y1.74045
X0.52145 Y1.74045
X0.52145 Y1.73945
X0.52245 Y1.73945
X0.52245 Y1.73845
X0.52345 Y1.73845
X0.52345 Y1.73745
X0.52445 Y1.73745
X0.52445 Y1.73645
X0.52545 Y1.73645
X0.52545 Y1.73545
X0.52645 Y1.73545
X0.52645 Y1.73445
X0.52745 Y1.73445
X0.52745 Y1.73345
X0.52845 Y1.73345
X0.52845 Y1.73245
X0.52945 Y1.73245
X0.52945 Y1.73145
X0.53045 Y1.73145
X0.53045 Y1.73045
X0.53145 Y1.73045
X0.53145 Y1.72945
X0.53245 Y1.72945
X0.53245 Y1.72845
X0.53345 Y1.72845
X0.53345 Y1.72745
X0.53445 Y1.72745
X0.53445 Y1.72645
X0.53545 Y1.72645
X0.53545 Y1.72545
X0.53645 Y1.72545
X0.53645 Y1.72445
X0.53745 Y1.72445
X0.53745 Y1.72345
X0.53845 Y1.72345
X0.53845 Y1.72245
X0.53945 Y1.72245
X0.53945 Y1.72145
X0.54045 Y1.72145
X0.54045 Y1.72045
X0.54145 Y1.72045
X0.54145 Y1.71945
X0.54245 Y1.71945
X0.54245 Y1.71845
X0.54345 Y1.71845
X0.54345 Y1.71745
X0.54445 Y1.71745
X0.54445 Y1.71645
X0.54545 Y1.71645
X0.54545 Y1.71545
X0.54645 Y1.71545
X0.54645 Y1.71445
X0.54745 Y1.71445
X0.54745 Y1.71345
X0.54845 Y1.71345
X0.54845 Y0.91445
X0.54945 Y0.91445
X0.54945 Y0.91145
X0.55045 Y0.91145
X0.55045 Y0.91045
X0.55145 Y0.91045
X0.55145 Y0.90945
X0.55245 Y0.90945
X0.55245 Y0.90845
X0.55345 Y0.90845
X0.55345 Y0.90745
X0.55445 Y0.90745
X0.55445 Y0.90645
X0.55545 Y0.90645
X0.55545 Y0.90545
X0.55645 Y0.90545
X0.55645 Y0.89045
X0.55745 Y0.89045
X0.55745 Y0.88745
X0.55845 Y0.88745
X0.55845 Y0.88545
X0.55945 Y0.88545
X0.55945 Y0.88445
X0.56045 Y0.88445
X0.56045 Y0.88345
X0.56145 Y0.88345
X0.56145 Y0.88245
X0.56245 Y0.88245
X0.56245 Y0.88145
X0.56345 Y0.88145
X0.56345 Y0.88045
X0.56545 Y0.88045
X0.56545 Y0.87945
X0.56745 Y0.87945
X0.56745 Y0.87845
X0.59045 Y0.87845
X0.59045 Y0.87945
X0.59245 Y0.87945
X0.59245 Y0.88045
X0.59445 Y0.88045
X0.59445 Y0.88145
X0.59545 Y0.88145
X0.59545 Y0.88245
X0.59645 Y0.88245
X0.59645 Y0.88345
X0.59745 Y0.88345
X0.59745 Y0.88445
X0.59845 Y0.88445
X0.59845 Y0.88545
X0.59945 Y0.88545
X0.59945 Y0.88745
X0.60045 Y0.88745
X0.60045 Y0.89045
X0.60145 Y0.89045
X0.60145 Y0.91145
X0.60045 Y0.91145
X0.60045 Y0.91445
X0.59945 Y0.91445
X0.59945 Y0.91645
X0.59845 Y0.91645
X0.59845 Y0.91745
X0.59745 Y0.91745
X0.59745 Y0.91845
X0.59645 Y0.91845
X0.59645 Y0.91945
X0.59545 Y0.91945
X0.59545 Y0.92045
X0.59445 Y0.92045
X0.59445 Y0.92145
X0.59245 Y0.92145
X0.59245 Y0.92245
X0.59045 Y0.92245
X0.59045 Y0.92345
X0.57445 Y0.92345
X0.57445 Y0.92445
X0.57345 Y0.92445
X0.57345 Y0.92545
X0.57245 Y0.92545
X0.57245 Y0.92645
X0.57145 Y0.92645
X0.57145 Y0.92745
X0.57045 Y0.92745
X0.57045 Y0.92845
X0.56945 Y0.92845
X0.56945 Y1.72745
X0.56845 Y1.72745
X0.56845 Y1.73045
X0.56745 Y1.73045
X0.56745 Y1.73145
X0.56645 Y1.73145
X0.56645 Y1.73245
X0.56545 Y1.73245
X0.56545 Y1.73345
X0.56445 Y1.73345
X0.56445 Y1.73445
X0.56345 Y1.73445
X0.56345 Y1.73545
X0.56245 Y1.73545
X0.56245 Y1.73645
X0.56145 Y1.73645
X0.56145 Y1.73745
X0.56045 Y1.73745
X0.56045 Y1.73845
X0.55945 Y1.73845
X0.55945 Y1.73945
X0.55845 Y1.73945
X0.55845 Y1.74045
X0.55745 Y1.74045
X0.55745 Y1.74145
X0.55645 Y1.74145
X0.55645 Y1.74245
X0.55545 Y1.74245
X0.55545 Y1.74345
X0.55445 Y1.74345
X0.55445 Y1.74445
X0.55345 Y1.74445
X0.55345 Y1.74545
X0.55245 Y1.74545
X0.55245 Y1.74645
X0.55145 Y1.74645
X0.55145 Y1.74745
X0.55045 Y1.74745
X0.55045 Y1.74845
X0.54945 Y1.74845
X0.54945 Y1.74945
X0.54845 Y1.74945
X0.54845 Y1.75045
X0.54745 Y1.75045
X0.54745 Y1.75145
X0.54645 Y1.75145
X0.54645 Y1.75245
X0.54545 Y1.75245
X0.54545 Y1.75345
X0.54445 Y1.75345
X0.54445 Y1.75445
X0.54345 Y1.75445
X0.54345 Y1.75545
X0.54245 Y1.75545
X0.54245 Y1.75645
X0.54145 Y1.75645
X0.54145 Y1.75745
X0.54045 Y1.75745
X0.54045 Y1.75845
X0.53945 Y1.75845
X0.53945 Y1.75945
X0.53845 Y1.75945
X0.53845 Y1.76045
X0.53745 Y1.76045
X0.53745 Y1.76145
X0.53645 Y1.76145
X0.53645 Y1.76245
X0.53545 Y1.76245
X0.53545 Y1.76345
X0.53445 Y1.76345
X0.53445 Y1.76445
X0.53345 Y1.76445
X0.53345 Y1.76545
X0.53245 Y1.76545
X0.53245 Y1.76645
X0.53145 Y1.76645
X0.53145 Y1.76745
X0.53045 Y1.76745
X0.53045 Y1.76845
X0.52945 Y1.76845
X0.52945 Y1.76945
X0.52845 Y1.76945
X0.52845 Y1.77045
X0.52745 Y1.77045
X0.52745 Y1.77145
X0.52645 Y1.77145
X0.52645 Y1.77245
X0.52545 Y1.77245
X0.52545 Y1.77345
X0.52445 Y1.77345
X0.52445 Y1.77445
X0.52345 Y1.77445
X0.52345 Y1.77545
X0.52245 Y1.77545
X0.52245 Y1.77645
X0.52145 Y1.77645
X0.52145 Y1.77745
X0.52045 Y1.77745
X0.52045 Y1.77845
X0.51945 Y1.77845
X0.51945 Y1.77945
X0.51845 Y1.77945
X0.51845 Y1.78045
X0.51745 Y1.78045
X0.51745 Y1.78145
X0.51645 Y1.78145
X0.51645 Y1.78245
X0.51545 Y1.78245
X0.51545 Y1.78345
X0.51445 Y1.78345
X0.51445 Y1.78445
X0.51345 Y1.78445
X0.51345 Y1.78545
X0.51245 Y1.78545
X0.51245 Y1.78645
X0.51145 Y1.78645
X0.51145 Y1.78745
X0.51045 Y1.78745
X0.51045 Y1.78845
X0.50945 Y1.78845
X0.50945 Y1.78945
X0.50845 Y1.78945
X0.50845 Y1.79045
X0.50745 Y1.79045
X0.50745 Y1.79145
X0.50645 Y1.79145
X0.50645 Y1.79245
X0.50545 Y1.79245
X0.50545 Y1.79345
X0.50445 Y1.79345
X0.50445 Y1.79445
X0.50345 Y1.79445
X0.50345 Y1.79545
X0.50245 Y1.79545
X0.50245 Y1.79645
X0.50145 Y1.79645
X0.50145 Y1.79745
X0.50045 Y1.79745
X0.50045 Y1.79845
X0.49945 Y1.79845
X0.49945 Y1.79945
X0.49845 Y1.79945
X0.49845 Y1.80045
X0.49745 Y1.80045
X0.49745 Y1.80145
X0.49645 Y1.80145
X0.49645 Y1.80245
X0.49545 Y1.80245
X0.49545 Y1.80345
X0.49445 Y1.80345
X0.49445 Y1.80445
X0.49345 Y1.80445
X0.49345 Y1.80545
X0.49245 Y1.80545
X0.49245 Y1.80645
X0.49145 Y1.80645
X0.49145 Y1.80745
X0.49045 Y1.80745
X0.49045 Y1.80845
X0.48945 Y1.80845
X0.48945 Y1.80945
X0.48845 Y1.80945
X0.48845 Y1.81045
X0.48745 Y1.81045
X0.48745 Y1.81145
X0.48645 Y1.81145
X0.48645 Y1.81245
X0.48545 Y1.81245
X0.48545 Y1.81345
X0.48445 Y1.81345
X0.48445 Y1.81445
X0.48345 Y1.81445
X0.48345 Y1.81545
X0.48245 Y1.81545
X0.48245 Y1.81645
X0.48145 Y1.81645
X0.48145 Y1.81745
X0.48045 Y1.81745
X0.48045 Y1.81845
X0.47945 Y1.81845
X0.47945 Y1.81945
X0.47845 Y1.81945
X0.47845 Y1.82045
X0.47745 Y1.82045
X0.47745 Y1.82145
X0.47645 Y1.82145
X0.47645 Y1.82245
X0.47545 Y1.82245
X0.47545 Y1.82345
X0.47445 Y1.82345
X0.47445 Y1.82445
X0.47345 Y1.82445
X0.47345 Y1.82545
X0.47245 Y1.82545
X0.47245 Y1.82645
X0.47145 Y1.82645
X0.47145 Y1.82745
X0.47045 Y1.82745
X0.47045 Y1.82845
X0.46945 Y1.82845
X0.46945 Y1.82945
X0.46845 Y1.82945
X0.46845 Y1.83045
X0.46645 Y1.83045
X0.46645 Y1.83145
X0.09145 Y1.83145
X0.09145 Y1.83045
X0.08945 Y1.83045
X0.08945 Y1.82945
X0.08845 Y1.82945
X0.08845 Y1.82845
X0.08745 Y1.82845
X0.08745 Y1.82745
X0.08645 Y1.82745
X0.08645 Y1.82645
X0.08545 Y1.82645
X0.08545 Y1.82545
G04 P0 ( dwell for no time -- G64 should not smooth over this point )
G00 Z0.08000 ( retract )

G00 X0.44045 Y1.71745 ( rapid move to begin. )
G01 Z-0.00200 F6.00000 ( plunge. )
G04 P0 ( dwell for no time -- G64 should not smooth over this point )
X0.44045 Y1.71745
X0.43945 Y1.71745
X0.43945 Y1.71645
X0.43845 Y1.71645
X0.43845 Y1.71445
X0.43745 Y1.71445
X0.43745 Y1.71145
X0.43645 Y1.71145
X0.43645 Y1.69645
X0.43545 Y1.69645
X0.43545 Y1.69545
X0.43445 Y1.69545
X0.43445 Y1.69445
X0.43345 Y1.69445
X0.43345 Y1.69345
X0.43245 Y1.69345
X0.43245 Y1.69245
X0.43145 Y1.69245
X0.43145 Y1.69145
X0.43045 Y1.69145
X0.43045 Y1.69045
X0.42945 Y1.69045
X0.42945 Y1.68745
X0.42845 Y1.68745
X0.42845 Y1.33145
X0.02045 Y1.33145
X0.02045 Y1.33445
X0.01945 Y1.33445
X0.01945 Y1.33645
X0.01845 Y1.33645
X0.01845 Y1.33745
X0.01745 Y1.33745
X0.01745 Y1.33845
X0.01645 Y1.33845
X0.01645 Y1.33945
X0.01545 Y1.33945
X0.01545 Y1.34045
X0.01445 Y1.34045
X0.01445 Y1.34145
X0.01245 Y1.34145
X0.01245 Y1.34245
X0.01045 Y1.34245
X0.01045 Y1.34345
X-0.01255 Y1.34345
X-0.01255 Y1.34245
X-0.01455 Y1.34245
X-0.01455 Y1.34145
X-0.01655 Y1.34145
X-0.01655 Y1.34045
X-0.01755 Y1.34045
X-0.01755 Y1.33945
X-0.01855 Y1.33945
X-0.01855 Y1.33845
X-0.01955 Y1.33845
X-0.01955 Y1.33745
X-0.02055 Y1.33745
X-0.02055 Y1.33645
X-0.02155 Y1.33645
X-0.02155 Y1.33445
X-0.02255 Y1.33445
X-0.02255 Y1.33145
X-0.02355 Y1.33145
X-0.02355 Y1.31045
X-0.02255 Y1.31045
X-0.02255 Y1.30745
X-0.02155 Y1.30745
X-0.02155 Y1.30545
X-0.02055 Y1.30545
X-0.02055 Y1.30445
X-0.01955 Y1.30445
X-0.01955 Y1.30345
X-0.01855 Y1.30345
X-0.01855 Y1.30245
X-0.01755 Y1.30245
X-0.01755 Y1.30145
X-0.01655 Y1.30145
X-0.01655 Y1.30045
X-0.01455 Y1.30045
X-0.01455 Y1.29945
X-0.01255 Y1.29945
X-0.01255 Y1.29845
X-0.01155 Y1.29845
X-0.01155 Y0.80845
X-0.01255 Y0.80845
X-0.01255 Y0.80745
X-0.01355 Y0.80745
X-0.01355 Y0.80645
X-0.01455 Y0.80645
X-0.01455 Y0.80545
X-0.01555 Y0.80545
X-0.01555 Y0.80445
X-0.01655 Y0.80445
X-0.01655 Y0.80345
X-0.01755 Y0.80345
X-0.01755 Y0.80245
X-0.01855 Y0.80245
X-0.01855 Y0.80145
X-0.01955 Y0.80145
X-0.01955 Y0.80045
X-0.02055 Y0.80045
X-0.02055 Y0.79945
X-0.02155 Y0.79945
X-0.02155 Y0.79845
X-0.02255 Y0.79845
X-0.02255 Y0.79745
X-0.02355 Y0.79745
X-0.02355 Y0.79645
X-0.02455 Y0.79645
X-0.02455 Y0.79545
X-0.02555 Y0.79545
X-0.02555 Y0.79445
X-0.02655 Y0.79445
X-0.02655 Y0.79345
X-0.02755 Y0.79345
X-0.02755 Y0.79245
X-0.02855 Y0.79245
X-0.02855 Y0.79145
X-0.02955 Y0.79145
X-0.02955 Y0.79045
X-0.03055 Y0.79045
X-0.03055 Y0.78945
X-0.03155 Y0.78945
X-0.03155 Y0.78845
X-0.03255 Y0.78845
X-0.03255 Y0.78745
X-0.03355 Y0.78745
X-0.03355 Y0.78645
X-0.03455 Y0.78645
X-0.03455 Y0.78545
X-0.03555 Y0.78545
X-0.03555 Y0.78445
X-0.03655 Y0.78445
X-0.03655 Y0.78345
X-0.05255 Y0.78345
X-0.05255 Y0.78245
X-0.05455 Y0.78245
X-0.05455 Y0.78145
X-0.05655 Y0.78145
X-0.05655 Y0.78045
X-0.05755 Y0.78045
X-0.05755 Y0.77945
X-0.05855 Y0.77945
X-0.05855 Y0.77845
X-0.05955 Y0.77845
X-0.05955 Y0.77745
X-0.06055 Y0.77745
X-0.06055 Y0.77645
X-0.06155 Y0.77645
X-0.06155 Y0.77445
X-0.06255 Y0.77445
X-0.06255 Y0.77145
X-0.06355 Y0.77145
X-0.06355 Y0.75045
X-0.06255 Y0.75045
X-0.06255 Y0.74745
X-0.06155 Y0.74745
X-0.06155 Y0.74545
X-0.06055 Y0.74545
X-0.06055 Y0.74445
X-0.05955 Y0.74445
X-0.05955 Y0.74345
X-0.05855 Y0.74345
X-0.05855 Y0.74245
X-0.05755 Y0.74245
X-0.05755 Y0.74145
X-0.05655 Y0.74145
X-0.05655 Y0.74045
X-0.05455 Y0.74045
X-0.05455 Y0.73945
X-0.05255 Y0.73945
X-0.05255 Y0.73845
X-0.02955 Y0.73845
X-0.02955 Y0.73945
X-0.02755 Y0.73945
X-0.02755 Y0.74045
X-0.02555 Y0.74045
X-0.02555 Y0.74145
X-0.02455 Y0.74145
X-0.02455 Y0.74245
X-0.02355 Y0.74245
X-0.02355 Y0.74345
X-0.02255 Y0.74345
X-0.02255 Y0.74445
X-0.02155 Y0.74445
X-0.02155 Y0.74545
X-0.02055 Y0.74545
X-0.02055 Y0.74745
X-0.01955 Y0.74745
X-0.01955 Y0.75045
X-0.01855 Y0.75045
X-0.01855 Y0.76545
X-0.01755 Y0.76545
X-0.01755 Y0.76645
X-0.01655 Y0.76645
X-0.01655 Y0.76745
X-0.01555 Y0.76745
X-0.01555 Y0.76845
X-0.01455 Y0.76845
X-0.01455 Y0.76945
X-0.01355 Y0.76945
X-0.01355 Y0.77045
X-0.01255 Y0.77045
X-0.01255 Y0.77145
X-0.01155 Y0.77145
X-0.01155 Y0.77245
X-0.01055 Y0.77245
X-0.01055 Y0.77345
X-0.00955 Y0.77345
X-0.00955 Y0.77445
X-0.00855 Y0.77445
X-0.00855 Y0.77545
X-0.00755 Y0.77545
X-0.00755 Y0.77645
X-0.00655 Y0.77645
X-0.00655 Y0.77745
X-0.00555 Y0.77745
X-0.00555 Y0.77845
X-0.00455 Y0.77845
X-0.00455 Y0.77945
X-0.00355 Y0.77945
X-0.00355 Y0.78045
X-0.00255 Y0.78045
X-0.00255 Y0.78145
X-0.00155 Y0.78145
X-0.00155 Y0.78245
X-0.00055 Y0.78245
X-0.00055 Y0.78345
X0.00045 Y0.78345
X0.00045 Y0.78445
X0.00145 Y0.78445
X0.00145 Y0.78545
X0.00245 Y0.78545
X0.00245 Y0.78645
X0.00345 Y0.78645
X0.00345 Y0.78745
X0.00445 Y0.78745
X0.00445 Y0.78845
X0.00545 Y0.78845
X0.00545 Y0.78945
X0.00645 Y0.78945
X0.00645 Y0.79045
X0.00745 Y0.79045
X0.00745 Y0.79145
X0.00845 Y0.79145
X0.00845 Y0.79445
X0.00945 Y0.79445
X0.00945 Y1.29845
X0.01045 Y1.29845
X0.01045 Y1.29945
X0.01245 Y1.29945
X0.01245 Y1.30045
X0.01445 Y1.30045
X0.01445 Y1.30145
X0.01545 Y1.30145
X0.01545 Y1.30245
X0.01645 Y1.30245
X0.01645 Y1.30345
X0.01745 Y1.30345
X0.01745 Y1.30445
X0.01845 Y1.30445
X0.01845 Y1.30545
X0.01945 Y1.30545
X0.01945 Y1.30745
X0.02045 Y1.30745
X0.02045 Y1.31045
X0.42845 Y1.31045
X0.42845 Y1.14345
X0.42745 Y1.14345
X0.42745 Y1.14245
X0.42545 Y1.14245
X0.42545 Y1.14145
X0.42345 Y1.14145
X0.42345 Y1.14045
X0.42245 Y1.14045
X0.42245 Y1.13945
X0.42145 Y1.13945
X0.42145 Y1.13845
X0.42045 Y1.13845
X0.42045 Y1.13745
X0.41945 Y1.13745
X0.41945 Y1.13645
X0.41845 Y1.13645
X0.41845 Y1.13445
X0.41745 Y1.13445
X0.41745 Y1.13145
X0.41645 Y1.13145
X0.41645 Y1.11045
X0.41745 Y1.11045
X0.41745 Y1.10745
X0.41845 Y1.10745
X0.41845 Y1.10545
X0.41945 Y1.10545
X0.41945 Y1.10445
X0.42045 Y1.10445
X0.42045 Y1.10345
X0.42145 Y1.10345
X0.42145 Y1.10245
X0.42245 Y1.10245
X0.42245 Y1.10145
X0.42345 Y1.10145
X0.42345 Y1.10045
X0.42545 Y1.10045
X0.42545 Y1.09945
X0.42745 Y1.09945
X0.42745 Y1.09845
X0.42845 Y1.09845
X0.42845 Y0.93445
X0.42945 Y0.93445
X0.42945 Y0.93145
X0.43045 Y0.93145
X0.43045 Y0.93045
X0.43145 Y0.93045
X0.43145 Y0.92945
X0.43245 Y0.92945
X0.43245 Y0.92845
X0.43345 Y0.92845
X0.43345 Y0.92745
X0.43445 Y0.92745
X0.43445 Y0.92645
X0.43545 Y0.92645
X0.43545 Y0.92545
X0.43645 Y0.92545
X0.43645 Y0.92445
X0.43745 Y0.92445
X0.43745 Y0.92345
X0.43845 Y0.92345
X0.43845 Y0.92245
X0.43945 Y0.92245
X0.43945 Y0.92145
X0.44045 Y0.92145
X0.44045 Y0.92045
X0.44145 Y0.92045
X0.44145 Y0.91945
X0.44245 Y0.91945
X0.44245 Y0.91845
X0.44345 Y0.91845
X0.44345 Y0.91745
X0.44445 Y0.91745
X0.44445 Y0.91645
X0.44545 Y0.91645
X0.44545 Y0.91545
X0.44645 Y0.91545
X0.44645 Y0.91445
X0.44745 Y0.91445
X0.44745 Y0.91345
X0.44845 Y0.91345
X0.44845 Y0.91245
X0.44945 Y0.91245
X0.44945 Y0.91145
X0.45045 Y0.91145
X0.45045 Y0.91045
X0.45145 Y0.91045
X0.45145 Y0.90945
X0.45245 Y0.90945
X0.45245 Y0.90845
X0.45345 Y0.90845
X0.45345 Y0.90745
X0.45445 Y0.90745
X0.45445 Y0.90645
X0.45545 Y0.90645
X0.45545 Y0.90545
X0.45645 Y0.90545
X0.45645 Y0.90445
X0.45745 Y0.90445
X0.45745 Y0.90345
X0.45845 Y0.90345
X0.45845 Y0.90245
X0.45945 Y0.90245
X0.45945 Y0.90145
X0.46045 Y0.90145
X0.46045 Y0.90045
X0.46145 Y0.90045
X0.46145 Y0.89945
X0.46245 Y0.89945
X0.46245 Y0.89845
X0.46345 Y0.89845
X0.46345 Y0.89745
X0.46445 Y0.89745
X0.46445 Y0.89645
X0.46545 Y0.89645
X0.46545 Y0.89545
X0.46645 Y0.89545
X0.46645 Y0.89445
X0.46745 Y0.89445
X0.46745 Y0.89345
X0.46845 Y0.89345
X0.46845 Y0.89245
X0.46945 Y0.89245
X0.46945 Y0.89145
X0.47045 Y0.89145
X0.47045 Y0.89045
X0.47145 Y0.89045
X0.47145 Y0.88945
X0.47245 Y0.88945
X0.47245 Y0.88845
X0.47345 Y0.88845
X0.47345 Y0.88745
X0.47445 Y0.88745
X0.47445 Y0.88645
X0.47545 Y0.88645
X0.47545 Y0.88545
X0.47645 Y0.88545
X0.47645 Y0.88445
X0.47745 Y0.88445
X0.47745 Y0.88345
X0.47845 Y0.88345
X0.47845 Y0.88245
X0.47945 Y0.88245
X0.47945 Y0.88145
X0.48045 Y0.88145
X0.48045 Y0.88045
X0.48145 Y0.88045
X0.48145 Y0.87945
X0.48245 Y0.87945
X0.48245 Y0.87845
X0.48345 Y0.87845
X0.48345 Y0.87745
X0.48445 Y0.87745
X0.48445 Y0.87645
X0.48545 Y0.87645
X0.48545 Y0.87545
X0.48645 Y0.87545
X0.48645 Y0.87445
X0.48745 Y0.87445
X0.48745 Y0.87345
X0.48845 Y0.87345
X0.48845 Y0.87245
X0.48945 Y0.87245
X0.48945 Y0.87145
X0.49045 Y0.87145
X0.49045 Y0.87045
X0.49145 Y0.87045
X0.49145 Y0.86945
X0.49245 Y0.86945
X0.49245 Y0.86845
X0.49345 Y0.86845
X0.49345 Y0.86745
X0.49445 Y0.86745
X0.49445 Y0.86645
X0.49545 Y0.86645
X0.49545 Y0.86545
X0.49645 Y0.86545
X0.49645 Y0.86445
X0.49745 Y0.86445
X0.49745 Y0.86345
X0.49845 Y0.86345
X0.49845 Y0.86245
X0.49945 Y0.86245
X0.49945 Y0.86145
X0.50045 Y0.86145
X0.50045 Y0.86045
X0.50145 Y0.86045
X0.50145 Y0.85945
X0.50245 Y0.85945
X0.50245 Y0.85845
X0.50345 Y0.85845
X0.50345 Y0.85745
X0.50445 Y0.85745
X0.50445 Y0.85645
X0.50545 Y0.85645
X0.50545 Y0.85545
X0.50645 Y0.85545
X0.50645 Y0.85445
X0.50745 Y0.85445
X0.50745 Y0.85345
X0.50845 Y0.85345
X0.50845 Y0.85245
X0.50945 Y0.85245
X0.50945 Y0.85145
X0.51045 Y0.85145
X0.51045 Y0.85045
X0.51145 Y0.85045
X0.51145 Y0.84945
X0.51245 Y0.84945
X0.51245 Y0.84845
X0.51345 Y0.84845
X0.51345 Y0.84745
X0.51445 Y0.84745
X0.51445 Y0.84645
X0.51545 Y0.84645
X0.51545 Y0.84545
X0.51645 Y0.84545
X0.51645 Y0.84445
X0.51745 Y0.84445
X0.51745 Y0.84345
X0.51845 Y0.84345
X0.51845 Y0.84245
X0.51945 Y0.84245
X0.51945 Y0.84145
X0.52045 Y0.84145
X0.52045 Y0.84045
X0.52145 Y0.84045
X0.52145 Y0.83945
X0.52245 Y0.83945
X0.52245 Y0.83845
X0.52345 Y0.83845
X0.52345 Y0.83745
X0.52445 Y0.83745
X0.52445 Y0.83645
X0.52545 Y0.83645
X0.52545 Y0.83545
X0.52645 Y0.83545
X0.52645 Y0.83445
X0.52745 Y0.83445
X0.52745 Y0.83345
X0.52845 Y0.83345
X0.52845 Y0.83245
X0.52945 Y0.83245
X0.52945 Y0.83145
X0.53145 Y0.83145
X0.53145 Y0.83045
X0.70645 Y0.83045
X0.70645 Y0.83145
X0.70845 Y0.83145
X0.70845 Y0.83245
X0.70945 Y0.83245
X0.70945 Y0.83345
X0.71045 Y0.83345
X0.71045 Y0.83445
X0.71145 Y0.83445
X0.71145 Y0.83545
X0.71245 Y0.83545
X0.71245 Y0.83645
X0.71345 Y0.83645
X0.71345 Y0.83745
X0.71445 Y0.83745
X0.71445 Y0.83845
X0.71545 Y0.83845
X0.71545 Y0.83945
X0.71645 Y0.83945
X0.71645 Y0.84045
X0.71745 Y0.84045
X0.71745 Y0.84145
X0.71845 Y0.84145
X0.71845 Y0.84245
X0.71945 Y0.84245
X0.71945 Y0.84345
X0.72045 Y0.84345
X0.72045 Y0.84445
X0.72145 Y0.84445
X0.72145 Y0.84545
X0.72245 Y0.84545
X0.72245 Y0.84645
X0.72345 Y0.84645
X0.72345 Y0.84745
X0.72445 Y0.84745
X0.72445 Y0.84845
X0.72545 Y0.84845
X0.72545 Y0.84945
X0.72645 Y0.84945
X0.72645 Y0.85045
X0.72745 Y0.85045
X0.72745 Y0.85145
X0.72845 Y0.85145
X0.72845 Y0.85245
X0.72945 Y0.85245
X0.72945 Y0.85345
X0.73045 Y0.85345
X0.73045 Y0.85445
X0.73145 Y0.85445
X0.73145 Y0.85545
X0.73245 Y0.85545
X0.73245 Y0.85645
X0.73345 Y0.85645
X0.73345 Y0.85745
X0.73445 Y0.85745
X0.73445 Y0.85845
X0.75045 Y0.85845
X0.75045 Y0.85945
X0.75245 Y0.85945
X0.75245 Y0.86045
X0.75445 Y0.86045
X0.75445 Y0.86145
X0.75545 Y0.86145
X0.75545 Y0.86245
X0.75645 Y0.86245
X0.75645 Y0.86345
X0.75745 Y0.86345
X0.75745 Y0.86445
X0.75845 Y0.86445
X0.75845 Y0.86545
X0.75945 Y0.86545
X0.75945 Y0.86745
X0.76045 Y0.86745
X0.76045 Y0.87045
X0.76145 Y0.87045
X0.76145 Y0.89145
X0.76045 Y0.89145
X0.76045 Y0.89445
X0.75945 Y0.89445
X0.75945 Y0.89645
X0.75845 Y0.89645
X0.75845 Y0.89745
X0.75745 Y0.89745
X0.75745 Y0.89845
X0.75645 Y0.89845
X0.75645 Y0.89945
X0.75545 Y0.89945
X0.75545 Y0.90045
X0.75445 Y0.90045
X0.75445 Y0.90145
X0.75245 Y0.90145
X0.75245 Y0.90245
X0.75045 Y0.90245
X0.75045 Y0.90345
X0.72745 Y0.90345
X0.72745 Y0.90245
X0.72545 Y0.90245
X0.72545 Y0.90145
X0.72345 Y0.90145
X0.72345 Y0.90045
X0.72245 Y0.90045
X0.72245 Y0.89945
X0.72145 Y0.89945
X0.72145 Y0.89845
X0.72045 Y0.89845
X0.72045 Y0.89745
X0.71945 Y0.89745
X0.71945 Y0.89645
X0.71845 Y0.89645
X0.71845 Y0.89445
X0.71745 Y0.89445
X0.71745 Y0.89145
X0.71645 Y0.89145
X0.71645 Y0.87645
X0.71545 Y0.87645
X0.71545 Y0.87545
X0.71445 Y0.87545
X0.71445 Y0.87445
X0.71345 Y0.87445
X0.71345 Y0.87345
X0.71245 Y0.87345
X0.71245 Y0.87245
X0.71145 Y0.87245
X0.71145 Y0.87145
X0.71045 Y0.87145
X0.71045 Y0.87045
X0.70945 Y0.87045
X0.70945 Y0.86945
X0.70845 Y0.86945
X0.70845 Y0.86845
X0.70745 Y0.86845
X0.70745 Y0.86745
X0.70645 Y0.86745
X0.70645 Y0.86645
X0.70545 Y0.86645
X0.70545 Y0.86545
X0.70445 Y0.86545
X0.70445 Y0.86445
X0.70345 Y0.86445
X0.70345 Y0.86345
X0.70245 Y0.86345
X0.70245 Y0.86245
X0.70145 Y0.86245
X0.70145 Y0.86145
X0.70045 Y0.86145
X0.70045 Y0.86045
X0.69945 Y0.86045
X0.69945 Y0.85945
X0.69845 Y0.85945
X0.69845 Y0.85845
X0.69745 Y0.85845
X0.69745 Y0.85745
X0.69645 Y0.85745
X0.69645 Y0.85645
X0.69545 Y0.85645
X0.69545 Y0.85545
X0.69445 Y0.85545
X0.69445 Y0.85445
X0.69345 Y0.85445
X0.69345 Y0.85345
X0.69245 Y0.85345
X0.69245 Y0.85245
X0.69145 Y0.85245
X0.69145 Y0.85145
X0.54645 Y0.85145
X0.54645 Y0.85245
X0.54545 Y0.85245
X0.54545 Y0.85345
X0.54445 Y0.85345
X0.54445 Y0.85445
X0.54345 Y0.85445
X0.54345 Y0.85545
X0.54245 Y0.85545
X0.54245 Y0.85645
X0.54145 Y0.85645
X0.54145 Y0.85745
X0.54045 Y0.85745
X0.54045 Y0.85845
X0.53945 Y0.85845
X0.53945 Y0.85945
X0.53845 Y0.85945
X0.53845 Y0.86045
X0.53745 Y0.86045
X0.53745 Y0.86145
X0.53645 Y0.86145
X0.53645 Y0.86245
X0.53545 Y0.86245
X0.53545 Y0.86345
X0.53445 Y0.86345
X0.53445 Y0.86445
X0.53345 Y0.86445
X0.53345 Y0.86545
X0.53245 Y0.86545
X0.53245 Y0.86645
X0.53145 Y0.86645
X0.53145 Y0.86745
X0.53045 Y0.86745
X0.53045 Y0.86845
X0.52945 Y0.86845
X0.52945 Y0.86945
X0.52845 Y0.86945
X0.52845 Y0.87045
X0.52745 Y0.87045
X0.52745 Y0.87145
X0.52645 Y0.87145
X0.52645 Y0.87245
X0.52545 Y0.87245
X0.52545 Y0.87345
X0.52445 Y0.87345
X0.52445 Y0.87445
X0.52345 Y0.87445
X0.52345 Y0.87545
X0.52245 Y0.87545
X0.52245 Y0.87645
X0.52145 Y0.87645
X0.52145 Y0.87745
X0.52045 Y0.87745
X0.52045 Y0.87845
X0.51945 Y0.87845
X0.51945 Y0.87945
X0.51845 Y0.87945
X0.51845 Y0.88045
X0.51745 Y0.88045
X0.51745 Y0.88145
X0.51645 Y0.88145
X0.51645 Y0.88245
X0.51545 Y0.88245
X0.51545 Y0.88345
X0.51445 Y0.88345
X0.51445 Y0.88445
X0.51345 Y0.88445
X0.51345 Y0.88545
X0.51245 Y0.88545
X0.51245 Y0.88645
X0.51145 Y0.88645
X0.51145 Y0.88745
X0.51045 Y0.88745
X0.51045 Y0.88845
X0.50945 Y0.88845
X0.50945 Y0.88945
X0.50845 Y0.88945
X0.50845 Y0.89045
X0.50745 Y0.89045
X0.50745 Y0.89145
X0.50645 Y0.89145
X0.50645 Y0.89245
X0.50545 Y0.89245
X0.50545 Y0.89345
X0.50445 Y0.89345
X0.50445 Y0.89445
X0.50345 Y0.89445
X0.50345 Y0.89545
X0.50245 Y0.89545
X0.50245 Y0.89645
X0.50145 Y0.89645
X0.50145 Y0.89745
X0.50045 Y0.89745
X0.50045 Y0.89845
X0.49945 Y0.89845
X0.49945 Y0.89945
X0.49845 Y0.89945
X0.49845 Y0.90045
X0.49745 Y0.90045
X0.49745 Y0.90145
X0.49645 Y0.90145
X0.49645 Y0.90245
X0.49545 Y0.90245
X0.49545 Y0.90345
X0.49445 Y0.90345
X0.49445 Y0.90445
X0.49345 Y0.90445
X0.49345 Y0.90545
X0.49245 Y0.90545
X0.49245 Y0.90645
X0.49145 Y0.90645
X0.49145 Y0.90745
X0.49045 Y0.90745
X0.49045 Y0.90845
X0.48945 Y0.90845
X0.48945 Y0.90945
X0.48845 Y0.90945
X0.48845 Y0.91045
X0.48745 Y0.91045
X0.48745 Y0.91145
X0.48645 Y0.91145
X0.48645 Y0.91245
X0.48545 Y0.91245
X0.48545 Y0.91345
X0.48445 Y0.91345
X0.48445 Y0.91445
X0.48345 Y0.91445
X0.48345 Y0.91545
X0.48245 Y0.91545
X0.48245 Y0.91645
X0.48145 Y0.91645
X0.48145 Y0.91745
X0.48045 Y0.91745
X0.48045 Y0.91845
X0.47945 Y0.91845
X0.47945 Y0.91945
X0.47845 Y0.91945
X0.47845 Y0.92045
X0.47745 Y0.92045
X0.47745 Y0.92145
X0.47645 Y0.92145
X0.47645 Y0.92245
X0.47545 Y0.92245
X0.47545 Y0.92345
X0.47445 Y0.92345
X0.47445 Y0.92445
X0.47345 Y0.92445
X0.47345 Y0.92545
X0.47245 Y0.92545
X0.47245 Y0.92645
X0.47145 Y0.92645
X0.47145 Y0.92745
X0.47045 Y0.92745
X0.47045 Y0.92845
X0.46945 Y0.92845
X0.46945 Y0.92945
X0.46845 Y0.92945
X0.46845 Y0.93045
X0.46745 Y0.93045
X0.46745 Y0.93145
X0.46645 Y0.93145
X0.46645 Y0.93245
X0.46545 Y0.93245
X0.46545 Y0.93345
X0.46445 Y0.93345
X0.46445 Y0.93445
X0.46345 Y0.93445
X0.46345 Y0.93545
X0.46245 Y0.93545
X0.46245 Y0.93645
X0.46145 Y0.93645
X0.46145 Y0.93745
X0.46045 Y0.93745
X0.46045 Y0.93845
X0.45945 Y0.93845
X0.45945 Y0.93945
X0.45845 Y0.93945
X0.45845 Y0.94045
X0.45745 Y0.94045
X0.45745 Y0.94145
X0.45645 Y0.94145
X0.45645 Y0.94245
X0.45545 Y0.94245
X0.45545 Y0.94345
X0.45445 Y0.94345
X0.45445 Y0.94445
X0.45345 Y0.94445
X0.45345 Y0.94545
X0.45245 Y0.94545
X0.45245 Y0.94645
X0.45145 Y0.94645
X0.45145 Y0.94745
X0.45045 Y0.94745
X0.45045 Y0.94845
X0.44945 Y0.94845
X0.44945 Y1.09845
X0.45045 Y1.09845
X0.45045 Y1.09945
X0.45245 Y1.09945
X0.45245 Y1.10045
X0.45445 Y1.10045
X0.45445 Y1.10145
X0.45545 Y1.10145
X0.45545 Y1.10245
X0.45645 Y1.10245
X0.45645 Y1.10345
X0.45745 Y1.10345
X0.45745 Y1.10445
X0.45845 Y1.10445
X0.45845 Y1.10545
X0.45945 Y1.10545
X0.45945 Y1.10745
X0.46045 Y1.10745
X0.46045 Y1.11045
X0.46145 Y1.11045
X0.46145 Y1.13145
X0.46045 Y1.13145
X0.46045 Y1.13445
X0.45945 Y1.13445
X0.45945 Y1.13645
X0.45845 Y1.13645
X0.45845 Y1.13745
X0.45745 Y1.13745
X0.45745 Y1.13845
X0.45645 Y1.13845
X0.45645 Y1.13945
X0.45545 Y1.13945
X0.45545 Y1.14045
X0.45445 Y1.14045
X0.45445 Y1.14145
X0.45245 Y1.14145
X0.45245 Y1.14245
X0.45045 Y1.14245
X0.45045 Y1.14345
X0.44945 Y1.14345
X0.44945 Y1.67345
X0.45045 Y1.67345
X0.45045 Y1.67445
X0.45145 Y1.67445
X0.45145 Y1.67545
X0.45245 Y1.67545
X0.45245 Y1.67645
X0.45345 Y1.67645
X0.45345 Y1.67745
X0.45445 Y1.67745
X0.45445 Y1.67845
X0.47045 Y1.67845
X0.47045 Y1.67945
X0.47245 Y1.67945
X0.47245 Y1.68045
X0.47445 Y1.68045
X0.47445 Y1.68145
X0.47545 Y1.68145
X0.47545 Y1.68245
X0.47645 Y1.68245
X0.47645 Y1.68345
X0.47745 Y1.68345
X0.47745 Y1.68445
X0.47845 Y1.68445
X0.47845 Y1.68545
X0.47945 Y1.68545
X0.47945 Y1.68745
X0.48045 Y1.68745
X0.48045 Y1.69045
X0.48145 Y1.69045
X0.48145 Y1.71145
X0.48045 Y1.71145
X0.48045 Y1.71445
X0.47945 Y1.71445
X0.47945 Y1.71645
X0.47845 Y1.71645
X0.47845 Y1.71745
X0.47745 Y1.71745
X0.47745 Y1.71845
X0.47645 Y1.71845
X0.47645 Y1.71945
X0.47545 Y1.71945
X0.47545 Y1.72045
X0.47445 Y1.72045
X0.47445 Y1.72145
X0.47245 Y1.72145
X0.47245 Y1.72245
X0.47045 Y1.72245
X0.47045 Y1.72345
X0.44745 Y1.72345
X0.44745 Y1.72245
X0.44545 Y1.72245
X0.44545 Y1.72145
X0.44345 Y1.72145
X0.44345 Y1.72045
X0.44245 Y1.72045
X0.44245 Y1.71945
X0.44145 Y1.71945
X0.44145 Y1.71845
X0.44045 Y1.71845
X0.44045 Y1.71745
G04 P0 ( dwell for no time -- G64 should not smooth over this point )
G00 Z0.08000 ( retract )

G00 X0.30045 Y1.51745 ( rapid move to begin. )
G01 Z-0.00200 F6.00000 ( plunge. )
G04 P0 ( dwell for no time -- G64 should not smooth over this point )
X0.30045 Y1.51745
X0.29945 Y1.51745
X0.29945 Y1.51645
X0.29845 Y1.51645
X0.29845 Y1.51445
X0.29745 Y1.51445
X0.29745 Y1.51145
X0.29645 Y1.51145
X0.29645 Y1.49645
X0.29545 Y1.49645
X0.29545 Y1.49545
X0.29445 Y1.49545
X0.29445 Y1.49445
X0.29345 Y1.49445
X0.29345 Y1.49345
X0.29245 Y1.49345
X0.29245 Y1.49245
X0.29145 Y1.49245
X0.29145 Y1.49145
X0.29045 Y1.49145
X0.29045 Y1.49045
X0.28945 Y1.49045
X0.28945 Y1.48945
X0.28845 Y1.48945
X0.28845 Y1.48845
X0.28745 Y1.48845
X0.28745 Y1.48745
X0.28645 Y1.48745
X0.28645 Y1.48645
X0.28545 Y1.48645
X0.28545 Y1.48545
X0.28445 Y1.48545
X0.28445 Y1.48445
X0.28345 Y1.48445
X0.28345 Y1.48345
X0.28245 Y1.48345
X0.28245 Y1.48245
X0.28145 Y1.48245
X0.28145 Y1.48145
X0.28045 Y1.48145
X0.28045 Y1.48045
X0.27945 Y1.48045
X0.27945 Y1.47945
X0.27845 Y1.47945
X0.27845 Y1.47845
X0.27745 Y1.47845
X0.27745 Y1.47745
X0.27645 Y1.47745
X0.27645 Y1.47645
X0.27545 Y1.47645
X0.27545 Y1.47545
X0.27445 Y1.47545
X0.27445 Y1.47445
X0.27345 Y1.47445
X0.27345 Y1.47345
X0.27245 Y1.47345
X0.27245 Y1.47245
X0.27145 Y1.47245
X0.27145 Y1.47145
X0.27045 Y1.47145
X0.27045 Y1.47045
X0.26945 Y1.47045
X0.26945 Y1.46945
X0.26845 Y1.46945
X0.26845 Y1.46845
X0.26745 Y1.46845
X0.26745 Y1.46745
X0.26645 Y1.46745
X0.26645 Y1.46645
X0.26545 Y1.46645
X0.26545 Y1.46545
X0.26445 Y1.46545
X0.26445 Y1.46445
X0.26345 Y1.46445
X0.26345 Y1.46345
X0.26245 Y1.46345
X0.26245 Y1.46245
X0.26145 Y1.46245
X0.26145 Y1.46145
X0.26045 Y1.46145
X0.26045 Y1.46045
X0.25945 Y1.46045
X0.25945 Y1.45945
X0.25845 Y1.45945
X0.25845 Y1.45845
X0.25745 Y1.45845
X0.25745 Y1.45745
X0.25645 Y1.45745
X0.25645 Y1.45645
X0.25545 Y1.45645
X0.25545 Y1.45545
X0.25445 Y1.45545
X0.25445 Y1.45445
X0.25345 Y1.45445
X0.25345 Y1.45345
X0.25245 Y1.45345
X0.25245 Y1.45245
X0.25145 Y1.45245
X0.25145 Y1.45145
X0.25045 Y1.45145
X0.25045 Y1.45045
X0.24945 Y1.45045
X0.24945 Y1.44945
X0.24845 Y1.44945
X0.24845 Y1.44845
X0.24745 Y1.44845
X0.24745 Y1.44745
X0.24645 Y1.44745
X0.24645 Y1.44645
X0.24545 Y1.44645
X0.24545 Y1.44545
X0.24445 Y1.44545
X0.24445 Y1.44445
X0.24345 Y1.44445
X0.24345 Y1.44345
X0.24245 Y1.44345
X0.24245 Y1.44245
X0.24145 Y1.44245
X0.24145 Y1.44145
X0.24045 Y1.44145
X0.24045 Y1.44045
X0.23945 Y1.44045
X0.23945 Y1.43945
X0.23845 Y1.43945
X0.23845 Y1.43845
X0.23745 Y1.43845
X0.23745 Y1.43745
X0.23645 Y1.43745
X0.23645 Y1.43645
X0.23545 Y1.43645
X0.23545 Y1.43545
X0.23445 Y1.43545
X0.23445 Y1.43445
X0.23345 Y1.43445
X0.23345 Y1.43345
X0.23245 Y1.43345
X0.23245 Y1.43245
X0.23145 Y1.43245
X0.23145 Y1.43145
X0.18045 Y1.43145
X0.18045 Y1.43445
X0.17945 Y1.43445
X0.17945 Y1.43645
X0.17845 Y1.43645
X0.17845 Y1.43745
X0.17745 Y1.43745
X0.17745 Y1.43845
X0.17645 Y1.43845
X0.17645 Y1.43945
X0.17545 Y1.43945
X0.17545 Y1.44045
X0.17445 Y1.44045
X0.17445 Y1.44145
X0.17245 Y1.44145
X0.17245 Y1.44245
X0.17045 Y1.44245
X0.17045 Y1.44345
X0.14745 Y1.44345
X0.14745 Y1.44245
X0.14545 Y1.44245
X0.14545 Y1.44145
X0.14345 Y1.44145
X0.14345 Y1.44045
X0.14245 Y1.44045
X0.14245 Y1.43945
X0.14145 Y1.43945
X0.14145 Y1.43845
X0.14045 Y1.43845
X0.14045 Y1.43745
X0.13945 Y1.43745
X0.13945 Y1.43645
X0.13845 Y1.43645
X0.13845 Y1.43445
X0.13745 Y1.43445
X0.13745 Y1.43145
X0.13645 Y1.43145
X0.13645 Y1.41045
X0.13745 Y1.41045
X0.13745 Y1.40745
X0.13845 Y1.40745
X0.13845 Y1.40545
X0.13945 Y1.40545
X0.13945 Y1.40445
X0.14045 Y1.40445
X0.14045 Y1.40345
X0.14145 Y1.40345
X0.14145 Y1.40245
X0.14245 Y1.40245
X0.14245 Y1.40145
X0.14345 Y1.40145
X0.14345 Y1.40045
X0.14545 Y1.40045
X0.14545 Y1.39945
X0.14745 Y1.39945
X0.14745 Y1.39845
X0.17045 Y1.39845
X0.17045 Y1.39945
X0.17245 Y1.39945
X0.17245 Y1.40045
X0.17445 Y1.40045
X0.17445 Y1.40145
X0.17545 Y1.40145
X0.17545 Y1.40245
X0.17645 Y1.40245
X0.17645 Y1.40345
X0.17745 Y1.40345
X0.17745 Y1.40445
X0.17845 Y1.40445
X0.17845 Y1.40545
X0.17945 Y1.40545
X0.17945 Y1.40745
X0.18045 Y1.40745
X0.18045 Y1.41045
X0.25145 Y1.41045
X0.25145 Y1.40945
X0.25245 Y1.40945
X0.25245 Y1.40845
X0.25345 Y1.40845
X0.25345 Y1.40745
X0.25445 Y1.40745
X0.25445 Y1.40645
X0.25545 Y1.40645
X0.25545 Y1.40545
X0.25645 Y1.40545
X0.25645 Y1.40445
X0.25745 Y1.40445
X0.25745 Y1.40345
X0.25845 Y1.40345
X0.25845 Y1.40245
X0.25945 Y1.40245
X0.25945 Y1.40145
X0.26045 Y1.40145
X0.26045 Y1.40045
X0.26145 Y1.40045
X0.26145 Y1.39945
X0.26245 Y1.39945
X0.26245 Y1.39845
X0.26345 Y1.39845
X0.26345 Y1.39745
X0.26445 Y1.39745
X0.26445 Y1.39645
X0.26545 Y1.39645
X0.26545 Y1.39545
X0.26645 Y1.39545
X0.26645 Y1.39445
X0.26745 Y1.39445
X0.26745 Y1.39345
X0.26845 Y1.39345
X0.26845 Y1.39245
X0.26945 Y1.39245
X0.26945 Y1.39145
X0.27045 Y1.39145
X0.27045 Y1.39045
X0.27145 Y1.39045
X0.27145 Y1.38945
X0.27245 Y1.38945
X0.27245 Y1.38845
X0.27345 Y1.38845
X0.27345 Y1.38745
X0.27445 Y1.38745
X0.27445 Y1.38645
X0.27545 Y1.38645
X0.27545 Y1.38545
X0.27645 Y1.38545
X0.27645 Y1.37045
X0.27745 Y1.37045
X0.27745 Y1.36745
X0.27845 Y1.36745
X0.27845 Y1.36545
X0.27945 Y1.36545
X0.27945 Y1.36445
X0.28045 Y1.36445
X0.28045 Y1.36345
X0.28145 Y1.36345
X0.28145 Y1.36245
X0.28245 Y1.36245
X0.28245 Y1.36145
X0.28345 Y1.36145
X0.28345 Y1.36045
X0.28545 Y1.36045
X0.28545 Y1.35945
X0.28745 Y1.35945
X0.28745 Y1.35845
X0.31045 Y1.35845
X0.31045 Y1.35945
X0.31245 Y1.35945
X0.31245 Y1.36045
X0.31445 Y1.36045
X0.31445 Y1.36145
X0.31545 Y1.36145
X0.31545 Y1.36245
X0.31645 Y1.36245
X0.31645 Y1.36345
X0.31745 Y1.36345
X0.31745 Y1.36445
X0.31845 Y1.36445
X0.31845 Y1.36545
X0.31945 Y1.36545
X0.31945 Y1.36745
X0.32045 Y1.36745
X0.32045 Y1.37045
X0.32145 Y1.37045
X0.32145 Y1.39145
X0.32045 Y1.39145
X0.32045 Y1.39445
X0.31945 Y1.39445
X0.31945 Y1.39645
X0.31845 Y1.39645
X0.31845 Y1.39745
X0.31745 Y1.39745
X0.31745 Y1.39845
X0.31645 Y1.39845
X0.31645 Y1.39945
X0.31545 Y1.39945
X0.31545 Y1.40045
X0.31445 Y1.40045
X0.31445 Y1.40145
X0.31245 Y1.40145
X0.31245 Y1.40245
X0.31045 Y1.40245
X0.31045 Y1.40345
X0.29445 Y1.40345
X0.29445 Y1.40445
X0.29345 Y1.40445
X0.29345 Y1.40545
X0.29245 Y1.40545
X0.29245 Y1.40645
X0.29145 Y1.40645
X0.29145 Y1.40745
X0.29045 Y1.40745
X0.29045 Y1.40845
X0.28945 Y1.40845
X0.28945 Y1.40945
X0.28845 Y1.40945
X0.28845 Y1.41045
X0.28745 Y1.41045
X0.28745 Y1.41145
X0.28645 Y1.41145
X0.28645 Y1.41245
X0.28545 Y1.41245
X0.28545 Y1.41345
X0.28445 Y1.41345
X0.28445 Y1.41445
X0.28345 Y1.41445
X0.28345 Y1.41545
X0.28245 Y1.41545
X0.28245 Y1.41645
X0.28145 Y1.41645
X0.28145 Y1.41745
X0.28045 Y1.41745
X0.28045 Y1.41845
X0.27945 Y1.41845
X0.27945 Y1.41945
X0.27845 Y1.41945
X0.27845 Y1.42045
X0.27745 Y1.42045
X0.27745 Y1.42145
X0.27645 Y1.42145
X0.27645 Y1.42245
X0.27545 Y1.42245
X0.27545 Y1.42345
X0.27445 Y1.42345
X0.27445 Y1.42445
X0.27345 Y1.42445
X0.27345 Y1.42545
X0.27245 Y1.42545
X0.27245 Y1.42645
X0.27145 Y1.42645
X0.27145 Y1.42745
X0.27045 Y1.42745
X0.27045 Y1.42845
X0.26945 Y1.42845
X0.26945 Y1.42945
X0.26845 Y1.42945
X0.26845 Y1.43045
X0.26745 Y1.43045
X0.26745 Y1.43145
X0.26845 Y1.43145
X0.26845 Y1.43245
X0.26945 Y1.43245
X0.26945 Y1.43345
X0.27045 Y1.43345
X0.27045 Y1.43445
X0.27145 Y1.43445
X0.27145 Y1.43545
X0.27245 Y1.43545
X0.27245 Y1.43645
X0.27345 Y1.43645
X0.27345 Y1.43745
X0.27445 Y1.43745
X0.27445 Y1.43845
X0.27545 Y1.43845
X0.27545 Y1.43945
X0.27645 Y1.43945
X0.27645 Y1.44045
X0.27745 Y1.44045
X0.27745 Y1.44145
X0.27845 Y1.44145
X0.27845 Y1.44245
X0.27945 Y1.44245
X0.27945 Y1.44345
X0.28045 Y1.44345
X0.28045 Y1.44445
X0.28145 Y1.44445
X0.28145 Y1.44545
X0.28245 Y1.44545
X0.28245 Y1.44645
X0.28345 Y1.44645
X0.28345 Y1.44745
X0.28445 Y1.44745
X0.28445 Y1.44845
X0.28545 Y1.44845
X0.28545 Y1.44945
X0.28645 Y1.44945
X0.28645 Y1.45045
X0.28745 Y1.45045
X0.28745 Y1.45145
X0.28845 Y1.45145
X0.28845 Y1.45245
X0.28945 Y1.45245
X0.28945 Y1.45345
X0.29045 Y1.45345
X0.29045 Y1.45445
X0.29145 Y1.45445
X0.29145 Y1.45545
X0.29245 Y1.45545
X0.29245 Y1.45645
X0.29345 Y1.45645
X0.29345 Y1.45745
X0.29445 Y1.45745
X0.29445 Y1.45845
X0.29545 Y1.45845
X0.29545 Y1.45945
X0.29645 Y1.45945
X0.29645 Y1.46045
X0.29745 Y1.46045
X0.29745 Y1.46145
X0.29845 Y1.46145
X0.29845 Y1.46245
X0.29945 Y1.46245
X0.29945 Y1.46345
X0.30045 Y1.46345
X0.30045 Y1.46445
X0.30145 Y1.46445
X0.30145 Y1.46545
X0.30245 Y1.46545
X0.30245 Y1.46645
X0.30345 Y1.46645
X0.30345 Y1.46745
X0.30445 Y1.46745
X0.30445 Y1.46845
X0.30545 Y1.46845
X0.30545 Y1.46945
X0.30645 Y1.46945
X0.30645 Y1.47045
X0.30745 Y1.47045
X0.30745 Y1.47145
X0.30845 Y1.47145
X0.30845 Y1.47245
X0.30945 Y1.47245
X0.30945 Y1.47345
X0.31045 Y1.47345
X0.31045 Y1.47445
X0.31145 Y1.47445
X0.31145 Y1.47545
X0.31245 Y1.47545
X0.31245 Y1.47645
X0.31345 Y1.47645
X0.31345 Y1.47745
X0.31445 Y1.47745
X0.31445 Y1.47845
X0.33045 Y1.47845
X0.33045 Y1.47945
X0.33245 Y1.47945
X0.33245 Y1.48045
X0.33445 Y1.48045
X0.33445 Y1.48145
X0.33545 Y1.48145
X0.33545 Y1.48245
X0.33645 Y1.48245
X0.33645 Y1.48345
X0.33745 Y1.48345
X0.33745 Y1.48445
X0.33845 Y1.48445
X0.33845 Y1.48545
X0.33945 Y1.48545
X0.33945 Y1.48745
X0.34045 Y1.48745
X0.34045 Y1.49045
X0.34145 Y1.49045
X0.34145 Y1.51145
X0.34045 Y1.51145
X0.34045 Y1.51445
X0.33945 Y1.51445
X0.33945 Y1.51645
X0.33845 Y1.51645
X0.33845 Y1.51745
X0.33745 Y1.51745
X0.33745 Y1.51845
X0.33645 Y1.51845
X0.33645 Y1.51945
X0.33545 Y1.51945
X0.33545 Y1.52045
X0.33445 Y1.52045
X0.33445 Y1.52145
X0.33245 Y1.52145
X0.33245 Y1.52245
X0.33045 Y1.52245
X0.33045 Y1.52345
X0.30745 Y1.52345
X0.30745 Y1.52245
X0.30545 Y1.52245
X0.30545 Y1.52145
X0.30345 Y1.52145
X0.30345 Y1.52045
X0.30245 Y1.52045
X0.30245 Y1.51945
X0.30145 Y1.51945
X0.30145 Y1.51845
X0.30045 Y1.51845
X0.30045 Y1.51745
G04 P0 ( dwell for no time -- G64 should not smooth over this point )
G00 Z0.08000 ( retract )

G00 X0.60045 Y1.43745 ( rapid move to begin. )
G01 Z-0.00200 F6.00000 ( plunge. )
G04 P0 ( dwell for no time -- G64 should not smooth over this point )
X0.60045 Y1.43745
X0.59945 Y1.43745
X0.59945 Y1.43645
X0.59845 Y1.43645
X0.59845 Y1.43445
X0.59745 Y1.43445
X0.59745 Y1.43145
X0.59645 Y1.43145
X0.59645 Y1.41045
X0.59745 Y1.41045
X0.59745 Y1.40745
X0.59845 Y1.40745
X0.59845 Y1.40545
X0.59945 Y1.40545
X0.59945 Y1.40445
X0.60045 Y1.40445
X0.60045 Y1.40345
X0.60145 Y1.40345
X0.60145 Y1.40245
X0.60245 Y1.40245
X0.60245 Y1.40145
X0.60345 Y1.40145
X0.60345 Y1.40045
X0.60545 Y1.40045
X0.60545 Y1.39945
X0.60745 Y1.39945
X0.60745 Y1.39845
X0.60845 Y1.39845
X0.60845 Y0.97445
X0.60945 Y0.97445
X0.60945 Y0.97145
X0.61045 Y0.97145
X0.61045 Y0.97045
X0.61145 Y0.97045
X0.61145 Y0.96945
X0.61245 Y0.96945
X0.61245 Y0.96845
X0.61345 Y0.96845
X0.61345 Y0.96745
X0.61445 Y0.96745
X0.61445 Y0.96645
X0.61545 Y0.96645
X0.61545 Y0.96545
X0.61645 Y0.96545
X0.61645 Y0.96445
X0.61745 Y0.96445
X0.61745 Y0.96345
X0.61845 Y0.96345
X0.61845 Y0.96245
X0.61945 Y0.96245
X0.61945 Y0.96145
X0.62045 Y0.96145
X0.62045 Y0.96045
X0.62145 Y0.96045
X0.62145 Y0.95945
X0.62245 Y0.95945
X0.62245 Y0.95845
X0.62345 Y0.95845
X0.62345 Y0.95745
X0.62445 Y0.95745
X0.62445 Y0.95645
X0.62545 Y0.95645
X0.62545 Y0.95545
X0.62645 Y0.95545
X0.62645 Y0.95445
X0.62745 Y0.95445
X0.62745 Y0.95345
X0.62845 Y0.95345
X0.62845 Y0.95245
X0.62945 Y0.95245
X0.62945 Y0.95145
X0.63045 Y0.95145
X0.63045 Y0.95045
X0.63145 Y0.95045
X0.63145 Y0.94945
X0.63245 Y0.94945
X0.63245 Y0.94845
X0.63345 Y0.94845
X0.63345 Y0.94745
X0.63445 Y0.94745
X0.63445 Y0.94645
X0.63545 Y0.94645
X0.63545 Y0.94545
X0.63645 Y0.94545
X0.63645 Y0.93045
X0.63745 Y0.93045
X0.63745 Y0.92745
X0.63845 Y0.92745
X0.63845 Y0.92545
X0.63945 Y0.92545
X0.63945 Y0.92445
X0.64045 Y0.92445
X0.64045 Y0.92345
X0.64145 Y0.92345
X0.64145 Y0.92245
X0.64245 Y0.92245
X0.64245 Y0.92145
X0.64345 Y0.92145
X0.64345 Y0.92045
X0.64545 Y0.92045
X0.64545 Y0.91945
X0.64745 Y0.91945
X0.64745 Y0.91845
X0.67045 Y0.91845
X0.67045 Y0.91945
X0.67245 Y0.91945
X0.67245 Y0.92045
X0.67445 Y0.92045
X0.67445 Y0.92145
X0.67545 Y0.92145
X0.67545 Y0.92245
X0.67645 Y0.92245
X0.67645 Y0.92345
X0.67745 Y0.92345
X0.67745 Y0.92445
X0.67845 Y0.92445
X0.67845 Y0.92545
X0.67945 Y0.92545
X0.67945 Y0.92745
X0.68045 Y0.92745
X0.68045 Y0.93045
X0.68145 Y0.93045
X0.68145 Y0.95145
X0.68045 Y0.95145
X0.68045 Y0.95445
X0.67945 Y0.95445
X0.67945 Y0.95645
X0.67845 Y0.95645
X0.67845 Y0.95745
X0.67745 Y0.95745
X0.67745 Y0.95845
X0.67645 Y0.95845
X0.67645 Y0.95945
X0.67545 Y0.95945
X0.67545 Y0.96045
X0.67445 Y0.96045
X0.67445 Y0.96145
X0.67245 Y0.96145
X0.67245 Y0.96245
X0.67045 Y0.96245
X0.67045 Y0.96345
X0.65445 Y0.96345
X0.65445 Y0.96445
X0.65345 Y0.96445
X0.65345 Y0.96545
X0.65245 Y0.96545
X0.65245 Y0.96645
X0.65145 Y0.96645
X0.65145 Y0.96745
X0.65045 Y0.96745
X0.65045 Y0.96845
X0.64945 Y0.96845
X0.64945 Y0.96945
X0.64845 Y0.96945
X0.64845 Y0.97045
X0.64745 Y0.97045
X0.64745 Y0.97145
X0.64645 Y0.97145
X0.64645 Y0.97245
X0.64545 Y0.97245
X0.64545 Y0.97345
X0.64445 Y0.97345
X0.64445 Y0.97445
X0.64345 Y0.97445
X0.64345 Y0.97545
X0.64245 Y0.97545
X0.64245 Y0.97645
X0.64145 Y0.97645
X0.64145 Y0.97745
X0.64045 Y0.97745
X0.64045 Y0.97845
X0.63945 Y0.97845
X0.63945 Y0.97945
X0.63845 Y0.97945
X0.63845 Y0.98045
X0.63745 Y0.98045
X0.63745 Y0.98145
X0.63645 Y0.98145
X0.63645 Y0.98245
X0.63545 Y0.98245
X0.63545 Y0.98345
X0.63445 Y0.98345
X0.63445 Y0.98445
X0.63345 Y0.98445
X0.63345 Y0.98545
X0.63245 Y0.98545
X0.63245 Y0.98645
X0.63145 Y0.98645
X0.63145 Y0.98745
X0.63045 Y0.98745
X0.63045 Y0.98845
X0.62945 Y0.98845
X0.62945 Y1.39845
X0.63045 Y1.39845
X0.63045 Y1.39945
X0.63245 Y1.39945
X0.63245 Y1.40045
X0.63445 Y1.40045
X0.63445 Y1.40145
X0.63545 Y1.40145
X0.63545 Y1.40245
X0.63645 Y1.40245
X0.63645 Y1.40345
X0.63745 Y1.40345
X0.63745 Y1.40445
X0.63845 Y1.40445
X0.63845 Y1.40545
X0.63945 Y1.40545
X0.63945 Y1.40745
X0.64045 Y1.40745
X0.64045 Y1.41045
X0.64145 Y1.41045
X0.64145 Y1.43145
X0.64045 Y1.43145
X0.64045 Y1.43445
X0.63945 Y1.43445
X0.63945 Y1.43645
X0.63845 Y1.43645
X0.63845 Y1.43745
X0.63745 Y1.43745
X0.63745 Y1.43845
X0.63645 Y1.43845
X0.63645 Y1.43945
X0.63545 Y1.43945
X0.63545 Y1.44045
X0.63445 Y1.44045
X0.63445 Y1.44145
X0.63245 Y1.44145
X0.63245 Y1.44245
X0.63045 Y1.44245
X0.63045 Y1.44345
X0.60745 Y1.44345
X0.60745 Y1.44245
X0.60545 Y1.44245
X0.60545 Y1.44145
X0.60345 Y1.44145
X0.60345 Y1.44045
X0.60245 Y1.44045
X0.60245 Y1.43945
X0.60145 Y1.43945
X0.60145 Y1.43845
X0.60045 Y1.43845
X0.60045 Y1.43745
G04 P0 ( dwell for no time -- G64 should not smooth over this point )
G00 Z0.08000 ( retract )

G00 X-0.09955 Y1.27745 ( rapid move to begin. )
G01 Z-0.00200 F6.00000 ( plunge. )
G04 P0 ( dwell for no time -- G64 should not smooth over this point )
X-0.09955 Y1.27745
X-0.10055 Y1.27745
X-0.10055 Y1.27645
X-0.10155 Y1.27645
X-0.10155 Y1.27445
X-0.10255 Y1.27445
X-0.10255 Y1.27145
X-0.10355 Y1.27145
X-0.10355 Y1.25045
X-0.10255 Y1.25045
X-0.10255 Y1.24745
X-0.10155 Y1.24745
X-0.10155 Y1.24545
X-0.10055 Y1.24545
X-0.10055 Y1.24445
X-0.09955 Y1.24445
X-0.09955 Y1.24345
X-0.09855 Y1.24345
X-0.09855 Y1.24245
X-0.09755 Y1.24245
X-0.09755 Y1.24145
X-0.09655 Y1.24145
X-0.09655 Y1.24045
X-0.09455 Y1.24045
X-0.09455 Y1.23945
X-0.09255 Y1.23945
X-0.09255 Y1.23845
X-0.09155 Y1.23845
X-0.09155 Y1.08345
X-0.09255 Y1.08345
X-0.09255 Y1.08245
X-0.09455 Y1.08245
X-0.09455 Y1.08145
X-0.09655 Y1.08145
X-0.09655 Y1.08045
X-0.09755 Y1.08045
X-0.09755 Y1.07945
X-0.09855 Y1.07945
X-0.09855 Y1.07845
X-0.09955 Y1.07845
X-0.09955 Y1.07745
X-0.10055 Y1.07745
X-0.10055 Y1.07645
X-0.10155 Y1.07645
X-0.10155 Y1.07445
X-0.10255 Y1.07445
X-0.10255 Y1.07145
X-0.10355 Y1.07145
X-0.10355 Y1.05045
X-0.10255 Y1.05045
X-0.10255 Y1.04745
X-0.10155 Y1.04745
X-0.10155 Y1.04545
X-0.10055 Y1.04545
X-0.10055 Y1.04445
X-0.09955 Y1.04445
X-0.09955 Y1.04345
X-0.09855 Y1.04345
X-0.09855 Y1.04245
X-0.09755 Y1.04245
X-0.09755 Y1.04145
X-0.09655 Y1.04145
X-0.09655 Y1.04045
X-0.09455 Y1.04045
X-0.09455 Y1.03945
X-0.09255 Y1.03945
X-0.09255 Y1.03845
X-0.06955 Y1.03845
X-0.06955 Y1.03945
X-0.06755 Y1.03945
X-0.06755 Y1.04045
X-0.06555 Y1.04045
X-0.06555 Y1.04145
X-0.06455 Y1.04145
X-0.06455 Y1.04245
X-0.06355 Y1.04245
X-0.06355 Y1.04345
X-0.06255 Y1.04345
X-0.06255 Y1.04445
X-0.06155 Y1.04445
X-0.06155 Y1.04545
X-0.06055 Y1.04545
X-0.06055 Y1.04745
X-0.05955 Y1.04745
X-0.05955 Y1.05045
X-0.05855 Y1.05045
X-0.05855 Y1.07145
X-0.05955 Y1.07145
X-0.05955 Y1.07445
X-0.06055 Y1.07445
X-0.06055 Y1.07645
X-0.06155 Y1.07645
X-0.06155 Y1.07745
X-0.06255 Y1.07745
X-0.06255 Y1.07845
X-0.06355 Y1.07845
X-0.06355 Y1.07945
X-0.06455 Y1.07945
X-0.06455 Y1.08045
X-0.06555 Y1.08045
X-0.06555 Y1.08145
X-0.06755 Y1.08145
X-0.06755 Y1.08245
X-0.06955 Y1.08245
X-0.06955 Y1.08345
X-0.07055 Y1.08345
X-0.07055 Y1.23845
X-0.06955 Y1.23845
X-0.06955 Y1.23945
X-0.06755 Y1.23945
X-0.06755 Y1.24045
X-0.06555 Y1.24045
X-0.06555 Y1.24145
X-0.06455 Y1.24145
X-0.06455 Y1.24245
X-0.06355 Y1.24245
X-0.06355 Y1.24345
X-0.06255 Y1.24345
X-0.06255 Y1.24445
X-0.06155 Y1.24445
X-0.06155 Y1.24545
X-0.06055 Y1.24545
X-0.06055 Y1.24745
X-0.05955 Y1.24745
X-0.05955 Y1.25045
X-0.05855 Y1.25045
X-0.05855 Y1.27145
X-0.05955 Y1.27145
X-0.05955 Y1.27445
X-0.06055 Y1.27445
X-0.06055 Y1.27645
X-0.06155 Y1.27645
X-0.06155 Y1.27745
X-0.06255 Y1.27745
X-0.06255 Y1.27845
X-0.06355 Y1.27845
X-0.06355 Y1.27945
X-0.06455 Y1.27945
X-0.06455 Y1.28045
X-0.06555 Y1.28045
X-0.06555 Y1.28145
X-0.06755 Y1.28145
X-0.06755 Y1.28245
X-0.06955 Y1.28245
X-0.06955 Y1.28345
X-0.09255 Y1.28345
X-0.09255 Y1.28245
X-0.09455 Y1.28245
X-0.09455 Y1.28145
X-0.09655 Y1.28145
X-0.09655 Y1.28045
X-0.09755 Y1.28045
X-0.09755 Y1.27945
X-0.09855 Y1.27945
X-0.09855 Y1.27845
X-0.09955 Y1.27845
X-0.09955 Y1.27745
G04 P0 ( dwell for no time -- G64 should not smooth over this point )
G00 Z0.08000 ( retract )

G00 X0.22045 Y1.05745 ( rapid move to begin. )
G01 Z-0.00200 F6.00000 ( plunge. )
G04 P0 ( dwell for no time -- G64 should not smooth over this point )
X0.22045 Y1.05745
X0.21945 Y1.05745
X0.21945 Y1.05645
X0.21845 Y1.05645
X0.21845 Y1.05445
X0.21745 Y1.05445
X0.21745 Y1.05145
X0.21645 Y1.05145
X0.21645 Y1.03045
X0.21745 Y1.03045
X0.21745 Y1.02745
X0.21845 Y1.02745
X0.21845 Y1.02545
X0.21945 Y1.02545
X0.21945 Y1.02445
X0.22045 Y1.02445
X0.22045 Y1.02345
X0.22145 Y1.02345
X0.22145 Y1.02245
X0.22245 Y1.02245
X0.22245 Y1.02145
X0.22345 Y1.02145
X0.22345 Y1.02045
X0.22545 Y1.02045
X0.22545 Y1.01945
X0.22745 Y1.01945
X0.22745 Y1.01845
X0.24345 Y1.01845
X0.24345 Y1.01745
X0.24445 Y1.01745
X0.24445 Y1.01645
X0.24545 Y1.01645
X0.24545 Y1.01545
X0.24645 Y1.01545
X0.24645 Y1.01445
X0.24745 Y1.01445
X0.24745 Y1.01345
X0.24845 Y1.01345
X0.24845 Y0.73445
X0.24945 Y0.73445
X0.24945 Y0.73145
X0.25045 Y0.73145
X0.25045 Y0.73045
X0.25145 Y0.73045
X0.25145 Y0.72945
X0.25245 Y0.72945
X0.25245 Y0.72845
X0.25345 Y0.72845
X0.25345 Y0.72745
X0.25445 Y0.72745
X0.25445 Y0.72645
X0.25545 Y0.72645
X0.25545 Y0.72545
X0.25645 Y0.72545
X0.25645 Y0.72445
X0.25745 Y0.72445
X0.25745 Y0.72345
X0.25845 Y0.72345
X0.25845 Y0.72245
X0.25945 Y0.72245
X0.25945 Y0.72145
X0.26045 Y0.72145
X0.26045 Y0.72045
X0.26145 Y0.72045
X0.26145 Y0.71945
X0.26245 Y0.71945
X0.26245 Y0.71845
X0.26345 Y0.71845
X0.26345 Y0.71745
X0.26445 Y0.71745
X0.26445 Y0.71645
X0.26545 Y0.71645
X0.26545 Y0.71545
X0.26645 Y0.71545
X0.26645 Y0.71445
X0.26745 Y0.71445
X0.26745 Y0.71345
X0.26845 Y0.71345
X0.26845 Y0.71245
X0.26945 Y0.71245
X0.26945 Y0.71145
X0.27145 Y0.71145
X0.27145 Y0.71045
X0.70645 Y0.71045
X0.70645 Y0.71145
X0.70845 Y0.71145
X0.70845 Y0.71245
X0.70945 Y0.71245
X0.70945 Y0.71345
X0.71045 Y0.71345
X0.71045 Y0.71445
X0.71145 Y0.71445
X0.71145 Y0.71545
X0.71245 Y0.71545
X0.71245 Y0.71645
X0.71345 Y0.71645
X0.71345 Y0.71745
X0.71445 Y0.71745
X0.71445 Y0.71845
X0.71545 Y0.71845
X0.71545 Y0.71945
X0.71645 Y0.71945
X0.71645 Y0.72045
X0.71745 Y0.72045
X0.71745 Y0.72145
X0.71845 Y0.72145
X0.71845 Y0.72245
X0.71945 Y0.72245
X0.71945 Y0.72345
X0.72045 Y0.72345
X0.72045 Y0.72445
X0.72145 Y0.72445
X0.72145 Y0.72545
X0.72245 Y0.72545
X0.72245 Y0.72645
X0.72345 Y0.72645
X0.72345 Y0.72745
X0.72445 Y0.72745
X0.72445 Y0.72845
X0.72545 Y0.72845
X0.72545 Y0.72945
X0.72645 Y0.72945
X0.72645 Y0.73045
X0.72745 Y0.73045
X0.72745 Y0.73145
X0.72845 Y0.73145
X0.72845 Y0.73445
X0.72945 Y0.73445
X0.72945 Y0.77845
X0.73045 Y0.77845
X0.73045 Y0.77945
X0.73245 Y0.77945
X0.73245 Y0.78045
X0.73445 Y0.78045
X0.73445 Y0.78145
X0.73545 Y0.78145
X0.73545 Y0.78245
X0.73645 Y0.78245
X0.73645 Y0.78345
X0.73745 Y0.78345
X0.73745 Y0.78445
X0.73845 Y0.78445
X0.73845 Y0.78545
X0.73945 Y0.78545
X0.73945 Y0.78745
X0.74045 Y0.78745
X0.74045 Y0.79045
X0.74145 Y0.79045
X0.74145 Y0.81145
X0.74045 Y0.81145
X0.74045 Y0.81445
X0.73945 Y0.81445
X0.73945 Y0.81645
X0.73845 Y0.81645
X0.73845 Y0.81745
X0.73745 Y0.81745
X0.73745 Y0.81845
X0.73645 Y0.81845
X0.73645 Y0.81945
X0.73545 Y0.81945
X0.73545 Y0.82045
X0.73445 Y0.82045
X0.73445 Y0.82145
X0.73245 Y0.82145
X0.73245 Y0.82245
X0.73045 Y0.82245
X0.73045 Y0.82345
X0.70745 Y0.82345
X0.70745 Y0.82245
X0.70545 Y0.82245
X0.70545 Y0.82145
X0.70345 Y0.82145
X0.70345 Y0.82045
X0.70245 Y0.82045
X0.70245 Y0.81945
X0.70145 Y0.81945
X0.70145 Y0.81845
X0.70045 Y0.81845
X0.70045 Y0.81745
X0.69945 Y0.81745
X0.69945 Y0.81645
X0.69845 Y0.81645
X0.69845 Y0.81445
X0.69745 Y0.81445
X0.69745 Y0.81145
X0.69645 Y0.81145
X0.69645 Y0.79045
X0.69745 Y0.79045
X0.69745 Y0.78745
X0.69845 Y0.78745
X0.69845 Y0.78545
X0.69945 Y0.78545
X0.69945 Y0.78445
X0.70045 Y0.78445
X0.70045 Y0.78345
X0.70145 Y0.78345
X0.70145 Y0.78245
X0.70245 Y0.78245
X0.70245 Y0.78145
X0.70345 Y0.78145
X0.70345 Y0.78045
X0.70545 Y0.78045
X0.70545 Y0.77945
X0.70745 Y0.77945
X0.70745 Y0.77845
X0.70845 Y0.77845
X0.70845 Y0.74845
X0.70745 Y0.74845
X0.70745 Y0.74745
X0.70645 Y0.74745
X0.70645 Y0.74645
X0.70545 Y0.74645
X0.70545 Y0.74545
X0.70445 Y0.74545
X0.70445 Y0.74445
X0.70345 Y0.74445
X0.70345 Y0.74345
X0.70245 Y0.74345
X0.70245 Y0.74245
X0.70145 Y0.74245
X0.70145 Y0.74145
X0.70045 Y0.74145
X0.70045 Y0.74045
X0.69945 Y0.74045
X0.69945 Y0.73945
X0.69845 Y0.73945
X0.69845 Y0.73845
X0.69745 Y0.73845
X0.69745 Y0.73745
X0.69645 Y0.73745
X0.69645 Y0.73645
X0.69545 Y0.73645
X0.69545 Y0.73545
X0.69445 Y0.73545
X0.69445 Y0.73445
X0.69345 Y0.73445
X0.69345 Y0.73345
X0.69245 Y0.73345
X0.69245 Y0.73245
X0.69145 Y0.73245
X0.69145 Y0.73145
X0.28645 Y0.73145
X0.28645 Y0.73245
X0.28545 Y0.73245
X0.28545 Y0.73345
X0.28445 Y0.73345
X0.28445 Y0.73445
X0.28345 Y0.73445
X0.28345 Y0.73545
X0.28245 Y0.73545
X0.28245 Y0.73645
X0.28145 Y0.73645
X0.28145 Y0.73745
X0.28045 Y0.73745
X0.28045 Y0.73845
X0.27945 Y0.73845
X0.27945 Y0.73945
X0.27845 Y0.73945
X0.27845 Y0.74045
X0.27745 Y0.74045
X0.27745 Y0.74145
X0.27645 Y0.74145
X0.27645 Y0.74245
X0.27545 Y0.74245
X0.27545 Y0.74345
X0.27445 Y0.74345
X0.27445 Y0.74445
X0.27345 Y0.74445
X0.27345 Y0.74545
X0.27245 Y0.74545
X0.27245 Y0.74645
X0.27145 Y0.74645
X0.27145 Y0.74745
X0.27045 Y0.74745
X0.27045 Y0.74845
X0.26945 Y0.74845
X0.26945 Y1.02745
X0.26845 Y1.02745
X0.26845 Y1.03045
X0.26745 Y1.03045
X0.26745 Y1.03145
X0.26645 Y1.03145
X0.26645 Y1.03245
X0.26545 Y1.03245
X0.26545 Y1.03345
X0.26445 Y1.03345
X0.26445 Y1.03445
X0.26345 Y1.03445
X0.26345 Y1.03545
X0.26245 Y1.03545
X0.26245 Y1.03645
X0.26145 Y1.03645
X0.26145 Y1.05145
X0.26045 Y1.05145
X0.26045 Y1.05445
X0.25945 Y1.05445
X0.25945 Y1.05645
X0.25845 Y1.05645
X0.25845 Y1.05745
X0.25745 Y1.05745
X0.25745 Y1.05845
X0.25645 Y1.05845
X0.25645 Y1.05945
X0.25545 Y1.05945
X0.25545 Y1.06045
X0.25445 Y1.06045
X0.25445 Y1.06145
X0.25245 Y1.06145
X0.25245 Y1.06245
X0.25045 Y1.06245
X0.25045 Y1.06345
X0.22745 Y1.06345
X0.22745 Y1.06245
X0.22545 Y1.06245
X0.22545 Y1.06145
X0.22345 Y1.06145
X0.22345 Y1.06045
X0.22245 Y1.06045
X0.22245 Y1.05945
X0.22145 Y1.05945
X0.22145 Y1.05845
X0.22045 Y1.05845
X0.22045 Y1.05745
G04 P0 ( dwell for no time -- G64 should not smooth over this point )
G00 Z0.08000 ( retract )

G00 X0.34045 Y0.67745 ( rapid move to begin. )
G01 Z-0.00200 F6.00000 ( plunge. )
G04 P0 ( dwell for no time -- G64 should not smooth over this point )
X0.34045 Y0.67745
X0.33945 Y0.67745
X0.33945 Y0.67645
X0.33845 Y0.67645
X0.33845 Y0.67445
X0.33745 Y0.67445
X0.33745 Y0.67145
X0.33645 Y0.67145
X0.33645 Y0.65645
X0.33545 Y0.65645
X0.33545 Y0.65545
X0.33445 Y0.65545
X0.33445 Y0.65445
X0.33345 Y0.65445
X0.33345 Y0.65345
X0.33245 Y0.65345
X0.33245 Y0.65245
X0.33145 Y0.65245
X0.33145 Y0.65145
X0.33045 Y0.65145
X0.33045 Y0.65045
X0.32945 Y0.65045
X0.32945 Y0.64945
X0.32845 Y0.64945
X0.32845 Y0.64845
X0.32745 Y0.64845
X0.32745 Y0.64745
X0.32645 Y0.64745
X0.32645 Y0.64645
X0.32545 Y0.64645
X0.32545 Y0.64545
X0.32445 Y0.64545
X0.32445 Y0.64445
X0.32345 Y0.64445
X0.32345 Y0.64345
X0.32245 Y0.64345
X0.32245 Y0.64245
X0.32145 Y0.64245
X0.32145 Y0.64145
X0.32045 Y0.64145
X0.32045 Y0.64045
X0.31945 Y0.64045
X0.31945 Y0.63945
X0.31845 Y0.63945
X0.31845 Y0.63845
X0.31745 Y0.63845
X0.31745 Y0.63745
X0.31645 Y0.63745
X0.31645 Y0.63645
X0.31545 Y0.63645
X0.31545 Y0.63545
X0.31445 Y0.63545
X0.31445 Y0.63445
X0.31345 Y0.63445
X0.31345 Y0.63345
X0.31245 Y0.63345
X0.31245 Y0.63245
X0.31145 Y0.63245
X0.31145 Y0.63145
X0.31045 Y0.63145
X0.31045 Y0.63045
X0.30945 Y0.63045
X0.30945 Y0.62945
X0.30845 Y0.62945
X0.30845 Y0.62845
X0.30745 Y0.62845
X0.30745 Y0.62745
X0.30645 Y0.62745
X0.30645 Y0.62645
X0.30545 Y0.62645
X0.30545 Y0.62545
X0.30445 Y0.62545
X0.30445 Y0.62445
X0.30345 Y0.62445
X0.30345 Y0.62345
X0.30245 Y0.62345
X0.30245 Y0.62245
X0.30145 Y0.62245
X0.30145 Y0.62145
X0.30045 Y0.62145
X0.30045 Y0.62045
X0.29945 Y0.62045
X0.29945 Y0.61945
X0.29845 Y0.61945
X0.29845 Y0.61845
X0.29745 Y0.61845
X0.29745 Y0.61745
X0.29645 Y0.61745
X0.29645 Y0.61645
X0.29545 Y0.61645
X0.29545 Y0.61545
X0.29445 Y0.61545
X0.29445 Y0.61445
X0.29345 Y0.61445
X0.29345 Y0.61345
X0.29245 Y0.61345
X0.29245 Y0.61245
X0.29145 Y0.61245
X0.29145 Y0.61145
X0.29045 Y0.61145
X0.29045 Y0.61045
X0.28945 Y0.61045
X0.28945 Y0.60945
X0.28845 Y0.60945
X0.28845 Y0.60845
X0.28745 Y0.60845
X0.28745 Y0.60745
X0.28645 Y0.60745
X0.28645 Y0.60645
X0.28545 Y0.60645
X0.28545 Y0.60545
X0.28445 Y0.60545
X0.28445 Y0.60445
X0.28345 Y0.60445
X0.28345 Y0.60345
X0.28245 Y0.60345
X0.28245 Y0.60245
X0.28145 Y0.60245
X0.28145 Y0.60145
X0.28045 Y0.60145
X0.28045 Y0.60045
X0.27945 Y0.60045
X0.27945 Y0.59945
X0.27845 Y0.59945
X0.27845 Y0.59845
X0.27745 Y0.59845
X0.27745 Y0.59745
X0.27645 Y0.59745
X0.27645 Y0.59645
X0.27545 Y0.59645
X0.27545 Y0.59545
X0.27445 Y0.59545
X0.27445 Y0.59445
X0.27345 Y0.59445
X0.27345 Y0.59345
X0.27245 Y0.59345
X0.27245 Y0.59245
X0.27145 Y0.59245
X0.27145 Y0.59145
X0.27045 Y0.59145
X0.27045 Y0.59045
X0.26945 Y0.59045
X0.26945 Y0.58945
X0.26845 Y0.58945
X0.26845 Y0.58845
X0.26745 Y0.58845
X0.26745 Y0.58745
X0.26645 Y0.58745
X0.26645 Y0.58645
X0.26545 Y0.58645
X0.26545 Y0.58545
X0.26445 Y0.58545
X0.26445 Y0.58445
X0.26345 Y0.58445
X0.26345 Y0.58345
X0.26245 Y0.58345
X0.26245 Y0.58245
X0.26145 Y0.58245
X0.26145 Y0.58145
X0.26045 Y0.58145
X0.26045 Y0.58045
X0.25945 Y0.58045
X0.25945 Y0.57945
X0.25845 Y0.57945
X0.25845 Y0.57845
X0.25745 Y0.57845
X0.25745 Y0.57745
X0.25645 Y0.57745
X0.25645 Y0.57645
X0.25545 Y0.57645
X0.25545 Y0.57545
X0.25445 Y0.57545
X0.25445 Y0.57445
X0.25345 Y0.57445
X0.25345 Y0.57345
X0.25245 Y0.57345
X0.25245 Y0.57245
X0.25145 Y0.57245
X0.25145 Y0.57145
X0.25045 Y0.57145
X0.25045 Y0.57045
X0.24945 Y0.57045
X0.24945 Y0.56945
X0.24845 Y0.56945
X0.24845 Y0.56845
X0.24745 Y0.56845
X0.24745 Y0.56745
X0.24645 Y0.56745
X0.24645 Y0.56645
X0.24545 Y0.56645
X0.24545 Y0.56545
X0.24445 Y0.56545
X0.24445 Y0.56445
X0.24345 Y0.56445
X0.24345 Y0.56345
X0.24245 Y0.56345
X0.24245 Y0.56245
X0.24145 Y0.56245
X0.24145 Y0.56145
X0.24045 Y0.56145
X0.24045 Y0.56045
X0.23945 Y0.56045
X0.23945 Y0.55945
X0.23845 Y0.55945
X0.23845 Y0.55845
X0.23745 Y0.55845
X0.23745 Y0.55745
X0.23645 Y0.55745
X0.23645 Y0.55645
X0.23545 Y0.55645
X0.23545 Y0.55545
X0.23445 Y0.55545
X0.23445 Y0.55445
X0.23345 Y0.55445
X0.23345 Y0.55345
X0.23245 Y0.55345
X0.23245 Y0.55245
X0.23145 Y0.55245
X0.23145 Y0.55145
X0.23045 Y0.55145
X0.23045 Y0.55045
X0.22945 Y0.55045
X0.22945 Y0.54945
X0.22845 Y0.54945
X0.22845 Y0.54845
X0.22745 Y0.54845
X0.22745 Y0.54745
X0.22645 Y0.54745
X0.22645 Y0.54645
X0.22545 Y0.54645
X0.22545 Y0.54545
X0.22445 Y0.54545
X0.22445 Y0.54445
X0.22345 Y0.54445
X0.22345 Y0.54345
X0.22245 Y0.54345
X0.22245 Y0.54245
X0.22145 Y0.54245
X0.22145 Y0.54145
X0.22045 Y0.54145
X0.22045 Y0.54045
X0.21945 Y0.54045
X0.21945 Y0.53945
X0.21845 Y0.53945
X0.21845 Y0.53845
X0.21745 Y0.53845
X0.21745 Y0.53745
X0.21645 Y0.53745
X0.21645 Y0.53645
X0.21545 Y0.53645
X0.21545 Y0.53545
X0.21445 Y0.53545
X0.21445 Y0.53445
X0.21345 Y0.53445
X0.21345 Y0.53345
X0.21245 Y0.53345
X0.21245 Y0.53245
X0.21145 Y0.53245
X0.21145 Y0.53145
X0.21045 Y0.53145
X0.21045 Y0.53045
X0.20945 Y0.53045
X0.20945 Y0.52945
X0.20845 Y0.52945
X0.20845 Y0.52845
X0.20745 Y0.52845
X0.20745 Y0.52745
X0.20645 Y0.52745
X0.20645 Y0.52645
X0.20545 Y0.52645
X0.20545 Y0.52545
X0.20445 Y0.52545
X0.20445 Y0.52445
X0.20345 Y0.52445
X0.20345 Y0.52345
X0.20245 Y0.52345
X0.20245 Y0.52245
X0.20145 Y0.52245
X0.20145 Y0.52145
X0.20045 Y0.52145
X0.20045 Y0.52045
X0.19945 Y0.52045
X0.19945 Y0.51945
X0.19845 Y0.51945
X0.19845 Y0.51845
X0.19745 Y0.51845
X0.19745 Y0.51745
X0.19645 Y0.51745
X0.19645 Y0.51645
X0.19545 Y0.51645
X0.19545 Y0.51545
X0.19445 Y0.51545
X0.19445 Y0.51445
X0.19345 Y0.51445
X0.19345 Y0.51345
X0.19245 Y0.51345
X0.19245 Y0.51245
X0.19145 Y0.51245
X0.19145 Y0.51145
X0.19045 Y0.51145
X0.19045 Y0.51045
X0.18945 Y0.51045
X0.18945 Y0.50945
X0.18845 Y0.50945
X0.18845 Y0.50845
X0.18745 Y0.50845
X0.18745 Y0.50745
X0.18645 Y0.50745
X0.18645 Y0.50645
X0.18545 Y0.50645
X0.18545 Y0.50545
X0.18445 Y0.50545
X0.18445 Y0.50445
X0.18345 Y0.50445
X0.18345 Y0.50345
X0.18245 Y0.50345
X0.18245 Y0.50245
X0.18145 Y0.50245
X0.18145 Y0.50145
X0.18045 Y0.50145
X0.18045 Y0.50045
X0.17945 Y0.50045
X0.17945 Y0.49945
X0.17845 Y0.49945
X0.17845 Y0.49845
X0.17745 Y0.49845
X0.17745 Y0.49745
X0.17645 Y0.49745
X0.17645 Y0.49645
X0.17545 Y0.49645
X0.17545 Y0.49545
X0.17445 Y0.49545
X0.17445 Y0.49445
X0.17345 Y0.49445
X0.17345 Y0.49345
X0.17245 Y0.49345
X0.17245 Y0.49245
X0.17145 Y0.49245
X0.17145 Y0.49145
X0.17045 Y0.49145
X0.17045 Y0.49045
X0.16945 Y0.49045
X0.16945 Y0.48945
X0.16845 Y0.48945
X0.16845 Y0.48845
X0.16745 Y0.48845
X0.16745 Y0.48745
X0.16645 Y0.48745
X0.16645 Y0.48645
X0.16545 Y0.48645
X0.16545 Y0.48545
X0.16445 Y0.48545
X0.16445 Y0.48445
X0.16345 Y0.48445
X0.16345 Y0.48345
X0.16245 Y0.48345
X0.16245 Y0.48245
X0.16145 Y0.48245
X0.16145 Y0.48145
X0.16045 Y0.48145
X0.16045 Y0.48045
X0.15945 Y0.48045
X0.15945 Y0.47945
X0.15845 Y0.47945
X0.15845 Y0.47845
X0.15745 Y0.47845
X0.15745 Y0.47745
X0.15645 Y0.47745
X0.15645 Y0.47645
X0.15545 Y0.47645
X0.15545 Y0.47545
X0.15445 Y0.47545
X0.15445 Y0.47445
X0.15345 Y0.47445
X0.15345 Y0.47345
X0.15245 Y0.47345
X0.15245 Y0.47245
X0.15145 Y0.47245
X0.15145 Y0.47145
X0.15045 Y0.47145
X0.15045 Y0.47045
X0.14945 Y0.47045
X0.14945 Y0.46945
X0.14845 Y0.46945
X0.14845 Y0.46845
X0.14745 Y0.46845
X0.14745 Y0.46745
X0.14645 Y0.46745
X0.14645 Y0.46645
X0.14545 Y0.46645
X0.14545 Y0.46545
X0.14445 Y0.46545
X0.14445 Y0.46445
X0.14345 Y0.46445
X0.14345 Y0.46345
X0.14245 Y0.46345
X0.14245 Y0.46245
X0.14145 Y0.46245
X0.14145 Y0.46145
X0.14045 Y0.46145
X0.14045 Y0.46045
X0.13945 Y0.46045
X0.13945 Y0.45945
X0.13845 Y0.45945
X0.13845 Y0.45845
X0.13745 Y0.45845
X0.13745 Y0.45745
X0.13645 Y0.45745
X0.13645 Y0.45645
X0.13545 Y0.45645
X0.13545 Y0.45545
X0.13445 Y0.45545
X0.13445 Y0.45445
X0.13345 Y0.45445
X0.13345 Y0.45345
X0.13245 Y0.45345
X0.13245 Y0.45245
X0.13145 Y0.45245
X0.13145 Y0.45145
X0.13045 Y0.45145
X0.13045 Y0.45045
X0.12945 Y0.45045
X0.12945 Y0.44945
X0.12845 Y0.44945
X0.12845 Y0.44845
X0.12745 Y0.44845
X0.12745 Y0.44745
X0.12645 Y0.44745
X0.12645 Y0.44645
X0.12545 Y0.44645
X0.12545 Y0.44545
X0.12445 Y0.44545
X0.12445 Y0.44445
X0.12345 Y0.44445
X0.12345 Y0.44345
X0.12245 Y0.44345
X0.12245 Y0.44245
X0.12145 Y0.44245
X0.12145 Y0.44145
X0.12045 Y0.44145
X0.12045 Y0.44045
X0.11945 Y0.44045
X0.11945 Y0.43945
X0.11845 Y0.43945
X0.11845 Y0.43845
X0.11745 Y0.43845
X0.11745 Y0.43745
X0.11645 Y0.43745
X0.11645 Y0.43645
X0.11545 Y0.43645
X0.11545 Y0.43545
X0.11445 Y0.43545
X0.11445 Y0.43445
X0.11345 Y0.43445
X0.11345 Y0.43345
X0.11245 Y0.43345
X0.11245 Y0.43245
X0.11145 Y0.43245
X0.11145 Y0.43145
X0.11045 Y0.43145
X0.11045 Y0.43045
X0.10945 Y0.43045
X0.10945 Y0.42945
X0.10845 Y0.42945
X0.10845 Y0.42845
X0.10745 Y0.42845
X0.10745 Y0.42745
X0.10645 Y0.42745
X0.10645 Y0.42645
X0.10545 Y0.42645
X0.10545 Y0.42545
X0.10445 Y0.42545
X0.10445 Y0.42445
X0.10345 Y0.42445
X0.10345 Y0.42345
X0.10245 Y0.42345
X0.10245 Y0.42245
X0.10145 Y0.42245
X0.10145 Y0.42145
X0.10045 Y0.42145
X0.10045 Y0.42045
X0.09945 Y0.42045
X0.09945 Y0.41945
X0.09845 Y0.41945
X0.09845 Y0.41845
X0.09745 Y0.41845
X0.09745 Y0.41745
X0.09645 Y0.41745
X0.09645 Y0.41645
X0.09545 Y0.41645
X0.09545 Y0.41545
X0.09445 Y0.41545
X0.09445 Y0.41445
X0.09345 Y0.41445
X0.09345 Y0.41345
X0.09245 Y0.41345
X0.09245 Y0.41245
X0.09145 Y0.41245
X0.09145 Y0.41145
X0.09045 Y0.41145
X0.09045 Y0.41045
X0.08945 Y0.41045
X0.08945 Y0.40945
X0.08845 Y0.40945
X0.08845 Y0.40845
X0.08745 Y0.40845
X0.08745 Y0.40745
X0.08645 Y0.40745
X0.08645 Y0.40645
X0.08545 Y0.40645
X0.08545 Y0.40545
X0.08445 Y0.40545
X0.08445 Y0.40445
X0.08345 Y0.40445
X0.08345 Y0.40345
X0.08245 Y0.40345
X0.08245 Y0.40245
X0.08145 Y0.40245
X0.08145 Y0.40145
X0.08045 Y0.40145
X0.08045 Y0.40045
X0.07945 Y0.40045
X0.07945 Y0.39945
X0.07845 Y0.39945
X0.07845 Y0.39845
X0.07745 Y0.39845
X0.07745 Y0.39745
X0.07645 Y0.39745
X0.07645 Y0.39645
X0.07545 Y0.39645
X0.07545 Y0.39545
X0.07445 Y0.39545
X0.07445 Y0.39445
X0.07345 Y0.39445
X0.07345 Y0.39345
X0.07245 Y0.39345
X0.07245 Y0.39245
X0.07145 Y0.39245
X0.07145 Y0.39145
X0.07045 Y0.39145
X0.07045 Y0.39045
X0.06945 Y0.39045
X0.06945 Y0.38945
X0.06845 Y0.38945
X0.06845 Y0.38845
X0.06745 Y0.38845
X0.06745 Y0.38745
X0.06645 Y0.38745
X0.06645 Y0.38645
X0.06545 Y0.38645
X0.06545 Y0.38545
X0.06445 Y0.38545
X0.06445 Y0.38445
X0.06345 Y0.38445
X0.06345 Y0.38345
X0.06245 Y0.38345
X0.06245 Y0.38245
X0.06145 Y0.38245
X0.06145 Y0.38145
X0.06045 Y0.38145
X0.06045 Y0.38045
X0.05945 Y0.38045
X0.05945 Y0.37945
X0.05845 Y0.37945
X0.05845 Y0.37845
X0.05745 Y0.37845
X0.05745 Y0.37745
X0.05645 Y0.37745
X0.05645 Y0.37645
X0.05545 Y0.37645
X0.05545 Y0.37545
X0.05445 Y0.37545
X0.05445 Y0.37445
X0.05345 Y0.37445
X0.05345 Y0.37345
X0.05245 Y0.37345
X0.05245 Y0.37245
X0.05145 Y0.37245
X0.05145 Y0.37145
X0.05045 Y0.37145
X0.05045 Y0.37045
X0.04945 Y0.37045
X0.04945 Y0.36945
X0.04845 Y0.36945
X0.04845 Y0.36845
X0.04745 Y0.36845
X0.04745 Y0.36745
X0.04645 Y0.36745
X0.04645 Y0.36645
X0.04545 Y0.36645
X0.04545 Y0.36545
X0.04445 Y0.36545
X0.04445 Y0.36445
X0.04345 Y0.36445
X0.04345 Y0.36345
X0.04245 Y0.36345
X0.04245 Y0.36245
X0.04145 Y0.36245
X0.04145 Y0.36145
X0.04045 Y0.36145
X0.04045 Y0.36045
X0.03945 Y0.36045
X0.03945 Y0.35945
X0.03845 Y0.35945
X0.03845 Y0.35845
X0.03745 Y0.35845
X0.03745 Y0.35745
X0.03645 Y0.35745
X0.03645 Y0.35645
X0.03545 Y0.35645
X0.03545 Y0.35545
X0.03445 Y0.35545
X0.03445 Y0.35445
X0.03345 Y0.35445
X0.03345 Y0.35345
X0.03245 Y0.35345
X0.03245 Y0.35245
X0.03145 Y0.35245
X0.03145 Y0.35145
X0.03045 Y0.35145
X0.03045 Y0.35045
X0.02945 Y0.35045
X0.02945 Y0.34945
X0.02845 Y0.34945
X0.02845 Y0.34845
X0.02745 Y0.34845
X0.02745 Y0.34745
X0.02645 Y0.34745
X0.02645 Y0.34645
X0.02545 Y0.34645
X0.02545 Y0.34545
X0.02445 Y0.34545
X0.02445 Y0.34445
X0.02345 Y0.34445
X0.02345 Y0.34345
X0.02245 Y0.34345
X0.02245 Y0.34245
X0.02145 Y0.34245
X0.02145 Y0.34145
X0.02045 Y0.34145
X0.02045 Y0.34045
X0.01945 Y0.34045
X0.01945 Y0.33945
X0.01845 Y0.33945
X0.01845 Y0.33845
X0.01745 Y0.33845
X0.01745 Y0.33745
X0.01645 Y0.33745
X0.01645 Y0.33645
X0.01545 Y0.33645
X0.01545 Y0.33545
X0.01445 Y0.33545
X0.01445 Y0.33445
X0.01345 Y0.33445
X0.01345 Y0.33345
X0.01245 Y0.33345
X0.01245 Y0.33245
X0.01145 Y0.33245
X0.01145 Y0.33145
X0.01045 Y0.33145
X0.01045 Y0.33045
X0.00945 Y0.33045
X0.00945 Y0.32945
X0.00845 Y0.32945
X0.00845 Y0.32845
X0.00745 Y0.32845
X0.00745 Y0.32745
X0.00645 Y0.32745
X0.00645 Y0.32645
X0.00545 Y0.32645
X0.00545 Y0.32545
X0.00445 Y0.32545
X0.00445 Y0.32445
X0.00345 Y0.32445
X0.00345 Y0.32345
X0.00245 Y0.32345
X0.00245 Y0.32245
X0.00145 Y0.32245
X0.00145 Y0.32145
X0.00045 Y0.32145
X0.00045 Y0.32045
X-0.00055 Y0.32045
X-0.00055 Y0.31945
X-0.00155 Y0.31945
X-0.00155 Y0.31845
X-0.00255 Y0.31845
X-0.00255 Y0.31745
X-0.00355 Y0.31745
X-0.00355 Y0.31645
X-0.00455 Y0.31645
X-0.00455 Y0.31545
X-0.00555 Y0.31545
X-0.00555 Y0.31445
X-0.00655 Y0.31445
X-0.00655 Y0.31345
X-0.00755 Y0.31345
X-0.00755 Y0.31245
X-0.00855 Y0.31245
X-0.00855 Y0.31145
X-0.00955 Y0.31145
X-0.00955 Y0.31045
X-0.01055 Y0.31045
X-0.01055 Y0.30945
X-0.01155 Y0.30945
X-0.01155 Y0.30845
X-0.01255 Y0.30845
X-0.01255 Y0.30745
X-0.01355 Y0.30745
X-0.01355 Y0.30645
X-0.01455 Y0.30645
X-0.01455 Y0.30545
X-0.01555 Y0.30545
X-0.01555 Y0.30445
X-0.01655 Y0.30445
X-0.01655 Y0.30345
X-0.01755 Y0.30345
X-0.01755 Y0.30245
X-0.01855 Y0.30245
X-0.01855 Y0.30145
X-0.01955 Y0.30145
X-0.01955 Y0.30045
X-0.02055 Y0.30045
X-0.02055 Y0.29945
X-0.02155 Y0.29945
X-0.02155 Y0.29845
X-0.02255 Y0.29845
X-0.02255 Y0.29745
X-0.02355 Y0.29745
X-0.02355 Y0.29645
X-0.02455 Y0.29645
X-0.02455 Y0.29545
X-0.02555 Y0.29545
X-0.02555 Y0.29445
X-0.02655 Y0.29445
X-0.02655 Y0.29345
X-0.02755 Y0.29345
X-0.02755 Y0.29245
X-0.02855 Y0.29245
X-0.02855 Y0.29145
X-0.02955 Y0.29145
X-0.02955 Y0.29045
X-0.03055 Y0.29045
X-0.03055 Y0.28745
X-0.03155 Y0.28745
X-0.03155 Y0.26345
X-0.03255 Y0.26345
X-0.03255 Y0.26245
X-0.03455 Y0.26245
X-0.03455 Y0.26145
X-0.03655 Y0.26145
X-0.03655 Y0.26045
X-0.03755 Y0.26045
X-0.03755 Y0.25945
X-0.03855 Y0.25945
X-0.03855 Y0.25845
X-0.03955 Y0.25845
X-0.03955 Y0.25745
X-0.04055 Y0.25745
X-0.04055 Y0.25645
X-0.04155 Y0.25645
X-0.04155 Y0.25445
X-0.04255 Y0.25445
X-0.04255 Y0.25145
X-0.04355 Y0.25145
X-0.04355 Y0.23045
X-0.04255 Y0.23045
X-0.04255 Y0.22745
X-0.04155 Y0.22745
X-0.04155 Y0.22545
X-0.04055 Y0.22545
X-0.04055 Y0.22445
X-0.03955 Y0.22445
X-0.03955 Y0.22345
X-0.03855 Y0.22345
X-0.03855 Y0.22245
X-0.03755 Y0.22245
X-0.03755 Y0.22145
X-0.03655 Y0.22145
X-0.03655 Y0.22045
X-0.03455 Y0.22045
X-0.03455 Y0.21945
X-0.03255 Y0.21945
X-0.03255 Y0.21845
X-0.00955 Y0.21845
X-0.00955 Y0.21945
X-0.00755 Y0.21945
X-0.00755 Y0.22045
X-0.00555 Y0.22045
X-0.00555 Y0.22145
X-0.00455 Y0.22145
X-0.00455 Y0.22245
X-0.00355 Y0.22245
X-0.00355 Y0.22345
X-0.00255 Y0.22345
X-0.00255 Y0.22445
X-0.00155 Y0.22445
X-0.00155 Y0.22545
X-0.00055 Y0.22545
X-0.00055 Y0.22745
X0.00045 Y0.22745
X0.00045 Y0.23045
X0.00145 Y0.23045
X0.00145 Y0.25145
X0.00045 Y0.25145
X0.00045 Y0.25445
X-0.00055 Y0.25445
X-0.00055 Y0.25645
X-0.00155 Y0.25645
X-0.00155 Y0.25745
X-0.00255 Y0.25745
X-0.00255 Y0.25845
X-0.00355 Y0.25845
X-0.00355 Y0.25945
X-0.00455 Y0.25945
X-0.00455 Y0.26045
X-0.00555 Y0.26045
X-0.00555 Y0.26145
X-0.00755 Y0.26145
X-0.00755 Y0.26245
X-0.00955 Y0.26245
X-0.00955 Y0.26345
X-0.01055 Y0.26345
X-0.01055 Y0.27345
X-0.00955 Y0.27345
X-0.00955 Y0.27445
X-0.00855 Y0.27445
X-0.00855 Y0.27545
X-0.00755 Y0.27545
X-0.00755 Y0.27645
X-0.00655 Y0.27645
X-0.00655 Y0.27745
X-0.00555 Y0.27745
X-0.00555 Y0.27845
X-0.00455 Y0.27845
X-0.00455 Y0.27945
X-0.00355 Y0.27945
X-0.00355 Y0.28045
X-0.00255 Y0.28045
X-0.00255 Y0.28145
X-0.00155 Y0.28145
X-0.00155 Y0.28245
X-0.00055 Y0.28245
X-0.00055 Y0.28345
X0.00045 Y0.28345
X0.00045 Y0.28445
X0.00145 Y0.28445
X0.00145 Y0.28545
X0.00245 Y0.28545
X0.00245 Y0.28645
X0.00345 Y0.28645
X0.00345 Y0.28745
X0.00445 Y0.28745
X0.00445 Y0.28845
X0.00545 Y0.28845
X0.00545 Y0.28945
X0.00645 Y0.28945
X0.00645 Y0.29045
X0.00745 Y0.29045
X0.00745 Y0.29145
X0.00845 Y0.29145
X0.00845 Y0.29245
X0.00945 Y0.29245
X0.00945 Y0.29345
X0.01045 Y0.29345
X0.01045 Y0.29445
X0.01145 Y0.29445
X0.01145 Y0.29545
X0.01245 Y0.29545
X0.01245 Y0.29645
X0.01345 Y0.29645
X0.01345 Y0.29745
X0.01445 Y0.29745
X0.01445 Y0.29845
X0.01545 Y0.29845
X0.01545 Y0.29945
X0.01645 Y0.29945
X0.01645 Y0.30045
X0.01745 Y0.30045
X0.01745 Y0.30145
X0.01845 Y0.30145
X0.01845 Y0.30245
X0.01945 Y0.30245
X0.01945 Y0.30345
X0.02045 Y0.30345
X0.02045 Y0.30445
X0.02145 Y0.30445
X0.02145 Y0.30545
X0.02245 Y0.30545
X0.02245 Y0.30645
X0.02345 Y0.30645
X0.02345 Y0.30745
X0.02445 Y0.30745
X0.02445 Y0.30845
X0.02545 Y0.30845
X0.02545 Y0.30945
X0.02645 Y0.30945
X0.02645 Y0.31045
X0.02745 Y0.31045
X0.02745 Y0.31145
X0.02845 Y0.31145
X0.02845 Y0.31245
X0.02945 Y0.31245
X0.02945 Y0.31345
X0.03045 Y0.31345
X0.03045 Y0.31445
X0.03145 Y0.31445
X0.03145 Y0.31545
X0.03245 Y0.31545
X0.03245 Y0.31645
X0.03345 Y0.31645
X0.03345 Y0.31745
X0.03445 Y0.31745
X0.03445 Y0.31845
X0.03545 Y0.31845
X0.03545 Y0.31945
X0.03645 Y0.31945
X0.03645 Y0.32045
X0.03745 Y0.32045
X0.03745 Y0.32145
X0.03845 Y0.32145
X0.03845 Y0.32245
X0.03945 Y0.32245
X0.03945 Y0.32345
X0.04045 Y0.32345
X0.04045 Y0.32445
X0.04145 Y0.32445
X0.04145 Y0.32545
X0.04245 Y0.32545
X0.04245 Y0.32645
X0.04345 Y0.32645
X0.04345 Y0.32745
X0.04445 Y0.32745
X0.04445 Y0.32845
X0.04545 Y0.32845
X0.04545 Y0.32945
X0.04645 Y0.32945
X0.04645 Y0.33045
X0.04745 Y0.33045
X0.04745 Y0.33145
X0.04845 Y0.33145
X0.04845 Y0.33245
X0.04945 Y0.33245
X0.04945 Y0.33345
X0.05045 Y0.33345
X0.05045 Y0.33445
X0.05145 Y0.33445
X0.05145 Y0.33545
X0.05245 Y0.33545
X0.05245 Y0.33645
X0.05345 Y0.33645
X0.05345 Y0.33745
X0.05445 Y0.33745
X0.05445 Y0.33845
X0.05545 Y0.33845
X0.05545 Y0.33945
X0.05645 Y0.33945
X0.05645 Y0.34045
X0.05745 Y0.34045
X0.05745 Y0.34145
X0.05845 Y0.34145
X0.05845 Y0.34245
X0.05945 Y0.34245
X0.05945 Y0.34345
X0.06045 Y0.34345
X0.06045 Y0.34445
X0.06145 Y0.34445
X0.06145 Y0.34545
X0.06245 Y0.34545
X0.06245 Y0.34645
X0.06345 Y0.34645
X0.06345 Y0.34745
X0.06445 Y0.34745
X0.06445 Y0.34845
X0.06545 Y0.34845
X0.06545 Y0.34945
X0.06645 Y0.34945
X0.06645 Y0.35045
X0.06745 Y0.35045
X0.06745 Y0.35145
X0.06845 Y0.35145
X0.06845 Y0.35245
X0.06945 Y0.35245
X0.06945 Y0.35345
X0.07045 Y0.35345
X0.07045 Y0.35445
X0.07145 Y0.35445
X0.07145 Y0.35545
X0.07245 Y0.35545
X0.07245 Y0.35645
X0.07345 Y0.35645
X0.07345 Y0.35745
X0.07445 Y0.35745
X0.07445 Y0.35845
X0.07545 Y0.35845
X0.07545 Y0.35945
X0.07645 Y0.35945
X0.07645 Y0.36045
X0.07745 Y0.36045
X0.07745 Y0.36145
X0.07845 Y0.36145
X0.07845 Y0.36245
X0.07945 Y0.36245
X0.07945 Y0.36345
X0.08045 Y0.36345
X0.08045 Y0.36445
X0.08145 Y0.36445
X0.08145 Y0.36545
X0.08245 Y0.36545
X0.08245 Y0.36645
X0.08345 Y0.36645
X0.08345 Y0.36745
X0.08445 Y0.36745
X0.08445 Y0.36845
X0.08545 Y0.36845
