( pcb2gcode 1.1.4 )

G94     ( Inches per minute feed rate. )
G20     ( Units == INCHES.             )
G90     ( Absolute coordinates.        )
S30000  ( RPM spindle speed.           )
M3      ( Spindle on clockwise.        )

G64 P0.00500 ( set maximum deviation from commanded toolpath )

G04 P0 ( dwell for no time -- G64 should not smooth over this point )
G00 Z0.08000 ( retract )

G00 X-0.08700 Y1.96345 ( rapid move to begin. )
G01 Z-0.00200 F6.00000 ( plunge. )
G04 P0 ( dwell for no time -- G64 should not smooth over this point )
X-0.08700 Y1.96345
X-0.08400 Y1.96345
X-0.08400 Y1.96245
X-0.08100 Y1.96245
X-0.08100 Y1.96145
X-0.07900 Y1.96145
X-0.07900 Y1.96045
X-0.07800 Y1.96045
X-0.07800 Y1.95945
X-0.07600 Y1.95945
X-0.07600 Y1.95845
X-0.07400 Y1.95845
X-0.07400 Y1.95745
X-0.07200 Y1.95745
X-0.07200 Y1.95645
X-0.07000 Y1.95645
X-0.07000 Y1.95545
X-0.06800 Y1.95545
X-0.06800 Y1.95445
X-0.06700 Y1.95445
X-0.06700 Y1.95345
X-0.06500 Y1.95345
X-0.06500 Y1.95245
X-0.06400 Y1.95245
X-0.06400 Y1.95145
X-0.06200 Y1.95145
X-0.06200 Y1.95045
X-0.06100 Y1.95045
X-0.06100 Y1.94945
X-0.06000 Y1.94945
X-0.06000 Y1.94845
X-0.05900 Y1.94845
X-0.05900 Y1.94745
X-0.05800 Y1.94745
X-0.05800 Y1.94645
X-0.05600 Y1.94645
X-0.05600 Y1.94545
X-0.05500 Y1.94545
X-0.05500 Y1.94445
X-0.05400 Y1.94445
X-0.05400 Y1.94345
X-0.05300 Y1.94345
X-0.05300 Y1.94245
X-0.05100 Y1.94245
X-0.05100 Y1.94145
X-0.05000 Y1.94145
X-0.05000 Y1.94045
X-0.04900 Y1.94045
X-0.04900 Y1.93845
X-0.04800 Y1.93845
X-0.04800 Y1.93745
X-0.04700 Y1.93745
X-0.04700 Y1.93645
X-0.04600 Y1.93645
X-0.04600 Y1.93545
X-0.04500 Y1.93545
X-0.04500 Y1.93345
X-0.04400 Y1.93345
X-0.04400 Y1.93245
X-0.04300 Y1.93245
X-0.04300 Y1.93145
X-0.04200 Y1.93145
X-0.04200 Y1.93045
X-0.04100 Y1.93045
X-0.04100 Y1.92945
X-0.04000 Y1.92945
X-0.04000 Y1.92745
X-0.03900 Y1.92745
X-0.03900 Y1.92645
X-0.03800 Y1.92645
X-0.03800 Y1.92445
X-0.03700 Y1.92445
X-0.03700 Y1.92345
X-0.03600 Y1.92345
X-0.03600 Y1.92145
X-0.03500 Y1.92145
X-0.03500 Y1.91945
X-0.03400 Y1.91945
X-0.03400 Y1.91745
X-0.03300 Y1.91745
X-0.03300 Y1.91545
X-0.03200 Y1.91545
X-0.03200 Y1.91345
X-0.03100 Y1.91345
X-0.03100 Y1.91245
X-0.03000 Y1.91245
X-0.03000 Y1.91045
X-0.02900 Y1.91045
X-0.02900 Y1.90745
X-0.02800 Y1.90745
X-0.02800 Y1.90445
X-0.02700 Y1.90445
X-0.02700 Y1.90045
X-0.02600 Y1.90045
X-0.02600 Y1.89745
X-0.02500 Y1.89745
X-0.02500 Y1.89445
X-0.02400 Y1.89445
X-0.02400 Y1.89045
X-0.02300 Y1.89045
X-0.02300 Y1.88045
X-0.02200 Y1.88045
X-0.02200 Y1.85145
X-0.02300 Y1.85145
X-0.02300 Y1.84145
X-0.02400 Y1.84145
X-0.02400 Y1.83745
X-0.02500 Y1.83745
X-0.02500 Y1.83445
X-0.02600 Y1.83445
X-0.02600 Y1.83145
X-0.02700 Y1.83145
X-0.02700 Y1.82745
X-0.02800 Y1.82745
X-0.02800 Y1.82445
X-0.02900 Y1.82445
X-0.02900 Y1.82145
X-0.03000 Y1.82145
X-0.03000 Y1.81945
X-0.03100 Y1.81945
X-0.03100 Y1.81845
X-0.03200 Y1.81845
X-0.03200 Y1.81645
X-0.03300 Y1.81645
X-0.03300 Y1.81445
X-0.03400 Y1.81445
X-0.03400 Y1.81245
X-0.03500 Y1.81245
X-0.03500 Y1.81045
X-0.03600 Y1.81045
X-0.03600 Y1.80845
X-0.03700 Y1.80845
X-0.03700 Y1.80745
X-0.03800 Y1.80745
X-0.03800 Y1.80545
X-0.03900 Y1.80545
X-0.03900 Y1.80445
X-0.04000 Y1.80445
X-0.04000 Y1.80245
X-0.04100 Y1.80245
X-0.04100 Y1.80145
X-0.04200 Y1.80145
X-0.04200 Y1.80045
X-0.04300 Y1.80045
X-0.04300 Y1.79945
X-0.04400 Y1.79945
X-0.04400 Y1.79845
X-0.04500 Y1.79845
X-0.04500 Y1.79645
X-0.04600 Y1.79645
X-0.04600 Y1.79545
X-0.04700 Y1.79545
X-0.04700 Y1.79445
X-0.04800 Y1.79445
X-0.04800 Y1.79345
X-0.04900 Y1.79345
X-0.04900 Y1.79145
X-0.05000 Y1.79145
X-0.05000 Y1.79045
X-0.05100 Y1.79045
X-0.05100 Y1.78945
X-0.05300 Y1.78945
X-0.05300 Y1.78845
X-0.05400 Y1.78845
X-0.05400 Y1.78745
X-0.05500 Y1.78745
X-0.05500 Y1.78645
X-0.05600 Y1.78645
X-0.05600 Y1.78545
X-0.05800 Y1.78545
X-0.05800 Y1.78445
X-0.05900 Y1.78445
X-0.05900 Y1.78345
X-0.06000 Y1.78345
X-0.06000 Y1.78245
X-0.06100 Y1.78245
X-0.06100 Y1.78145
X-0.06200 Y1.78145
X-0.06200 Y1.78045
X-0.06400 Y1.78045
X-0.06400 Y1.77945
X-0.06500 Y1.77945
X-0.06500 Y1.77845
X-0.06700 Y1.77845
X-0.06700 Y1.77745
X-0.06800 Y1.77745
X-0.06800 Y1.77645
X-0.07000 Y1.77645
X-0.07000 Y1.77545
X-0.07200 Y1.77545
X-0.07200 Y1.77445
X-0.07400 Y1.77445
X-0.07400 Y1.77345
X-0.07600 Y1.77345
X-0.07600 Y1.77245
X-0.07800 Y1.77245
X-0.07800 Y1.77145
X-0.07900 Y1.77145
X-0.07900 Y1.77045
X-0.08100 Y1.77045
X-0.08100 Y1.76945
X-0.08400 Y1.76945
X-0.08400 Y1.76845
X-0.08700 Y1.76845
X-0.08700 Y1.76745
X-0.09100 Y1.76745
X-0.09100 Y1.76645
X-0.09400 Y1.76645
X-0.09400 Y1.76545
X-0.09700 Y1.76545
X-0.09700 Y1.76445
X-0.10100 Y1.76445
X-0.10100 Y1.76345
X-0.11100 Y1.76345
X-0.11100 Y1.76245
X-0.14000 Y1.76245
X-0.14000 Y1.76345
X-0.15000 Y1.76345
X-0.15000 Y1.76445
X-0.15400 Y1.76445
X-0.15400 Y1.76545
X-0.15700 Y1.76545
X-0.15700 Y1.76645
X-0.16000 Y1.76645
X-0.16000 Y1.76745
X-0.16400 Y1.76745
X-0.16400 Y1.76845
X-0.16700 Y1.76845
X-0.16700 Y1.76945
X-0.17000 Y1.76945
X-0.17000 Y1.77045
X-0.17200 Y1.77045
X-0.17200 Y1.77145
X-0.17300 Y1.77145
X-0.17300 Y1.77245
X-0.17500 Y1.77245
X-0.17500 Y1.77345
X-0.17700 Y1.77345
X-0.17700 Y1.77445
X-0.17900 Y1.77445
X-0.17900 Y1.77545
X-0.18100 Y1.77545
X-0.18100 Y1.77645
X-0.18300 Y1.77645
X-0.18300 Y1.77745
X-0.18400 Y1.77745
X-0.18400 Y1.77845
X-0.18600 Y1.77845
X-0.18600 Y1.77945
X-0.18700 Y1.77945
X-0.18700 Y1.78045
X-0.18900 Y1.78045
X-0.18900 Y1.78145
X-0.19000 Y1.78145
X-0.19000 Y1.78245
X-0.19100 Y1.78245
X-0.19100 Y1.78345
X-0.19200 Y1.78345
X-0.19200 Y1.78445
X-0.19300 Y1.78445
X-0.19300 Y1.78545
X-0.19500 Y1.78545
X-0.19500 Y1.78645
X-0.19600 Y1.78645
X-0.19600 Y1.78745
X-0.19700 Y1.78745
X-0.19700 Y1.78845
X-0.19800 Y1.78845
X-0.19800 Y1.78945
X-0.20000 Y1.78945
X-0.20000 Y1.79045
X-0.20100 Y1.79045
X-0.20100 Y1.79145
X-0.20200 Y1.79145
X-0.20200 Y1.79345
X-0.20300 Y1.79345
X-0.20300 Y1.79445
X-0.20400 Y1.79445
X-0.20400 Y1.79545
X-0.20500 Y1.79545
X-0.20500 Y1.79645
X-0.20600 Y1.79645
X-0.20600 Y1.79845
X-0.20700 Y1.79845
X-0.20700 Y1.79945
X-0.20800 Y1.79945
X-0.20800 Y1.80045
X-0.20900 Y1.80045
X-0.20900 Y1.80145
X-0.21000 Y1.80145
X-0.21000 Y1.80245
X-0.21100 Y1.80245
X-0.21100 Y1.80445
X-0.21200 Y1.80445
X-0.21200 Y1.80545
X-0.21300 Y1.80545
X-0.21300 Y1.80745
X-0.21400 Y1.80745
X-0.21400 Y1.80845
X-0.21500 Y1.80845
X-0.21500 Y1.81045
X-0.21600 Y1.81045
X-0.21600 Y1.81245
X-0.21700 Y1.81245
X-0.21700 Y1.81445
X-0.21800 Y1.81445
X-0.21800 Y1.81645
X-0.21900 Y1.81645
X-0.21900 Y1.81845
X-0.22000 Y1.81845
X-0.22000 Y1.81945
X-0.22100 Y1.81945
X-0.22100 Y1.82145
X-0.22200 Y1.82145
X-0.22200 Y1.82445
X-0.22300 Y1.82445
X-0.22300 Y1.82745
X-0.22400 Y1.82745
X-0.22400 Y1.83145
X-0.22500 Y1.83145
X-0.22500 Y1.83445
X-0.22600 Y1.83445
X-0.22600 Y1.83745
X-0.22700 Y1.83745
X-0.22700 Y1.84145
X-0.22800 Y1.84145
X-0.22800 Y1.85145
X-0.22900 Y1.85145
X-0.22900 Y1.88045
X-0.22800 Y1.88045
X-0.22800 Y1.89045
X-0.22700 Y1.89045
X-0.22700 Y1.89445
X-0.22600 Y1.89445
X-0.22600 Y1.89745
X-0.22500 Y1.89745
X-0.22500 Y1.90045
X-0.22400 Y1.90045
X-0.22400 Y1.90445
X-0.22300 Y1.90445
X-0.22300 Y1.90745
X-0.22200 Y1.90745
X-0.22200 Y1.91045
X-0.22100 Y1.91045
X-0.22100 Y1.91245
X-0.22000 Y1.91245
X-0.22000 Y1.91345
X-0.21900 Y1.91345
X-0.21900 Y1.91545
X-0.21800 Y1.91545
X-0.21800 Y1.91745
X-0.21700 Y1.91745
X-0.21700 Y1.91945
X-0.21600 Y1.91945
X-0.21600 Y1.92145
X-0.21500 Y1.92145
X-0.21500 Y1.92345
X-0.21400 Y1.92345
X-0.21400 Y1.92445
X-0.21300 Y1.92445
X-0.21300 Y1.92645
X-0.21200 Y1.92645
X-0.21200 Y1.92745
X-0.21100 Y1.92745
X-0.21100 Y1.92945
X-0.21000 Y1.92945
X-0.21000 Y1.93045
X-0.20900 Y1.93045
X-0.20900 Y1.93145
X-0.20800 Y1.93145
X-0.20800 Y1.93245
X-0.20700 Y1.93245
X-0.20700 Y1.93345
X-0.20600 Y1.93345
X-0.20600 Y1.93545
X-0.20500 Y1.93545
X-0.20500 Y1.93645
X-0.20400 Y1.93645
X-0.20400 Y1.93745
X-0.20300 Y1.93745
X-0.20300 Y1.93845
X-0.20200 Y1.93845
X-0.20200 Y1.94045
X-0.20100 Y1.94045
X-0.20100 Y1.94145
X-0.20000 Y1.94145
X-0.20000 Y1.94245
X-0.19800 Y1.94245
X-0.19800 Y1.94345
X-0.19700 Y1.94345
X-0.19700 Y1.94445
X-0.19600 Y1.94445
X-0.19600 Y1.94545
X-0.19500 Y1.94545
X-0.19500 Y1.94645
X-0.19300 Y1.94645
X-0.19300 Y1.94745
X-0.19200 Y1.94745
X-0.19200 Y1.94845
X-0.19100 Y1.94845
X-0.19100 Y1.94945
X-0.19000 Y1.94945
X-0.19000 Y1.95045
X-0.18900 Y1.95045
X-0.18900 Y1.95145
X-0.18700 Y1.95145
X-0.18700 Y1.95245
X-0.18600 Y1.95245
X-0.18600 Y1.95345
X-0.18400 Y1.95345
X-0.18400 Y1.95445
X-0.18300 Y1.95445
X-0.18300 Y1.95545
X-0.18100 Y1.95545
X-0.18100 Y1.95645
X-0.17900 Y1.95645
X-0.17900 Y1.95745
X-0.17700 Y1.95745
X-0.17700 Y1.95845
X-0.17500 Y1.95845
X-0.17500 Y1.95945
X-0.17300 Y1.95945
X-0.17300 Y1.96045
X-0.17200 Y1.96045
X-0.17200 Y1.96145
X-0.17000 Y1.96145
X-0.17000 Y1.96245
X-0.16700 Y1.96245
X-0.16700 Y1.96345
X-0.16400 Y1.96345
X-0.16400 Y1.96445
X-0.16000 Y1.96445
X-0.16000 Y1.96545
X-0.15700 Y1.96545
X-0.15700 Y1.96645
X-0.15400 Y1.96645
X-0.15400 Y1.96745
X-0.15000 Y1.96745
X-0.15000 Y1.96845
X-0.14000 Y1.96845
X-0.14000 Y1.96945
X-0.11100 Y1.96945
X-0.11100 Y1.96845
X-0.10100 Y1.96845
X-0.10100 Y1.96745
X-0.09700 Y1.96745
X-0.09700 Y1.96645
X-0.09400 Y1.96645
X-0.09400 Y1.96545
X-0.09100 Y1.96545
X-0.09100 Y1.96445
X-0.08700 Y1.96445
X-0.08700 Y1.96345
G04 P0 ( dwell for no time -- G64 should not smooth over this point )
G00 Z0.08000 ( retract )

G00 X0.76300 Y1.96345 ( rapid move to begin. )
G01 Z-0.00200 F6.00000 ( plunge. )
G04 P0 ( dwell for no time -- G64 should not smooth over this point )
X0.76300 Y1.96345
X0.76600 Y1.96345
X0.76600 Y1.96245
X0.76900 Y1.96245
X0.76900 Y1.96145
X0.77100 Y1.96145
X0.77100 Y1.96045
X0.77200 Y1.96045
X0.77200 Y1.95945
X0.77400 Y1.95945
X0.77400 Y1.95845
X0.77600 Y1.95845
X0.77600 Y1.95745
X0.77800 Y1.95745
X0.77800 Y1.95645
X0.78000 Y1.95645
X0.78000 Y1.95545
X0.78200 Y1.95545
X0.78200 Y1.95445
X0.78300 Y1.95445
X0.78300 Y1.95345
X0.78500 Y1.95345
X0.78500 Y1.95245
X0.78600 Y1.95245
X0.78600 Y1.95145
X0.78800 Y1.95145
X0.78800 Y1.95045
X0.78900 Y1.95045
X0.78900 Y1.94945
X0.79000 Y1.94945
X0.79000 Y1.94845
X0.79100 Y1.94845
X0.79100 Y1.94745
X0.79200 Y1.94745
X0.79200 Y1.94645
X0.79400 Y1.94645
X0.79400 Y1.94545
X0.79500 Y1.94545
X0.79500 Y1.94445
X0.79600 Y1.94445
X0.79600 Y1.94345
X0.79700 Y1.94345
X0.79700 Y1.94245
X0.79900 Y1.94245
X0.79900 Y1.94145
X0.80000 Y1.94145
X0.80000 Y1.94045
X0.80100 Y1.94045
X0.80100 Y1.93845
X0.80200 Y1.93845
X0.80200 Y1.93745
X0.80300 Y1.93745
X0.80300 Y1.93645
X0.80400 Y1.93645
X0.80400 Y1.93545
X0.80500 Y1.93545
X0.80500 Y1.93345
X0.80600 Y1.93345
X0.80600 Y1.93245
X0.80700 Y1.93245
X0.80700 Y1.93145
X0.80800 Y1.93145
X0.80800 Y1.93045
X0.80900 Y1.93045
X0.80900 Y1.92945
X0.81000 Y1.92945
X0.81000 Y1.92745
X0.81100 Y1.92745
X0.81100 Y1.92645
X0.81200 Y1.92645
X0.81200 Y1.92445
X0.81300 Y1.92445
X0.81300 Y1.92345
X0.81400 Y1.92345
X0.81400 Y1.92145
X0.81500 Y1.92145
X0.81500 Y1.91945
X0.81600 Y1.91945
X0.81600 Y1.91745
X0.81700 Y1.91745
X0.81700 Y1.91545
X0.81800 Y1.91545
X0.81800 Y1.91345
X0.81900 Y1.91345
X0.81900 Y1.91245
X0.82000 Y1.91245
X0.82000 Y1.91045
X0.82100 Y1.91045
X0.82100 Y1.90745
X0.82200 Y1.90745
X0.82200 Y1.90445
X0.82300 Y1.90445
X0.82300 Y1.90045
X0.82400 Y1.90045
X0.82400 Y1.89745
X0.82500 Y1.89745
X0.82500 Y1.89445
X0.82600 Y1.89445
X0.82600 Y1.89045
X0.82700 Y1.89045
X0.82700 Y1.88045
X0.82800 Y1.88045
X0.82800 Y1.85145
X0.82700 Y1.85145
X0.82700 Y1.84145
X0.82600 Y1.84145
X0.82600 Y1.83745
X0.82500 Y1.83745
X0.82500 Y1.83445
X0.82400 Y1.83445
X0.82400 Y1.83145
X0.82300 Y1.83145
X0.82300 Y1.82745
X0.82200 Y1.82745
X0.82200 Y1.82445
X0.82100 Y1.82445
X0.82100 Y1.82145
X0.82000 Y1.82145
X0.82000 Y1.81945
X0.81900 Y1.81945
X0.81900 Y1.81845
X0.81800 Y1.81845
X0.81800 Y1.81645
X0.81700 Y1.81645
X0.81700 Y1.81445
X0.81600 Y1.81445
X0.81600 Y1.81245
X0.81500 Y1.81245
X0.81500 Y1.81045
X0.81400 Y1.81045
X0.81400 Y1.80845
X0.81300 Y1.80845
X0.81300 Y1.80745
X0.81200 Y1.80745
X0.81200 Y1.80545
X0.81100 Y1.80545
X0.81100 Y1.80445
X0.81000 Y1.80445
X0.81000 Y1.80245
X0.80900 Y1.80245
X0.80900 Y1.80145
X0.80800 Y1.80145
X0.80800 Y1.80045
X0.80700 Y1.80045
X0.80700 Y1.79945
X0.80600 Y1.79945
X0.80600 Y1.79845
X0.80500 Y1.79845
X0.80500 Y1.79645
X0.80400 Y1.79645
X0.80400 Y1.79545
X0.80300 Y1.79545
X0.80300 Y1.79445
X0.80200 Y1.79445
X0.80200 Y1.79345
X0.80100 Y1.79345
X0.80100 Y1.79145
X0.80000 Y1.79145
X0.80000 Y1.79045
X0.79900 Y1.79045
X0.79900 Y1.78945
X0.79700 Y1.78945
X0.79700 Y1.78845
X0.79600 Y1.78845
X0.79600 Y1.78745
X0.79500 Y1.78745
X0.79500 Y1.78645
X0.79400 Y1.78645
X0.79400 Y1.78545
X0.79200 Y1.78545
X0.79200 Y1.78445
X0.79100 Y1.78445
X0.79100 Y1.78345
X0.79000 Y1.78345
X0.79000 Y1.78245
X0.78900 Y1.78245
X0.78900 Y1.78145
X0.78800 Y1.78145
X0.78800 Y1.78045
X0.78600 Y1.78045
X0.78600 Y1.77945
X0.78500 Y1.77945
X0.78500 Y1.77845
X0.78300 Y1.77845
X0.78300 Y1.77745
X0.78200 Y1.77745
X0.78200 Y1.77645
X0.78000 Y1.77645
X0.78000 Y1.77545
X0.77800 Y1.77545
X0.77800 Y1.77445
X0.77600 Y1.77445
X0.77600 Y1.77345
X0.77400 Y1.77345
X0.77400 Y1.77245
X0.77200 Y1.77245
X0.77200 Y1.77145
X0.77100 Y1.77145
X0.77100 Y1.77045
X0.76900 Y1.77045
X0.76900 Y1.76945
X0.76600 Y1.76945
X0.76600 Y1.76845
X0.76300 Y1.76845
X0.76300 Y1.76745
X0.75900 Y1.76745
X0.75900 Y1.76645
X0.75600 Y1.76645
X0.75600 Y1.76545
X0.75300 Y1.76545
X0.75300 Y1.76445
X0.74900 Y1.76445
X0.74900 Y1.76345
X0.73900 Y1.76345
X0.73900 Y1.76245
X0.71000 Y1.76245
X0.71000 Y1.76345
X0.70000 Y1.76345
X0.70000 Y1.76445
X0.69600 Y1.76445
X0.69600 Y1.76545
X0.69300 Y1.76545
X0.69300 Y1.76645
X0.69000 Y1.76645
X0.69000 Y1.76745
X0.68600 Y1.76745
X0.68600 Y1.76845
X0.68300 Y1.76845
X0.68300 Y1.76945
X0.68000 Y1.76945
X0.68000 Y1.77045
X0.67800 Y1.77045
X0.67800 Y1.77145
X0.67700 Y1.77145
X0.67700 Y1.77245
X0.67500 Y1.77245
X0.67500 Y1.77345
X0.67300 Y1.77345
X0.67300 Y1.77445
X0.67100 Y1.77445
X0.67100 Y1.77545
X0.66900 Y1.77545
X0.66900 Y1.77645
X0.66700 Y1.77645
X0.66700 Y1.77745
X0.66600 Y1.77745
X0.66600 Y1.77845
X0.66400 Y1.77845
X0.66400 Y1.77945
X0.66300 Y1.77945
X0.66300 Y1.78045
X0.66100 Y1.78045
X0.66100 Y1.78145
X0.66000 Y1.78145
X0.66000 Y1.78245
X0.65900 Y1.78245
X0.65900 Y1.78345
X0.65800 Y1.78345
X0.65800 Y1.78445
X0.65700 Y1.78445
X0.65700 Y1.78545
X0.65500 Y1.78545
X0.65500 Y1.78645
X0.65400 Y1.78645
X0.65400 Y1.78745
X0.65300 Y1.78745
X0.65300 Y1.78845
X0.65200 Y1.78845
X0.65200 Y1.78945
X0.65000 Y1.78945
X0.65000 Y1.79045
X0.64900 Y1.79045
X0.64900 Y1.79145
X0.64800 Y1.79145
X0.64800 Y1.79345
X0.64700 Y1.79345
X0.64700 Y1.79445
X0.64600 Y1.79445
X0.64600 Y1.79545
X0.64500 Y1.79545
X0.64500 Y1.79645
X0.64400 Y1.79645
X0.64400 Y1.79845
X0.64300 Y1.79845
X0.64300 Y1.79945
X0.64200 Y1.79945
X0.64200 Y1.80045
X0.64100 Y1.80045
X0.64100 Y1.80145
X0.64000 Y1.80145
X0.64000 Y1.80245
X0.63900 Y1.80245
X0.63900 Y1.80445
X0.63800 Y1.80445
X0.63800 Y1.80545
X0.63700 Y1.80545
X0.63700 Y1.80745
X0.63600 Y1.80745
X0.63600 Y1.80845
X0.63500 Y1.80845
X0.63500 Y1.81045
X0.63400 Y1.81045
X0.63400 Y1.81245
X0.63300 Y1.81245
X0.63300 Y1.81445
X0.63200 Y1.81445
X0.63200 Y1.81645
X0.63100 Y1.81645
X0.63100 Y1.81845
X0.63000 Y1.81845
X0.63000 Y1.81945
X0.62900 Y1.81945
X0.62900 Y1.82145
X0.62800 Y1.82145
X0.62800 Y1.82445
X0.62700 Y1.82445
X0.62700 Y1.82745
X0.62600 Y1.82745
X0.62600 Y1.83145
X0.62500 Y1.83145
X0.62500 Y1.83445
X0.62400 Y1.83445
X0.62400 Y1.83745
X0.62300 Y1.83745
X0.62300 Y1.84145
X0.62200 Y1.84145
X0.62200 Y1.85145
X0.62100 Y1.85145
X0.62100 Y1.88045
X0.62200 Y1.88045
X0.62200 Y1.89045
X0.62300 Y1.89045
X0.62300 Y1.89445
X0.62400 Y1.89445
X0.62400 Y1.89745
X0.62500 Y1.89745
X0.62500 Y1.90045
X0.62600 Y1.90045
X0.62600 Y1.90445
X0.62700 Y1.90445
X0.62700 Y1.90745
X0.62800 Y1.90745
X0.62800 Y1.91045
X0.62900 Y1.91045
X0.62900 Y1.91245
X0.63000 Y1.91245
X0.63000 Y1.91345
X0.63100 Y1.91345
X0.63100 Y1.91545
X0.63200 Y1.91545
X0.63200 Y1.91745
X0.63300 Y1.91745
X0.63300 Y1.91945
X0.63400 Y1.91945
X0.63400 Y1.92145
X0.63500 Y1.92145
X0.63500 Y1.92345
X0.63600 Y1.92345
X0.63600 Y1.92445
X0.63700 Y1.92445
X0.63700 Y1.92645
X0.63800 Y1.92645
X0.63800 Y1.92745
X0.63900 Y1.92745
X0.63900 Y1.92945
X0.64000 Y1.92945
X0.64000 Y1.93045
X0.64100 Y1.93045
X0.64100 Y1.93145
X0.64200 Y1.93145
X0.64200 Y1.93245
X0.64300 Y1.93245
X0.64300 Y1.93345
X0.64400 Y1.93345
X0.64400 Y1.93545
X0.64500 Y1.93545
X0.64500 Y1.93645
X0.64600 Y1.93645
X0.64600 Y1.93745
X0.64700 Y1.93745
X0.64700 Y1.93845
X0.64800 Y1.93845
X0.64800 Y1.94045
X0.64900 Y1.94045
X0.64900 Y1.94145
X0.65000 Y1.94145
X0.65000 Y1.94245
X0.65200 Y1.94245
X0.65200 Y1.94345
X0.65300 Y1.94345
X0.65300 Y1.94445
X0.65400 Y1.94445
X0.65400 Y1.94545
X0.65500 Y1.94545
X0.65500 Y1.94645
X0.65700 Y1.94645
X0.65700 Y1.94745
X0.65800 Y1.94745
X0.65800 Y1.94845
X0.65900 Y1.94845
X0.65900 Y1.94945
X0.66000 Y1.94945
X0.66000 Y1.95045
X0.66100 Y1.95045
X0.66100 Y1.95145
X0.66300 Y1.95145
X0.66300 Y1.95245
X0.66400 Y1.95245
X0.66400 Y1.95345
X0.66600 Y1.95345
X0.66600 Y1.95445
X0.66700 Y1.95445
X0.66700 Y1.95545
X0.66900 Y1.95545
X0.66900 Y1.95645
X0.67100 Y1.95645
X0.67100 Y1.95745
X0.67300 Y1.95745
X0.67300 Y1.95845
X0.67500 Y1.95845
X0.67500 Y1.95945
X0.67700 Y1.95945
X0.67700 Y1.96045
X0.67800 Y1.96045
X0.67800 Y1.96145
X0.68000 Y1.96145
X0.68000 Y1.96245
X0.68300 Y1.96245
X0.68300 Y1.96345
X0.68600 Y1.96345
X0.68600 Y1.96445
X0.69000 Y1.96445
X0.69000 Y1.96545
X0.69300 Y1.96545
X0.69300 Y1.96645
X0.69600 Y1.96645
X0.69600 Y1.96745
X0.70000 Y1.96745
X0.70000 Y1.96845
X0.71000 Y1.96845
X0.71000 Y1.96945
X0.73900 Y1.96945
X0.73900 Y1.96845
X0.74900 Y1.96845
X0.74900 Y1.96745
X0.75300 Y1.96745
X0.75300 Y1.96645
X0.75600 Y1.96645
X0.75600 Y1.96545
X0.75900 Y1.96545
X0.75900 Y1.96445
X0.76300 Y1.96445
X0.76300 Y1.96345
G04 P0 ( dwell for no time -- G64 should not smooth over this point )
G00 Z0.08000 ( retract )

G00 X0.25100 Y1.78545 ( rapid move to begin. )
G01 Z-0.00200 F6.00000 ( plunge. )
G04 P0 ( dwell for no time -- G64 should not smooth over this point )
X0.25100 Y1.78545
X0.25200 Y1.78545
X0.25200 Y1.78345
X0.25300 Y1.78345
X0.25300 Y1.78145
X0.25400 Y1.78145
X0.25400 Y1.77945
X0.25500 Y1.77945
X0.25500 Y1.77845
X0.25600 Y1.77845
X0.25600 Y1.77645
X0.25700 Y1.77645
X0.25700 Y1.77445
X0.25800 Y1.77445
X0.25800 Y1.77245
X0.25900 Y1.77245
X0.25900 Y1.77145
X0.26000 Y1.77145
X0.26000 Y1.76945
X0.26100 Y1.76945
X0.26100 Y1.76745
X0.26200 Y1.76745
X0.26200 Y1.76545
X0.26300 Y1.76545
X0.26300 Y1.76445
X0.26400 Y1.76445
X0.26400 Y1.76245
X0.26500 Y1.76245
X0.26500 Y1.76045
X0.26600 Y1.76045
X0.26600 Y1.75845
X0.26700 Y1.75845
X0.26700 Y1.75745
X0.26800 Y1.75745
X0.26800 Y1.75545
X0.26900 Y1.75545
X0.26900 Y1.75345
X0.27000 Y1.75345
X0.27000 Y1.75145
X0.27100 Y1.75145
X0.27100 Y1.75045
X0.27200 Y1.75045
X0.27200 Y1.74845
X0.27300 Y1.74845
X0.27300 Y1.74645
X0.27400 Y1.74645
X0.27400 Y1.74445
X0.27500 Y1.74445
X0.27500 Y1.74345
X0.27600 Y1.74345
X0.27600 Y1.74145
X0.27700 Y1.74145
X0.27700 Y1.73945
X0.27800 Y1.73945
X0.27800 Y1.73745
X0.27900 Y1.73745
X0.27900 Y1.73645
X0.28000 Y1.73645
X0.28000 Y1.73445
X0.28100 Y1.73445
X0.28100 Y1.73245
X0.28200 Y1.73245
X0.28200 Y1.73045
X0.28300 Y1.73045
X0.28300 Y1.72945
X0.28400 Y1.72945
X0.28400 Y1.72745
X0.28500 Y1.72745
X0.28500 Y1.72545
X0.28600 Y1.72545
X0.28600 Y1.72345
X0.28700 Y1.72345
X0.28700 Y1.72245
X0.28800 Y1.72245
X0.28800 Y1.72045
X0.28900 Y1.72045
X0.28900 Y1.71845
X0.29000 Y1.71845
X0.29000 Y1.71645
X0.29100 Y1.71645
X0.29100 Y1.71545
X0.29200 Y1.71545
X0.29200 Y1.71345
X0.29300 Y1.71345
X0.29300 Y1.71145
X0.29400 Y1.71145
X0.29400 Y1.70945
X0.29500 Y1.70945
X0.29500 Y1.70845
X0.29600 Y1.70845
X0.29600 Y1.70645
X0.29700 Y1.70645
X0.29700 Y1.70445
X0.29800 Y1.70445
X0.29800 Y1.70245
X0.29900 Y1.70245
X0.29900 Y1.70145
X0.30000 Y1.70145
X0.30000 Y1.69945
X0.30100 Y1.69945
X0.30100 Y1.69745
X0.30200 Y1.69745
X0.30200 Y1.69545
X0.30300 Y1.69545
X0.30300 Y1.69445
X0.30400 Y1.69445
X0.30400 Y1.69245
X0.30500 Y1.69245
X0.30500 Y1.69045
X0.30600 Y1.69045
X0.30600 Y1.68845
X0.30700 Y1.68845
X0.30700 Y1.68745
X0.30800 Y1.68745
X0.30800 Y1.68545
X0.30900 Y1.68545
X0.30900 Y1.68345
X0.31000 Y1.68345
X0.31000 Y1.68145
X0.31100 Y1.68145
X0.31100 Y1.68045
X0.31200 Y1.68045
X0.31200 Y1.67845
X0.31300 Y1.67845
X0.31300 Y1.67645
X0.31400 Y1.67645
X0.31400 Y1.67445
X0.31500 Y1.67445
X0.31500 Y1.67345
X0.31600 Y1.67345
X0.31600 Y1.67145
X0.31700 Y1.67145
X0.31700 Y1.66945
X0.31800 Y1.66945
X0.31800 Y1.66745
X0.31900 Y1.66745
X0.31900 Y1.66645
X0.32000 Y1.66645
X0.32000 Y1.66445
X0.32100 Y1.66445
X0.32100 Y1.66245
X0.32200 Y1.66245
X0.32200 Y1.66045
X0.32300 Y1.66045
X0.32300 Y1.65945
X0.32400 Y1.65945
X0.32400 Y1.65745
X0.32500 Y1.65745
X0.32500 Y1.65545
X0.32600 Y1.65545
X0.32600 Y1.65345
X0.32700 Y1.65345
X0.32700 Y1.65245
X0.32800 Y1.65245
X0.32800 Y1.65045
X0.32900 Y1.65045
X0.32900 Y1.64745
X0.33000 Y1.64745
X0.33000 Y1.44845
X0.34800 Y1.44845
X0.34800 Y1.44945
X0.34900 Y1.44945
X0.34900 Y1.45045
X0.35000 Y1.45045
X0.35000 Y1.45145
X0.35100 Y1.45145
X0.35100 Y1.45245
X0.35200 Y1.45245
X0.35200 Y1.45345
X0.35300 Y1.45345
X0.35300 Y1.45445
X0.35400 Y1.45445
X0.35400 Y1.45545
X0.35500 Y1.45545
X0.35500 Y1.45645
X0.35600 Y1.45645
X0.35600 Y1.45745
X0.35700 Y1.45745
X0.35700 Y1.45845
X0.35800 Y1.45845
X0.35800 Y1.45945
X0.35900 Y1.45945
X0.35900 Y1.46045
X0.36000 Y1.46045
X0.36000 Y1.46145
X0.36100 Y1.46145
X0.36100 Y1.46245
X0.36200 Y1.46245
X0.36200 Y1.46345
X0.36300 Y1.46345
X0.36300 Y1.46445
X0.36400 Y1.46445
X0.36400 Y1.46545
X0.36500 Y1.46545
X0.36500 Y1.46645
X0.36600 Y1.46645
X0.36600 Y1.46745
X0.36700 Y1.46745
X0.36700 Y1.46845
X0.36800 Y1.46845
X0.36800 Y1.46945
X0.36900 Y1.46945
X0.36900 Y1.47045
X0.37000 Y1.47045
X0.37000 Y1.47145
X0.37100 Y1.47145
X0.37100 Y1.47245
X0.37200 Y1.47245
X0.37200 Y1.47345
X0.37300 Y1.47345
X0.37300 Y1.47445
X0.37400 Y1.47445
X0.37400 Y1.47545
X0.37500 Y1.47545
X0.37500 Y1.47645
X0.37600 Y1.47645
X0.37600 Y1.47745
X0.37700 Y1.47745
X0.37700 Y1.47845
X0.37800 Y1.47845
X0.37800 Y1.47945
X0.37900 Y1.47945
X0.37900 Y1.48045
X0.38000 Y1.48045
X0.38000 Y1.48145
X0.38100 Y1.48145
X0.38100 Y1.48245
X0.38200 Y1.48245
X0.38200 Y1.48345
X0.38300 Y1.48345
X0.38300 Y1.48445
X0.38400 Y1.48445
X0.38400 Y1.48545
X0.38500 Y1.48545
X0.38500 Y1.48645
X0.38600 Y1.48645
X0.38600 Y1.48745
X0.38700 Y1.48745
X0.38700 Y1.48845
X0.38800 Y1.48845
X0.38800 Y1.48945
X0.38900 Y1.48945
X0.38900 Y1.49045
X0.39000 Y1.49045
X0.39000 Y1.49145
X0.39100 Y1.49145
X0.39100 Y1.49245
X0.39200 Y1.49245
X0.39200 Y1.49345
X0.39300 Y1.49345
X0.39300 Y1.49445
X0.39400 Y1.49445
X0.39400 Y1.49545
X0.39500 Y1.49545
X0.39500 Y1.49645
X0.39600 Y1.49645
X0.39600 Y1.49745
X0.39700 Y1.49745
X0.39700 Y1.49845
X0.39800 Y1.49845
X0.39800 Y1.49945
X0.39900 Y1.49945
X0.39900 Y1.50045
X0.40000 Y1.50045
X0.40000 Y1.50145
X0.40100 Y1.50145
X0.40100 Y1.50245
X0.40200 Y1.50245
X0.40200 Y1.50345
X0.40300 Y1.50345
X0.40300 Y1.50445
X0.40400 Y1.50445
X0.40400 Y1.50545
X0.40500 Y1.50545
X0.40500 Y1.50645
X0.40600 Y1.50645
X0.40600 Y1.50745
X0.40700 Y1.50745
X0.40700 Y1.50845
X0.40800 Y1.50845
X0.40800 Y1.50945
X0.40900 Y1.50945
X0.40900 Y1.51045
X0.41000 Y1.51045
X0.41000 Y1.51145
X0.41100 Y1.51145
X0.41100 Y1.51245
X0.41200 Y1.51245
X0.41200 Y1.51345
X0.41300 Y1.51345
X0.41300 Y1.51445
X0.41400 Y1.51445
X0.41400 Y1.51545
X0.41500 Y1.51545
X0.41500 Y1.51645
X0.41600 Y1.51645
X0.41600 Y1.51745
X0.41700 Y1.51745
X0.41700 Y1.51845
X0.41800 Y1.51845
X0.41800 Y1.51945
X0.41700 Y1.51945
X0.41700 Y1.52145
X0.41600 Y1.52145
X0.41600 Y1.52245
X0.41500 Y1.52245
X0.41500 Y1.52445
X0.41400 Y1.52445
X0.41400 Y1.52645
X0.41300 Y1.52645
X0.41300 Y1.52745
X0.41200 Y1.52745
X0.41200 Y1.52945
X0.41100 Y1.52945
X0.41100 Y1.54145
X0.41200 Y1.54145
X0.41200 Y1.54245
X0.41400 Y1.54245
X0.41400 Y1.54345
X0.41600 Y1.54345
X0.41600 Y1.54445
X0.41800 Y1.54445
X0.41800 Y1.54545
X0.41900 Y1.54545
X0.41900 Y1.54645
X0.42100 Y1.54645
X0.42100 Y1.54745
X0.42300 Y1.54745
X0.42300 Y1.54845
X0.42500 Y1.54845
X0.42500 Y1.54945
X0.42700 Y1.54945
X0.42700 Y1.55045
X0.43900 Y1.55045
X0.43900 Y1.54945
X0.44000 Y1.54945
X0.44000 Y1.54745
X0.44100 Y1.54745
X0.44100 Y1.54645
X0.44200 Y1.54645
X0.44200 Y1.54445
X0.44300 Y1.54445
X0.44300 Y1.54245
X0.44400 Y1.54245
X0.44400 Y1.54145
X0.44500 Y1.54145
X0.44500 Y1.53945
X0.44600 Y1.53945
X0.44600 Y1.53745
X0.44700 Y1.53745
X0.44700 Y1.53645
X0.44800 Y1.53645
X0.44800 Y1.53445
X0.44900 Y1.53445
X0.44900 Y1.53245
X0.45000 Y1.53245
X0.45000 Y1.53145
X0.45100 Y1.53145
X0.45100 Y1.52945
X0.45200 Y1.52945
X0.45200 Y1.52745
X0.45300 Y1.52745
X0.45300 Y1.52645
X0.45400 Y1.52645
X0.45400 Y1.52445
X0.45500 Y1.52445
X0.45500 Y1.52245
X0.45600 Y1.52245
X0.45600 Y1.52145
X0.45700 Y1.52145
X0.45700 Y1.51945
X0.45800 Y1.51945
X0.45800 Y1.51745
X0.45900 Y1.51745
X0.45900 Y1.51645
X0.46000 Y1.51645
X0.46000 Y1.51445
X0.46100 Y1.51445
X0.46100 Y1.51245
X0.46200 Y1.51245
X0.46200 Y1.51145
X0.46300 Y1.51145
X0.46300 Y1.49945
X0.46200 Y1.49945
X0.46200 Y1.49845
X0.46000 Y1.49845
X0.46000 Y1.49745
X0.45900 Y1.49745
X0.45900 Y1.49645
X0.45700 Y1.49645
X0.45700 Y1.49545
X0.45500 Y1.49545
X0.45500 Y1.49445
X0.45400 Y1.49445
X0.45400 Y1.49345
X0.45200 Y1.49345
X0.45200 Y1.49245
X0.45000 Y1.49245
X0.45000 Y1.49145
X0.44900 Y1.49145
X0.44900 Y1.49045
X0.44700 Y1.49045
X0.44700 Y1.48945
X0.43500 Y1.48945
X0.43500 Y1.49045
X0.43400 Y1.49045
X0.43400 Y1.49245
X0.43300 Y1.49245
X0.43300 Y1.49345
X0.43200 Y1.49345
X0.43200 Y1.49545
X0.43100 Y1.49545
X0.43100 Y1.49445
X0.43000 Y1.49445
X0.43000 Y1.49345
X0.42900 Y1.49345
X0.42900 Y1.49245
X0.42800 Y1.49245
X0.42800 Y1.49145
X0.42700 Y1.49145
X0.42700 Y1.49045
X0.42600 Y1.49045
X0.42600 Y1.48945
X0.42500 Y1.48945
X0.42500 Y1.48845
X0.42400 Y1.48845
X0.42400 Y1.48745
X0.42300 Y1.48745
X0.42300 Y1.48645
X0.42200 Y1.48645
X0.42200 Y1.48545
X0.42100 Y1.48545
X0.42100 Y1.48445
X0.42000 Y1.48445
X0.42000 Y1.48345
X0.41900 Y1.48345
X0.41900 Y1.48245
X0.41800 Y1.48245
X0.41800 Y1.48145
X0.41700 Y1.48145
X0.41700 Y1.48045
X0.41600 Y1.48045
X0.41600 Y1.47945
X0.41500 Y1.47945
X0.41500 Y1.47845
X0.41400 Y1.47845
X0.41400 Y1.47745
X0.41300 Y1.47745
X0.41300 Y1.47645
X0.41200 Y1.47645
X0.41200 Y1.47545
X0.41100 Y1.47545
X0.41100 Y1.47445
X0.41000 Y1.47445
X0.41000 Y1.47345
X0.40900 Y1.47345
X0.40900 Y1.47245
X0.40800 Y1.47245
X0.40800 Y1.47145
X0.40700 Y1.47145
X0.40700 Y1.47045
X0.40600 Y1.47045
X0.40600 Y1.46945
X0.40500 Y1.46945
X0.40500 Y1.46845
X0.40400 Y1.46845
X0.40400 Y1.46745
X0.40300 Y1.46745
X0.40300 Y1.46645
X0.40200 Y1.46645
X0.40200 Y1.46545
X0.40100 Y1.46545
X0.40100 Y1.46445
X0.40000 Y1.46445
X0.40000 Y1.46345
X0.39900 Y1.46345
X0.39900 Y1.46245
X0.39800 Y1.46245
X0.39800 Y1.46145
X0.39700 Y1.46145
X0.39700 Y1.46045
X0.39600 Y1.46045
X0.39600 Y1.45945
X0.39500 Y1.45945
X0.39500 Y1.45845
X0.39400 Y1.45845
X0.39400 Y1.45745
X0.39300 Y1.45745
X0.39300 Y1.45645
X0.39200 Y1.45645
X0.39200 Y1.45545
X0.39100 Y1.45545
X0.39100 Y1.45445
X0.39000 Y1.45445
X0.39000 Y1.45345
X0.38900 Y1.45345
X0.38900 Y1.45245
X0.38800 Y1.45245
X0.38800 Y1.45145
X0.38700 Y1.45145
X0.38700 Y1.45045
X0.38600 Y1.45045
X0.38600 Y1.44945
X0.38500 Y1.44945
X0.38500 Y1.44845
X0.38400 Y1.44845
X0.38400 Y1.44745
X0.38300 Y1.44745
X0.38300 Y1.44645
X0.38200 Y1.44645
X0.38200 Y1.44545
X0.38100 Y1.44545
X0.38100 Y1.44445
X0.38000 Y1.44445
X0.38000 Y1.44345
X0.37900 Y1.44345
X0.37900 Y1.44245
X0.37800 Y1.44245
X0.37800 Y1.44145
X0.37700 Y1.44145
X0.37700 Y1.44045
X0.37600 Y1.44045
X0.37600 Y1.43945
X0.37500 Y1.43945
X0.37500 Y1.43845
X0.37400 Y1.43845
X0.37400 Y1.43745
X0.37500 Y1.43745
X0.37500 Y1.43645
X0.37600 Y1.43645
X0.37600 Y1.43545
X0.37700 Y1.43545
X0.37700 Y1.43445
X0.37800 Y1.43445
X0.37800 Y1.43345
X0.37900 Y1.43345
X0.37900 Y1.43245
X0.38000 Y1.43245
X0.38000 Y1.43145
X0.38100 Y1.43145
X0.38100 Y1.42845
X0.38200 Y1.42845
X0.38200 Y1.25545
X0.40000 Y1.25545
X0.40000 Y1.22445
X0.34300 Y1.22445
X0.34300 Y1.25545
X0.36100 Y1.25545
X0.36100 Y1.41445
X0.36000 Y1.41445
X0.36000 Y1.41545
X0.35900 Y1.41545
X0.35900 Y1.41645
X0.35800 Y1.41645
X0.35800 Y1.41745
X0.35700 Y1.41745
X0.35700 Y1.41845
X0.35600 Y1.41845
X0.35600 Y1.41945
X0.35500 Y1.41945
X0.35500 Y1.42045
X0.35400 Y1.42045
X0.35400 Y1.42145
X0.35300 Y1.42145
X0.35300 Y1.42245
X0.35200 Y1.42245
X0.35200 Y1.42345
X0.35100 Y1.42345
X0.35100 Y1.42445
X0.35000 Y1.42445
X0.35000 Y1.42545
X0.34900 Y1.42545
X0.34900 Y1.42645
X0.34800 Y1.42645
X0.34800 Y1.42745
X0.15300 Y1.42745
X0.15300 Y1.42545
X0.15200 Y1.42545
X0.15200 Y1.42345
X0.15100 Y1.42345
X0.15100 Y1.42245
X0.15000 Y1.42245
X0.15000 Y1.42045
X0.14900 Y1.42045
X0.14900 Y1.41845
X0.14800 Y1.41845
X0.14800 Y1.41645
X0.14700 Y1.41645
X0.14700 Y1.41545
X0.14600 Y1.41545
X0.14600 Y1.41345
X0.14500 Y1.41345
X0.14500 Y1.41145
X0.14400 Y1.41145
X0.14400 Y1.41045
X0.14300 Y1.41045
X0.14300 Y1.40845
X0.14200 Y1.40845
X0.14200 Y1.40745
X0.13000 Y1.40745
X0.13000 Y1.40845
X0.12800 Y1.40845
X0.12800 Y1.40945
X0.12700 Y1.40945
X0.12700 Y1.41045
X0.12500 Y1.41045
X0.12500 Y1.41145
X0.12300 Y1.41145
X0.12300 Y1.41245
X0.12200 Y1.41245
X0.12200 Y1.41345
X0.12000 Y1.41345
X0.12000 Y1.41445
X0.11800 Y1.41445
X0.11800 Y1.41545
X0.11700 Y1.41545
X0.11700 Y1.41645
X0.11500 Y1.41645
X0.11500 Y1.41745
X0.11400 Y1.41745
X0.11400 Y1.42945
X0.11500 Y1.42945
X0.11500 Y1.43145
X0.11600 Y1.43145
X0.11600 Y1.43245
X0.11700 Y1.43245
X0.11700 Y1.43445
X0.11800 Y1.43445
X0.11800 Y1.43645
X0.11900 Y1.43645
X0.11900 Y1.43745
X0.12000 Y1.43745
X0.12000 Y1.43945
X0.12100 Y1.43945
X0.12100 Y1.44145
X0.12200 Y1.44145
X0.12200 Y1.44345
X0.12300 Y1.44345
X0.12300 Y1.44445
X0.12400 Y1.44445
X0.12400 Y1.44645
X0.12500 Y1.44645
X0.12500 Y1.44845
X0.12600 Y1.44845
X0.12600 Y1.44945
X0.12700 Y1.44945
X0.12700 Y1.45145
X0.12800 Y1.45145
X0.12800 Y1.45345
X0.12900 Y1.45345
X0.12900 Y1.45445
X0.13000 Y1.45445
X0.13000 Y1.45645
X0.13100 Y1.45645
X0.13100 Y1.45845
X0.13200 Y1.45845
X0.13200 Y1.46045
X0.13300 Y1.46045
X0.13300 Y1.46145
X0.13400 Y1.46145
X0.13400 Y1.46345
X0.13500 Y1.46345
X0.13500 Y1.46545
X0.13600 Y1.46545
X0.13600 Y1.46645
X0.13700 Y1.46645
X0.13700 Y1.46845
X0.13800 Y1.46845
X0.13800 Y1.46945
X0.15000 Y1.46945
X0.15000 Y1.46845
X0.15200 Y1.46845
X0.15200 Y1.46745
X0.15300 Y1.46745
X0.15300 Y1.46645
X0.15500 Y1.46645
X0.15500 Y1.46545
X0.15700 Y1.46545
X0.15700 Y1.46445
X0.15800 Y1.46445
X0.15800 Y1.46345
X0.16000 Y1.46345
X0.16000 Y1.46245
X0.16200 Y1.46245
X0.16200 Y1.46145
X0.16300 Y1.46145
X0.16300 Y1.46045
X0.16500 Y1.46045
X0.16500 Y1.45945
X0.16600 Y1.45945
X0.16600 Y1.44845
X0.30900 Y1.44845
X0.30900 Y1.63545
X0.30800 Y1.63545
X0.30800 Y1.63645
X0.30700 Y1.63645
X0.30700 Y1.63845
X0.30600 Y1.63845
X0.30600 Y1.64045
X0.30500 Y1.64045
X0.30500 Y1.64245
X0.30400 Y1.64245
X0.30400 Y1.64345
X0.30300 Y1.64345
X0.30300 Y1.64545
X0.30200 Y1.64545
X0.30200 Y1.64745
X0.30100 Y1.64745
X0.30100 Y1.64945
X0.30000 Y1.64945
X0.30000 Y1.65045
X0.29900 Y1.65045
X0.29900 Y1.65245
X0.29800 Y1.65245
X0.29800 Y1.65445
X0.29700 Y1.65445
X0.29700 Y1.65645
X0.29600 Y1.65645
X0.29600 Y1.65745
X0.29500 Y1.65745
X0.29500 Y1.65945
X0.29400 Y1.65945
X0.29400 Y1.66145
X0.29300 Y1.66145
X0.29300 Y1.66345
X0.29200 Y1.66345
X0.29200 Y1.66445
X0.29100 Y1.66445
X0.29100 Y1.66645
X0.29000 Y1.66645
X0.29000 Y1.66845
X0.28900 Y1.66845
X0.28900 Y1.67045
X0.28800 Y1.67045
X0.28800 Y1.67145
X0.28700 Y1.67145
X0.28700 Y1.67345
X0.28600 Y1.67345
X0.28600 Y1.67545
X0.28500 Y1.67545
X0.28500 Y1.67745
X0.28400 Y1.67745
X0.28400 Y1.67845
X0.28300 Y1.67845
X0.28300 Y1.68045
X0.28200 Y1.68045
X0.28200 Y1.68245
X0.28100 Y1.68245
X0.28100 Y1.68445
X0.28000 Y1.68445
X0.28000 Y1.68545
X0.27900 Y1.68545
X0.27900 Y1.68745
X0.27800 Y1.68745
X0.27800 Y1.68945
X0.27700 Y1.68945
X0.27700 Y1.69145
X0.27600 Y1.69145
X0.27600 Y1.69245
X0.27500 Y1.69245
X0.27500 Y1.69445
X0.27400 Y1.69445
X0.27400 Y1.69645
X0.27300 Y1.69645
X0.27300 Y1.69845
X0.27200 Y1.69845
X0.27200 Y1.69945
X0.27100 Y1.69945
X0.27100 Y1.70145
X0.27000 Y1.70145
X0.27000 Y1.70345
X0.26900 Y1.70345
X0.26900 Y1.70545
X0.26800 Y1.70545
X0.26800 Y1.70645
X0.26700 Y1.70645
X0.26700 Y1.70845
X0.26600 Y1.70845
X0.26600 Y1.71045
X0.26500 Y1.71045
X0.26500 Y1.71245
X0.26400 Y1.71245
X0.26400 Y1.71345
X0.26300 Y1.71345
X0.26300 Y1.71545
X0.26200 Y1.71545
X0.26200 Y1.71745
X0.26100 Y1.71745
X0.26100 Y1.71945
X0.26000 Y1.71945
X0.26000 Y1.72045
X0.25900 Y1.72045
X0.25900 Y1.72245
X0.25800 Y1.72245
X0.25800 Y1.72445
X0.25700 Y1.72445
X0.25700 Y1.72645
X0.25600 Y1.72645
X0.25600 Y1.72745
X0.25500 Y1.72745
X0.25500 Y1.72945
X0.25400 Y1.72945
X0.25400 Y1.73145
X0.25300 Y1.73145
X0.25300 Y1.73345
X0.25200 Y1.73345
X0.25200 Y1.73445
X0.25100 Y1.73445
X0.25100 Y1.73645
X0.25000 Y1.73645
X0.25000 Y1.73845
X0.24900 Y1.73845
X0.24900 Y1.74045
X0.24800 Y1.74045
X0.24800 Y1.74145
X0.24700 Y1.74145
X0.24700 Y1.74345
X0.24600 Y1.74345
X0.24600 Y1.74545
X0.24500 Y1.74545
X0.24500 Y1.74745
X0.24400 Y1.74745
X0.24400 Y1.74845
X0.24300 Y1.74845
X0.24300 Y1.75045
X0.24200 Y1.75045
X0.24200 Y1.75245
X0.24100 Y1.75245
X0.24100 Y1.75445
X0.24000 Y1.75445
X0.24000 Y1.75545
X0.23900 Y1.75545
X0.23900 Y1.75745
X0.23800 Y1.75745
X0.23800 Y1.75945
X0.23700 Y1.75945
X0.23700 Y1.76145
X0.23600 Y1.76145
X0.23600 Y1.76245
X0.23500 Y1.76245
X0.23500 Y1.76445
X0.23400 Y1.76445
X0.23400 Y1.76645
X0.23300 Y1.76645
X0.23300 Y1.76845
X0.23200 Y1.76845
X0.23200 Y1.76945
X0.23100 Y1.76945
X0.23100 Y1.77045
X0.02700 Y1.77045
X0.02700 Y1.76845
X0.02600 Y1.76845
X0.02600 Y1.76745
X0.02500 Y1.76745
X0.02500 Y1.76545
X0.02400 Y1.76545
X0.02400 Y1.76445
X0.02300 Y1.76445
X0.02300 Y1.76245
X0.02200 Y1.76245
X0.02200 Y1.76145
X0.02100 Y1.76145
X0.02100 Y1.75945
X0.02000 Y1.75945
X0.02000 Y1.75845
X0.01900 Y1.75845
X0.01900 Y1.75645
X0.01800 Y1.75645
X0.01800 Y1.75545
X0.01700 Y1.75545
X0.01700 Y1.75345
X0.01600 Y1.75345
X0.01600 Y1.75245
X0.01500 Y1.75245
X0.01500 Y1.75045
X0.01400 Y1.75045
X0.01400 Y1.74945
X0.01300 Y1.74945
X0.01300 Y1.74745
X0.01200 Y1.74745
X0.01200 Y1.74645
X0.01100 Y1.74645
X0.01100 Y1.74445
X0.01000 Y1.74445
X0.01000 Y1.74345
X0.00900 Y1.74345
X0.00900 Y1.74145
X0.00800 Y1.74145
X0.00800 Y1.74045
X0.00700 Y1.74045
X0.00700 Y1.73845
X0.00600 Y1.73845
X0.00600 Y1.73745
X0.00500 Y1.73745
X0.00500 Y1.73545
X0.00400 Y1.73545
X0.00400 Y1.73445
X0.00300 Y1.73445
X0.00300 Y1.73245
X0.00200 Y1.73245
X0.00200 Y1.73145
X0.00100 Y1.73145
X0.00100 Y1.72945
X0.00000 Y1.72945
X0.00000 Y1.72845
X-0.00100 Y1.72845
X-0.00100 Y1.72645
X-0.00200 Y1.72645
X-0.00200 Y1.72545
X-0.00300 Y1.72545
X-0.00300 Y1.72345
X-0.00400 Y1.72345
X-0.00400 Y1.72245
X-0.00500 Y1.72245
X-0.00500 Y1.72045
X-0.00600 Y1.72045
X-0.00600 Y1.71945
X-0.00700 Y1.71945
X-0.00700 Y1.71745
X-0.00800 Y1.71745
X-0.00800 Y1.71645
X-0.00900 Y1.71645
X-0.00900 Y1.71445
X-0.01000 Y1.71445
X-0.01000 Y1.71345
X-0.01100 Y1.71345
X-0.01100 Y1.71145
X-0.01200 Y1.71145
X-0.01200 Y1.71045
X-0.01300 Y1.71045
X-0.01300 Y1.70845
X-0.01400 Y1.70845
X-0.01400 Y1.70745
X-0.01500 Y1.70745
X-0.01500 Y1.70545
X-0.01600 Y1.70545
X-0.01600 Y1.70445
X-0.01700 Y1.70445
X-0.01700 Y1.70245
X-0.01800 Y1.70245
X-0.01800 Y1.70145
X-0.01900 Y1.70145
X-0.01900 Y1.69945
X-0.02000 Y1.69945
X-0.02000 Y1.69845
X-0.02100 Y1.69845
X-0.02100 Y1.69645
X-0.02200 Y1.69645
X-0.02200 Y1.69545
X-0.02300 Y1.69545
X-0.02300 Y1.69345
X-0.02400 Y1.69345
X-0.02400 Y1.69245
X-0.02500 Y1.69245
X-0.02500 Y1.69045
X-0.02600 Y1.69045
X-0.02600 Y1.68945
X-0.02700 Y1.68945
X-0.02700 Y1.68745
X-0.02800 Y1.68745
X-0.02800 Y1.68645
X-0.02900 Y1.68645
X-0.02900 Y1.68445
X-0.03000 Y1.68445
X-0.03000 Y1.68345
X-0.03100 Y1.68345
X-0.03100 Y1.68145
X-0.03200 Y1.68145
X-0.03200 Y1.68045
X-0.03300 Y1.68045
X-0.03300 Y1.67845
X-0.03400 Y1.67845
X-0.03400 Y1.67745
X-0.03500 Y1.67745
X-0.03500 Y1.67545
X-0.03600 Y1.67545
X-0.03600 Y1.67445
X-0.03700 Y1.67445
X-0.03700 Y1.67245
X-0.03800 Y1.67245
X-0.03800 Y1.67145
X-0.03900 Y1.67145
X-0.03900 Y1.66945
X-0.04000 Y1.66945
X-0.04000 Y1.66845
X-0.04100 Y1.66845
X-0.04100 Y1.66645
X-0.04200 Y1.66645
X-0.04200 Y1.66545
X-0.04300 Y1.66545
X-0.04300 Y1.66345
X-0.04400 Y1.66345
X-0.04400 Y1.66245
X-0.04500 Y1.66245
X-0.04500 Y1.66045
X-0.04600 Y1.66045
X-0.04600 Y1.65945
X-0.04700 Y1.65945
X-0.04700 Y1.65745
X-0.04800 Y1.65745
X-0.04800 Y1.65645
X-0.04900 Y1.65645
X-0.04900 Y1.65445
X-0.05000 Y1.65445
X-0.05000 Y1.65345
X-0.05100 Y1.65345
X-0.05100 Y1.65145
X-0.05200 Y1.65145
X-0.05200 Y1.65045
X-0.05300 Y1.65045
X-0.05300 Y1.64845
X-0.05400 Y1.64845
X-0.05400 Y1.64745
X-0.05500 Y1.64745
X-0.05500 Y1.64545
X-0.05600 Y1.64545
X-0.05600 Y1.64445
X-0.05700 Y1.64445
X-0.05700 Y1.64245
X-0.05800 Y1.64245
X-0.05800 Y1.64145
X-0.05900 Y1.64145
X-0.05900 Y1.63945
X-0.06000 Y1.63945
X-0.06000 Y1.63845
X-0.06100 Y1.63845
X-0.06100 Y1.63645
X-0.06200 Y1.63645
X-0.06200 Y1.63545
X-0.06300 Y1.63545
X-0.06300 Y1.63345
X-0.06400 Y1.63345
X-0.06400 Y1.63245
X-0.06500 Y1.63245
X-0.06500 Y1.63045
X-0.06600 Y1.63045
X-0.06600 Y1.62945
X-0.06700 Y1.62945
X-0.06700 Y1.62745
X-0.06800 Y1.62745
X-0.06800 Y1.62645
X-0.06900 Y1.62645
X-0.06900 Y1.62445
X-0.07000 Y1.62445
X-0.07000 Y1.62345
X-0.07100 Y1.62345
X-0.07100 Y1.62145
X-0.07200 Y1.62145
X-0.07200 Y1.62045
X-0.07300 Y1.62045
X-0.07300 Y1.61845
X-0.07400 Y1.61845
X-0.07400 Y1.61745
X-0.07500 Y1.61745
X-0.07500 Y1.61545
X-0.07600 Y1.61545
X-0.07600 Y1.61445
X-0.07700 Y1.61445
X-0.07700 Y1.61245
X-0.07800 Y1.61245
X-0.07800 Y1.61145
X-0.07900 Y1.61145
X-0.07900 Y1.60945
X-0.08000 Y1.60945
X-0.08000 Y1.60845
X-0.08100 Y1.60845
X-0.08100 Y1.60645
X-0.08200 Y1.60645
X-0.08200 Y1.60545
X-0.08300 Y1.60545
X-0.08300 Y1.60345
X-0.08400 Y1.60345
X-0.08400 Y1.60245
X-0.08500 Y1.60245
X-0.08500 Y1.60045
X-0.08600 Y1.60045
X-0.08600 Y1.59945
X-0.08700 Y1.59945
X-0.08700 Y1.59745
X-0.08800 Y1.59745
X-0.08800 Y1.59645
X-0.08900 Y1.59645
X-0.08900 Y1.59445
X-0.09000 Y1.59445
X-0.09000 Y1.10845
X-0.08900 Y1.10845
X-0.08900 Y1.10745
X-0.08800 Y1.10745
X-0.08800 Y1.10645
X-0.08700 Y1.10645
X-0.08700 Y1.10545
X-0.08600 Y1.10545
X-0.08600 Y1.10445
X-0.08500 Y1.10445
X-0.08500 Y1.10345
X-0.08400 Y1.10345
X-0.08400 Y1.10245
X-0.08300 Y1.10245
X-0.08300 Y1.10145
X-0.08200 Y1.10145
X-0.08200 Y1.10045
X-0.08100 Y1.10045
X-0.08100 Y1.09945
X-0.08000 Y1.09945
X-0.08000 Y1.09845
X-0.07900 Y1.09845
X-0.07900 Y1.09745
X-0.07800 Y1.09745
X-0.07800 Y1.09645
X-0.07700 Y1.09645
X-0.07700 Y1.09545
X-0.07600 Y1.09545
X-0.07600 Y1.09445
X-0.07500 Y1.09445
X-0.07500 Y1.09345
X-0.07400 Y1.09345
X-0.07400 Y1.09245
X-0.07300 Y1.09245
X-0.07300 Y1.09145
X-0.07200 Y1.09145
X-0.07200 Y1.09045
X-0.07100 Y1.09045
X-0.07100 Y1.08945
X-0.07000 Y1.08945
X-0.07000 Y1.08845
X-0.06900 Y1.08845
X-0.06900 Y1.08745
X-0.06800 Y1.08745
X-0.06800 Y1.08645
X-0.06700 Y1.08645
X-0.06700 Y1.08545
X-0.06600 Y1.08545
X-0.06600 Y1.08445
X-0.06500 Y1.08445
X-0.06500 Y1.08345
X-0.06400 Y1.08345
X-0.06400 Y1.08245
X-0.06300 Y1.08245
X-0.06300 Y1.08145
X-0.06200 Y1.08145
X-0.06200 Y1.08045
X-0.06100 Y1.08045
X-0.06100 Y1.07945
X-0.06000 Y1.07945
X-0.06000 Y1.07845
X-0.05900 Y1.07845
X-0.05900 Y1.07745
X-0.05800 Y1.07745
X-0.05800 Y1.07645
X-0.05700 Y1.07645
X-0.05700 Y1.07545
X-0.05600 Y1.07545
X-0.05600 Y1.07445
X-0.05500 Y1.07445
X-0.05500 Y1.07345
X-0.05400 Y1.07345
X-0.05400 Y1.07245
X-0.05300 Y1.07245
X-0.05300 Y1.07145
X-0.05200 Y1.07145
X-0.05200 Y1.07045
X-0.05100 Y1.07045
X-0.05100 Y1.06945
X-0.05000 Y1.06945
X-0.05000 Y1.06845
X-0.04900 Y1.06845
X-0.04900 Y1.06745
X-0.04800 Y1.06745
X-0.04800 Y1.06645
X-0.04700 Y1.06645
X-0.04700 Y1.06545
X-0.04600 Y1.06545
X-0.04600 Y1.06445
X-0.04500 Y1.06445
X-0.04500 Y1.06345
X-0.04400 Y1.06345
X-0.04400 Y1.06245
X-0.04300 Y1.06245
X-0.04300 Y1.06145
X-0.04200 Y1.06145
X-0.04200 Y1.06045
X-0.04100 Y1.06045
X-0.04100 Y1.05945
X-0.04000 Y1.05945
X-0.04000 Y1.05845
X-0.03900 Y1.05845
X-0.03900 Y1.05745
X-0.03800 Y1.05745
X-0.03800 Y1.05645
X-0.03700 Y1.05645
X-0.03700 Y1.05545
X-0.03600 Y1.05545
X-0.03600 Y1.05445
X-0.03500 Y1.05445
X-0.03500 Y1.05345
X-0.03400 Y1.05345
X-0.03400 Y1.05245
X-0.03300 Y1.05245
X-0.03300 Y1.05145
X-0.03200 Y1.05145
X-0.03200 Y1.05045
X-0.03100 Y1.05045
X-0.03100 Y1.04945
X-0.03000 Y1.04945
X-0.03000 Y1.04845
X-0.02900 Y1.04845
X-0.02900 Y1.04745
X-0.02800 Y1.04745
X-0.02800 Y1.04645
X-0.02700 Y1.04645
X-0.02700 Y1.04545
X-0.02600 Y1.04545
X-0.02600 Y1.04445
X-0.02500 Y1.04445
X-0.02500 Y1.04345
X-0.02400 Y1.04345
X-0.02400 Y1.04245
X-0.02300 Y1.04245
X-0.02300 Y1.04145
X-0.02200 Y1.04145
X-0.02200 Y1.04045
X-0.02100 Y1.04045
X-0.02100 Y1.03945
X-0.02000 Y1.03945
X-0.02000 Y1.03845
X-0.01900 Y1.03845
X-0.01900 Y1.03745
X-0.01800 Y1.03745
X-0.01800 Y1.03645
X-0.01700 Y1.03645
X-0.01700 Y1.03545
X-0.01600 Y1.03545
X-0.01600 Y1.03445
X-0.01500 Y1.03445
X-0.01500 Y1.03345
X-0.01400 Y1.03345
X-0.01400 Y1.03245
X-0.01300 Y1.03245
X-0.01300 Y1.03145
X-0.01200 Y1.03145
X-0.01200 Y1.03045
X-0.01100 Y1.03045
X-0.01100 Y1.02945
X-0.01000 Y1.02945
X-0.01000 Y1.02845
X-0.00900 Y1.02845
X-0.00900 Y1.02745
X-0.00800 Y1.02745
X-0.00800 Y1.02645
X-0.00700 Y1.02645
X-0.00700 Y1.02545
X-0.00600 Y1.02545
X-0.00600 Y1.02445
X-0.00500 Y1.02445
X-0.00500 Y1.02345
X-0.00400 Y1.02345
X-0.00400 Y1.02245
X-0.00300 Y1.02245
X-0.00300 Y1.02145
X-0.00200 Y1.02145
X-0.00200 Y1.02045
X-0.00100 Y1.02045
X-0.00100 Y1.01945
X0.00000 Y1.01945
X0.00000 Y1.01845
X0.00100 Y1.01845
X0.00100 Y1.01745
X0.00200 Y1.01745
X0.00200 Y1.01645
X0.00300 Y1.01645
X0.00300 Y1.01545
X0.00400 Y1.01545
X0.00400 Y1.01445
X0.00500 Y1.01445
X0.00500 Y1.01345
X0.00600 Y1.01345
X0.00600 Y1.01245
X0.00700 Y1.01245
X0.00700 Y1.01145
X0.00800 Y1.01145
X0.00800 Y1.01045
X0.00900 Y1.01045
X0.00900 Y1.00945
X0.01000 Y1.00945
X0.01000 Y1.00845
X0.01100 Y1.00845
X0.01100 Y1.00745
X0.01200 Y1.00745
X0.01200 Y1.00645
X0.01300 Y1.00645
X0.01300 Y1.00545
X0.01400 Y1.00545
X0.01400 Y1.00445
X0.01500 Y1.00445
X0.01500 Y1.00345
X0.01600 Y1.00345
X0.01600 Y1.00245
X0.01700 Y1.00245
X0.01700 Y1.00145
X0.01800 Y1.00145
X0.01800 Y1.00045
X0.01900 Y1.00045
X0.01900 Y0.99945
X0.02000 Y0.99945
X0.02000 Y0.99845
X0.02100 Y0.99845
X0.02100 Y0.99745
X0.02200 Y0.99745
X0.02200 Y0.99645
X0.02300 Y0.99645
X0.02300 Y0.99545
X0.02400 Y0.99545
X0.02400 Y0.99445
X0.02500 Y0.99445
X0.02500 Y0.99345
X0.02600 Y0.99345
X0.02600 Y0.99245
X0.02700 Y0.99245
X0.02700 Y0.99145
X0.02800 Y0.99145
X0.02800 Y0.99045
X0.02900 Y0.99045
X0.02900 Y0.98945
X0.03000 Y0.98945
X0.03000 Y0.98845
X0.03100 Y0.98845
X0.03100 Y0.98745
X0.03200 Y0.98745
X0.03200 Y0.98645
X0.03300 Y0.98645
X0.03300 Y0.98545
X0.03400 Y0.98545
X0.03400 Y0.98445
X0.03500 Y0.98445
X0.03500 Y0.98345
X0.03600 Y0.98345
X0.03600 Y0.98245
X0.03700 Y0.98245
X0.03700 Y0.98145
X0.03800 Y0.98145
X0.03800 Y0.98045
X0.03900 Y0.98045
X0.03900 Y0.97945
X0.04000 Y0.97945
X0.04000 Y0.97845
X0.04100 Y0.97845
X0.04100 Y0.97745
X0.04200 Y0.97745
X0.04200 Y0.97645
X0.04300 Y0.97645
X0.04300 Y0.97545
X0.04400 Y0.97545
X0.04400 Y0.97445
X0.04500 Y0.97445
X0.04500 Y0.97345
X0.04600 Y0.97345
X0.04600 Y0.97245
X0.04700 Y0.97245
X0.04700 Y0.97145
X0.04800 Y0.97145
X0.04800 Y0.97045
X0.04900 Y0.97045
X0.04900 Y0.96945
X0.05000 Y0.96945
X0.05000 Y0.96845
X0.05100 Y0.96845
X0.05100 Y0.96745
X0.05200 Y0.96745
X0.05200 Y0.96645
X0.05300 Y0.96645
X0.05300 Y0.96545
X0.05400 Y0.96545
X0.05400 Y0.96445
X0.05500 Y0.96445
X0.05500 Y0.96345
X0.05600 Y0.96345
X0.05600 Y0.96245
X0.05700 Y0.96245
X0.05700 Y0.96145
X0.05800 Y0.96145
X0.05800 Y0.96045
X0.05900 Y0.96045
X0.05900 Y0.95945
X0.06000 Y0.95945
X0.06000 Y0.95845
X0.06100 Y0.95845
X0.06100 Y0.95745
X0.06200 Y0.95745
X0.06200 Y0.95645
X0.06300 Y0.95645
X0.06300 Y0.95545
X0.06400 Y0.95545
X0.06400 Y0.95445
X0.06500 Y0.95445
X0.06500 Y0.95345
X0.06600 Y0.95345
X0.06600 Y0.95245
X0.06700 Y0.95245
X0.06700 Y0.95145
X0.06800 Y0.95145
X0.06800 Y0.95045
X0.06900 Y0.95045
X0.06900 Y0.94945
X0.07000 Y0.94945
X0.07000 Y0.94845
X0.07100 Y0.94845
X0.07100 Y0.94745
X0.07200 Y0.94745
X0.07200 Y0.94645
X0.07300 Y0.94645
X0.07300 Y0.94545
X0.07400 Y0.94545
X0.07400 Y0.94445
X0.07500 Y0.94445
X0.07500 Y0.94345
X0.07600 Y0.94345
X0.07600 Y0.94245
X0.07700 Y0.94245
X0.07700 Y0.94145
X0.07800 Y0.94145
X0.07800 Y0.94045
X0.07900 Y0.94045
X0.07900 Y0.93945
X0.08000 Y0.93945
X0.08000 Y0.93845
X0.08100 Y0.93845
X0.08100 Y0.93745
X0.08200 Y0.93745
X0.08200 Y0.93645
X0.08300 Y0.93645
X0.08300 Y0.93545
X0.08400 Y0.93545
X0.08400 Y0.93245
X0.08500 Y0.93245
X0.08500 Y0.74345
X0.09000 Y0.74345
X0.09000 Y0.68845
X0.05900 Y0.68845
X0.05900 Y0.74345
X0.06400 Y0.74345
X0.06400 Y0.91845
X0.06300 Y0.91845
X0.06300 Y0.91945
X0.06200 Y0.91945
X0.06200 Y0.92045
X0.06100 Y0.92045
X0.06100 Y0.92145
X0.06000 Y0.92145
X0.06000 Y0.92245
X0.05900 Y0.92245
X0.05900 Y0.92345
X0.05800 Y0.92345
X0.05800 Y0.92445
X0.05700 Y0.92445
X0.05700 Y0.92545
X0.05600 Y0.92545
X0.05600 Y0.92645
X0.05500 Y0.92645
X0.05500 Y0.92745
X0.05400 Y0.92745
X0.05400 Y0.92845
X0.05300 Y0.92845
X0.05300 Y0.92945
X0.05200 Y0.92945
X0.05200 Y0.93045
X0.05100 Y0.93045
X0.05100 Y0.93145
X0.05000 Y0.93145
X0.05000 Y0.93245
X0.04900 Y0.93245
X0.04900 Y0.93345
X0.04800 Y0.93345
X0.04800 Y0.93445
X0.04700 Y0.93445
X0.04700 Y0.93545
X0.04600 Y0.93545
X0.04600 Y0.93645
X0.04500 Y0.93645
X0.04500 Y0.93745
X0.04400 Y0.93745
X0.04400 Y0.93845
X0.04300 Y0.93845
X0.04300 Y0.93945
X0.04200 Y0.93945
X0.04200 Y0.94045
X0.04100 Y0.94045
X0.04100 Y0.94145
X0.04000 Y0.94145
X0.04000 Y0.94245
X0.03900 Y0.94245
X0.03900 Y0.94345
X0.03800 Y0.94345
X0.03800 Y0.94445
X0.03700 Y0.94445
X0.03700 Y0.94545
X0.03600 Y0.94545
X0.03600 Y0.94645
X0.03500 Y0.94645
X0.03500 Y0.94745
X0.03400 Y0.94745
X0.03400 Y0.94845
X0.03300 Y0.94845
X0.03300 Y0.94945
X0.03200 Y0.94945
X0.03200 Y0.95045
X0.03100 Y0.95045
X0.03100 Y0.95145
X0.03000 Y0.95145
X0.03000 Y0.95245
X0.02900 Y0.95245
X0.02900 Y0.95345
X0.02800 Y0.95345
X0.02800 Y0.95445
X0.02700 Y0.95445
X0.02700 Y0.95545
X0.02600 Y0.95545
X0.02600 Y0.95645
X0.02500 Y0.95645
X0.02500 Y0.95745
X0.02400 Y0.95745
X0.02400 Y0.95845
X0.02300 Y0.95845
X0.02300 Y0.95945
X0.02200 Y0.95945
X0.02200 Y0.96045
X0.02100 Y0.96045
X0.02100 Y0.96145
X0.02000 Y0.96145
X0.02000 Y0.96245
X0.01900 Y0.96245
X0.01900 Y0.96345
X0.01800 Y0.96345
X0.01800 Y0.96445
X0.01700 Y0.96445
X0.01700 Y0.96545
X0.01600 Y0.96545
X0.01600 Y0.96645
X0.01500 Y0.96645
X0.01500 Y0.96745
X0.01400 Y0.96745
X0.01400 Y0.96845
X0.01300 Y0.96845
X0.01300 Y0.96945
X0.01200 Y0.96945
X0.01200 Y0.97045
X0.01100 Y0.97045
X0.01100 Y0.97145
X0.01000 Y0.97145
X0.01000 Y0.97245
X0.00900 Y0.97245
X0.00900 Y0.97345
X0.00800 Y0.97345
X0.00800 Y0.97445
X0.00700 Y0.97445
X0.00700 Y0.97545
X0.00600 Y0.97545
X0.00600 Y0.97645
X0.00500 Y0.97645
X0.00500 Y0.97745
X0.00400 Y0.97745
X0.00400 Y0.97845
X0.00300 Y0.97845
X0.00300 Y0.97945
X0.00200 Y0.97945
X0.00200 Y0.98045
X0.00100 Y0.98045
X0.00100 Y0.98145
X0.00000 Y0.98145
X0.00000 Y0.98245
X-0.00100 Y0.98245
X-0.00100 Y0.98345
X-0.00200 Y0.98345
X-0.00200 Y0.98445
X-0.00300 Y0.98445
X-0.00300 Y0.98545
X-0.00400 Y0.98545
X-0.00400 Y0.98645
X-0.00500 Y0.98645
X-0.00500 Y0.98745
X-0.00600 Y0.98745
X-0.00600 Y0.98845
X-0.00700 Y0.98845
X-0.00700 Y0.98945
X-0.00800 Y0.98945
X-0.00800 Y0.99045
X-0.00900 Y0.99045
X-0.00900 Y0.99145
X-0.01000 Y0.99145
X-0.01000 Y0.99245
X-0.01100 Y0.99245
X-0.01100 Y0.99345
X-0.01200 Y0.99345
X-0.01200 Y0.99445
X-0.01300 Y0.99445
X-0.01300 Y0.99545
X-0.01400 Y0.99545
X-0.01400 Y0.99645
X-0.01500 Y0.99645
X-0.01500 Y0.99745
X-0.01600 Y0.99745
X-0.01600 Y0.99845
X-0.01700 Y0.99845
X-0.01700 Y0.99945
X-0.01800 Y0.99945
X-0.01800 Y1.00045
X-0.01900 Y1.00045
X-0.01900 Y1.00145
X-0.02000 Y1.00145
X-0.02000 Y1.00245
X-0.02100 Y1.00245
X-0.02100 Y1.00345
X-0.02200 Y1.00345
X-0.02200 Y1.00445
X-0.02300 Y1.00445
X-0.02300 Y1.00545
X-0.02400 Y1.00545
X-0.02400 Y1.00645
X-0.02500 Y1.00645
X-0.02500 Y1.00745
X-0.02600 Y1.00745
X-0.02600 Y1.00845
X-0.02700 Y1.00845
X-0.02700 Y1.00945
X-0.02800 Y1.00945
X-0.02800 Y1.01045
X-0.02900 Y1.01045
X-0.02900 Y1.01145
X-0.03000 Y1.01145
X-0.03000 Y1.01245
X-0.03100 Y1.01245
X-0.03100 Y1.01345
X-0.03200 Y1.01345
X-0.03200 Y1.01445
X-0.03300 Y1.01445
X-0.03300 Y1.01545
X-0.03400 Y1.01545
X-0.03400 Y1.01645
X-0.03500 Y1.01645
X-0.03500 Y1.01745
X-0.03600 Y1.01745
X-0.03600 Y1.01845
X-0.03700 Y1.01845
X-0.03700 Y1.01945
X-0.03800 Y1.01945
X-0.03800 Y1.02045
X-0.03900 Y1.02045
X-0.03900 Y1.02145
X-0.04000 Y1.02145
X-0.04000 Y1.02245
X-0.04100 Y1.02245
X-0.04100 Y1.02345
X-0.04200 Y1.02345
X-0.04200 Y1.02445
X-0.04300 Y1.02445
X-0.04300 Y1.02545
X-0.04400 Y1.02545
X-0.04400 Y1.02645
X-0.04500 Y1.02645
X-0.04500 Y1.02745
X-0.04600 Y1.02745
X-0.04600 Y1.02845
X-0.04700 Y1.02845
X-0.04700 Y1.02945
X-0.04800 Y1.02945
X-0.04800 Y1.03045
X-0.04900 Y1.03045
X-0.04900 Y1.03145
X-0.05000 Y1.03145
X-0.05000 Y1.03245
X-0.05100 Y1.03245
X-0.05100 Y1.03345
X-0.05200 Y1.03345
X-0.05200 Y1.03445
X-0.05300 Y1.03445
X-0.05300 Y1.03545
X-0.05400 Y1.03545
X-0.05400 Y1.03645
X-0.05500 Y1.03645
X-0.05500 Y1.03745
X-0.05600 Y1.03745
X-0.05600 Y1.03845
X-0.05700 Y1.03845
X-0.05700 Y1.03945
X-0.05800 Y1.03945
X-0.05800 Y1.04045
X-0.05900 Y1.04045
X-0.05900 Y1.04145
X-0.06000 Y1.04145
X-0.06000 Y1.04245
X-0.06100 Y1.04245
X-0.06100 Y1.04345
X-0.06200 Y1.04345
X-0.06200 Y1.04445
X-0.06300 Y1.04445
X-0.06300 Y1.04545
X-0.06400 Y1.04545
X-0.06400 Y1.04645
X-0.06500 Y1.04645
X-0.06500 Y1.04745
X-0.06600 Y1.04745
X-0.06600 Y1.04845
X-0.06700 Y1.04845
X-0.06700 Y1.04945
X-0.06800 Y1.04945
X-0.06800 Y1.05045
X-0.06900 Y1.05045
X-0.06900 Y1.05145
X-0.07000 Y1.05145
X-0.07000 Y1.05245
X-0.07100 Y1.05245
X-0.07100 Y1.05345
X-0.07200 Y1.05345
X-0.07200 Y1.05445
X-0.07300 Y1.05445
X-0.07300 Y1.05545
X-0.07400 Y1.05545
X-0.07400 Y1.05645
X-0.07500 Y1.05645
X-0.07500 Y1.05745
X-0.07600 Y1.05745
X-0.07600 Y1.05845
X-0.07700 Y1.05845
X-0.07700 Y1.05945
X-0.07800 Y1.05945
X-0.07800 Y1.06045
X-0.07900 Y1.06045
X-0.07900 Y1.06145
X-0.08000 Y1.06145
X-0.08000 Y1.06245
X-0.08100 Y1.06245
X-0.08100 Y1.06345
X-0.08200 Y1.06345
X-0.08200 Y1.06445
X-0.08300 Y1.06445
X-0.08300 Y1.06545
X-0.08400 Y1.06545
X-0.08400 Y1.06645
X-0.08500 Y1.06645
X-0.08500 Y1.06745
X-0.08600 Y1.06745
X-0.08600 Y1.06845
X-0.08700 Y1.06845
X-0.08700 Y1.06945
X-0.08800 Y1.06945
X-0.08800 Y1.07045
X-0.08900 Y1.07045
X-0.08900 Y1.07145
X-0.09000 Y1.07145
X-0.09000 Y0.99445
X-0.09100 Y0.99445
X-0.09100 Y0.99145
X-0.09200 Y0.99145
X-0.09200 Y0.99045
X-0.09300 Y0.99045
X-0.09300 Y0.98945
X-0.09400 Y0.98945
X-0.09400 Y0.98845
X-0.09500 Y0.98845
X-0.09500 Y0.98745
X-0.09600 Y0.98745
X-0.09600 Y0.98645
X-0.09700 Y0.98645
X-0.09700 Y0.98545
X-0.09800 Y0.98545
X-0.09800 Y0.98445
X-0.09900 Y0.98445
X-0.09900 Y0.98345
X-0.10000 Y0.98345
X-0.10000 Y0.98245
X-0.10100 Y0.98245
X-0.10100 Y0.98145
X-0.10200 Y0.98145
X-0.10200 Y0.98045
X-0.10300 Y0.98045
X-0.10300 Y0.97945
X-0.10400 Y0.97945
X-0.10400 Y0.97845
X-0.10500 Y0.97845
X-0.10500 Y0.97745
X-0.10600 Y0.97745
X-0.10600 Y0.97645
X-0.10700 Y0.97645
X-0.10700 Y0.97545
X-0.10800 Y0.97545
X-0.10800 Y0.97445
X-0.10900 Y0.97445
X-0.10900 Y0.97345
X-0.11000 Y0.97345
X-0.11000 Y0.97245
X-0.11100 Y0.97245
X-0.11100 Y0.97145
X-0.11200 Y0.97145
X-0.11200 Y0.97045
X-0.11300 Y0.97045
X-0.11300 Y0.96945
X-0.11400 Y0.96945
X-0.11400 Y0.96845
X-0.11500 Y0.96845
X-0.11500 Y0.96745
X-0.11600 Y0.96745
X-0.11600 Y0.96645
X-0.11700 Y0.96645
X-0.11700 Y0.96545
X-0.11800 Y0.96545
X-0.11800 Y0.96445
X-0.11900 Y0.96445
X-0.11900 Y0.96345
X-0.12000 Y0.96345
X-0.12000 Y0.96245
X-0.12100 Y0.96245
X-0.12100 Y0.96145
X-0.12200 Y0.96145
X-0.12200 Y0.96045
X-0.12300 Y0.96045
X-0.12300 Y0.95945
X-0.12400 Y0.95945
X-0.12400 Y0.95845
X-0.12500 Y0.95845
X-0.12500 Y0.95745
X-0.12600 Y0.95745
X-0.12600 Y0.95645
X-0.12700 Y0.95645
X-0.12700 Y0.95545
X-0.12800 Y0.95545
X-0.12800 Y0.95445
X-0.12900 Y0.95445
X-0.12900 Y0.95345
X-0.13000 Y0.95345
X-0.13000 Y0.95245
X-0.13100 Y0.95245
X-0.13100 Y0.95145
X-0.13200 Y0.95145
X-0.13200 Y0.95045
X-0.13300 Y0.95045
X-0.13300 Y0.94945
X-0.13400 Y0.94945
X-0.13400 Y0.94845
X-0.13500 Y0.94845
X-0.13500 Y0.94745
X-0.13600 Y0.94745
X-0.13600 Y0.94645
X-0.13700 Y0.94645
X-0.13700 Y0.94545
X-0.13800 Y0.94545
X-0.13800 Y0.94445
X-0.13900 Y0.94445
X-0.13900 Y0.94345
X-0.14000 Y0.94345
X-0.14000 Y0.94245
X-0.14100 Y0.94245
X-0.14100 Y0.94145
X-0.14200 Y0.94145
X-0.14200 Y0.94045
X-0.14300 Y0.94045
X-0.14300 Y0.93945
X-0.14400 Y0.93945
X-0.14400 Y0.93845
X-0.14500 Y0.93845
X-0.14500 Y0.93745
X-0.14600 Y0.93745
X-0.14600 Y0.93645
X-0.14700 Y0.93645
X-0.14700 Y0.93545
X-0.14800 Y0.93545
X-0.14800 Y0.93445
X-0.14900 Y0.93445
X-0.14900 Y0.93345
X-0.15000 Y0.93345
X-0.15000 Y0.93245
X-0.15100 Y0.93245
X-0.15100 Y0.93145
X-0.15200 Y0.93145
X-0.15200 Y0.93045
X-0.15300 Y0.93045
X-0.15300 Y0.92945
X-0.15400 Y0.92945
X-0.15400 Y0.92845
X-0.15500 Y0.92845
X-0.15500 Y0.92745
X-0.15600 Y0.92745
X-0.15600 Y0.92645
X-0.15700 Y0.92645
X-0.15700 Y0.92545
X-0.15800 Y0.92545
X-0.15800 Y0.92445
X-0.15900 Y0.92445
X-0.15900 Y0.92345
X-0.16000 Y0.92345
X-0.16000 Y0.92245
X-0.16100 Y0.92245
X-0.16100 Y0.92145
X-0.16200 Y0.92145
X-0.16200 Y0.92045
X-0.16300 Y0.92045
X-0.16300 Y0.91945
X-0.16400 Y0.91945
X-0.16400 Y0.91845
X-0.16500 Y0.91845
X-0.16500 Y0.91745
X-0.16600 Y0.91745
X-0.16600 Y0.91645
X-0.16700 Y0.91645
X-0.16700 Y0.91545
X-0.16800 Y0.91545
X-0.16800 Y0.91445
X-0.16900 Y0.91445
X-0.16900 Y0.91345
X-0.17000 Y0.91345
X-0.17000 Y0.91245
X-0.17100 Y0.91245
X-0.17100 Y0.91145
X-0.17200 Y0.91145
X-0.17200 Y0.91045
X-0.17300 Y0.91045
X-0.17300 Y0.90945
X-0.17400 Y0.90945
X-0.17400 Y0.90845
X-0.17500 Y0.90845
X-0.17500 Y0.90745
X-0.17600 Y0.90745
X-0.17600 Y0.90645
X-0.17700 Y0.90645
X-0.17700 Y0.90545
X-0.17800 Y0.90545
X-0.17800 Y0.90445
X-0.17900 Y0.90445
X-0.17900 Y0.90345
X-0.18000 Y0.90345
X-0.18000 Y0.90245
X-0.18100 Y0.90245
X-0.18100 Y0.90145
X-0.18200 Y0.90145
X-0.18200 Y0.90045
X-0.18300 Y0.90045
X-0.18300 Y0.89945
X-0.18400 Y0.89945
X-0.18400 Y0.89845
X-0.18500 Y0.89845
X-0.18500 Y0.89745
X-0.18600 Y0.89745
X-0.18600 Y0.89645
X-0.18700 Y0.89645
X-0.18700 Y0.89545
X-0.18800 Y0.89545
X-0.18800 Y0.89445
X-0.18900 Y0.89445
X-0.18900 Y0.89345
X-0.19000 Y0.89345
X-0.19000 Y0.89245
X-0.19100 Y0.89245
X-0.19100 Y0.89145
X-0.19200 Y0.89145
X-0.19200 Y0.89045
X-0.19300 Y0.89045
X-0.19300 Y0.88945
X-0.19400 Y0.88945
X-0.19400 Y0.88845
X-0.19500 Y0.88845
X-0.19500 Y0.88745
X-0.19600 Y0.88745
X-0.19600 Y0.88645
X-0.19700 Y0.88645
X-0.19700 Y0.88545
X-0.19800 Y0.88545
X-0.19800 Y0.88445
X-0.19900 Y0.88445
X-0.19900 Y0.88345
X-0.20000 Y0.88345
X-0.20000 Y0.88245
X-0.20100 Y0.88245
X-0.20100 Y0.88145
X-0.20200 Y0.88145
X-0.20200 Y0.88045
X-0.20300 Y0.88045
X-0.20300 Y0.87945
X-0.20400 Y0.87945
X-0.20400 Y0.87845
X-0.20500 Y0.87845
X-0.20500 Y0.87745
X-0.20600 Y0.87745
X-0.20600 Y0.87645
X-0.20700 Y0.87645
X-0.20700 Y0.87545
X-0.20800 Y0.87545
X-0.20800 Y0.87445
X-0.20900 Y0.87445
X-0.20900 Y0.87345
X-0.21000 Y0.87345
X-0.21000 Y0.87245
X-0.21100 Y0.87245
X-0.21100 Y0.87145
X-0.21200 Y0.87145
X-0.21200 Y0.87045
X-0.21300 Y0.87045
X-0.21300 Y0.86945
X-0.21400 Y0.86945
X-0.21400 Y0.86845
X-0.21500 Y0.86845
X-0.21500 Y0.86745
X-0.21600 Y0.86745
X-0.21600 Y0.86645
X-0.21700 Y0.86645
X-0.21700 Y0.86545
X-0.21800 Y0.86545
X-0.21800 Y0.86445
X-0.21900 Y0.86445
X-0.21900 Y0.86345
X-0.22000 Y0.86345
X-0.22000 Y0.86245
X-0.22100 Y0.86245
X-0.22100 Y0.86145
X-0.22200 Y0.86145
X-0.22200 Y0.86045
X-0.22300 Y0.86045
X-0.22300 Y0.85945
X-0.22400 Y0.85945
X-0.22400 Y0.85845
X-0.22500 Y0.85845
X-0.22500 Y0.85745
X-0.22600 Y0.85745
X-0.22600 Y0.85645
X-0.22700 Y0.85645
X-0.22700 Y0.85545
X-0.22800 Y0.85545
X-0.22800 Y0.85445
X-0.22900 Y0.85445
X-0.22900 Y0.85345
X-0.23000 Y0.85345
X-0.23000 Y0.44845
X-0.22900 Y0.44845
X-0.22900 Y0.44745
X-0.22800 Y0.44745
X-0.22800 Y0.44645
X-0.22700 Y0.44645
X-0.22700 Y0.44545
X-0.22600 Y0.44545
X-0.22600 Y0.44445
X-0.22500 Y0.44445
X-0.22500 Y0.44345
X-0.22400 Y0.44345
X-0.22400 Y0.44245
X-0.22300 Y0.44245
X-0.22300 Y0.44145
X-0.22200 Y0.44145
X-0.22200 Y0.44045
X-0.22100 Y0.44045
X-0.22100 Y0.43945
X-0.22000 Y0.43945
X-0.22000 Y0.43845
X-0.21900 Y0.43845
X-0.21900 Y0.43745
X-0.21800 Y0.43745
X-0.21800 Y0.43645
X-0.21700 Y0.43645
X-0.21700 Y0.43545
X-0.21600 Y0.43545
X-0.21600 Y0.43445
X-0.21500 Y0.43445
X-0.21500 Y0.43345
X-0.21400 Y0.43345
X-0.21400 Y0.43245
X-0.21300 Y0.43245
X-0.21300 Y0.43145
X-0.21200 Y0.43145
X-0.21200 Y0.43045
X-0.21100 Y0.43045
X-0.21100 Y0.42945
X-0.21000 Y0.42945
X-0.21000 Y0.42845
X-0.20900 Y0.42845
X-0.20900 Y0.42745
X-0.20800 Y0.42745
X-0.20800 Y0.42645
X-0.20700 Y0.42645
X-0.20700 Y0.42545
X-0.20600 Y0.42545
X-0.20600 Y0.42445
X-0.20500 Y0.42445
X-0.20500 Y0.42345
X-0.20400 Y0.42345
X-0.20400 Y0.42245
X-0.20300 Y0.42245
X-0.20300 Y0.42145
X-0.20200 Y0.42145
X-0.20200 Y0.42045
X-0.20100 Y0.42045
X-0.20100 Y0.41945
X-0.20000 Y0.41945
X-0.20000 Y0.41845
X-0.19900 Y0.41845
X-0.19900 Y0.41745
X-0.19800 Y0.41745
X-0.19800 Y0.41645
X-0.19700 Y0.41645
X-0.19700 Y0.41545
X-0.19600 Y0.41545
X-0.19600 Y0.41445
X-0.19500 Y0.41445
X-0.19500 Y0.41345
X-0.19400 Y0.41345
X-0.19400 Y0.41245
X-0.19300 Y0.41245
X-0.19300 Y0.41145
X-0.19200 Y0.41145
X-0.19200 Y0.41045
X-0.19100 Y0.41045
X-0.19100 Y0.40945
X-0.19000 Y0.40945
X-0.19000 Y0.40845
X-0.18900 Y0.40845
X-0.18900 Y0.40745
X-0.18800 Y0.40745
X-0.18800 Y0.40645
X-0.18700 Y0.40645
X-0.18700 Y0.40545
X-0.18600 Y0.40545
X-0.18600 Y0.40445
X-0.18500 Y0.40445
X-0.18500 Y0.40345
X-0.18400 Y0.40345
X-0.18400 Y0.40245
X-0.18300 Y0.40245
X-0.18300 Y0.40145
X-0.18200 Y0.40145
X-0.18200 Y0.40045
X-0.18100 Y0.40045
X-0.18100 Y0.39945
X-0.18000 Y0.39945
X-0.18000 Y0.39845
X-0.17900 Y0.39845
X-0.17900 Y0.39745
X-0.17800 Y0.39745
X-0.17800 Y0.39645
X-0.17700 Y0.39645
X-0.17700 Y0.39545
X-0.17600 Y0.39545
X-0.17600 Y0.39445
X-0.17500 Y0.39445
X-0.17500 Y0.39345
X-0.17400 Y0.39345
X-0.17400 Y0.39245
X-0.17300 Y0.39245
X-0.17300 Y0.39145
X-0.17200 Y0.39145
X-0.17200 Y0.39045
X-0.17100 Y0.39045
X-0.17100 Y0.38945
X-0.17000 Y0.38945
X-0.17000 Y0.38845
X-0.16900 Y0.38845
X-0.16900 Y0.38745
X-0.16800 Y0.38745
X-0.16800 Y0.38645
X-0.16700 Y0.38645
X-0.16700 Y0.38545
X-0.16600 Y0.38545
X-0.16600 Y0.38445
X-0.16500 Y0.38445
X-0.16500 Y0.38345
X-0.16400 Y0.38345
X-0.16400 Y0.38245
X-0.16300 Y0.38245
X-0.16300 Y0.38145
X-0.16200 Y0.38145
X-0.16200 Y0.38045
X-0.16100 Y0.38045
X-0.16100 Y0.37945
X-0.16000 Y0.37945
X-0.16000 Y0.37845
X-0.15900 Y0.37845
X-0.15900 Y0.37745
X-0.15800 Y0.37745
X-0.15800 Y0.37645
X-0.15700 Y0.37645
X-0.15700 Y0.37545
X-0.15600 Y0.37545
X-0.15600 Y0.37445
X-0.15500 Y0.37445
X-0.15500 Y0.37345
X-0.15400 Y0.37345
X-0.15400 Y0.37245
X-0.15300 Y0.37245
X-0.15300 Y0.37145
X-0.15200 Y0.37145
X-0.15200 Y0.37045
X-0.15100 Y0.37045
X-0.15100 Y0.36945
X-0.15000 Y0.36945
X-0.15000 Y0.36845
X-0.14900 Y0.36845
X-0.14900 Y0.36745
X-0.14800 Y0.36745
X-0.14800 Y0.36645
X-0.14700 Y0.36645
X-0.14700 Y0.36545
X-0.14600 Y0.36545
X-0.14600 Y0.36445
X-0.14500 Y0.36445
X-0.14500 Y0.36345
X-0.14400 Y0.36345
X-0.14400 Y0.36245
X-0.14300 Y0.36245
X-0.14300 Y0.36145
X-0.14200 Y0.36145
X-0.14200 Y0.36045
X-0.14100 Y0.36045
X-0.14100 Y0.35945
X-0.14000 Y0.35945
X-0.14000 Y0.35845
X-0.13900 Y0.35845
X-0.13900 Y0.35745
X-0.13800 Y0.35745
X-0.13800 Y0.35645
X-0.13700 Y0.35645
X-0.13700 Y0.35545
X-0.13600 Y0.35545
X-0.13600 Y0.35445
X-0.13500 Y0.35445
X-0.13500 Y0.35345
X-0.13400 Y0.35345
X-0.13400 Y0.35245
X-0.13300 Y0.35245
X-0.13300 Y0.35145
X-0.13200 Y0.35145
X-0.13200 Y0.35045
X-0.13100 Y0.35045
X-0.13100 Y0.34945
X-0.13000 Y0.34945
X-0.13000 Y0.34845
X-0.12900 Y0.34845
X-0.12900 Y0.34745
X-0.12800 Y0.34745
X-0.12800 Y0.34645
X-0.12700 Y0.34645
X-0.12700 Y0.34545
X-0.12600 Y0.34545
X-0.12600 Y0.34445
X-0.12500 Y0.34445
X-0.12500 Y0.34345
X-0.12400 Y0.34345
X-0.12400 Y0.34245
X-0.12300 Y0.34245
X-0.12300 Y0.34145
X-0.12200 Y0.34145
X-0.12200 Y0.34045
X-0.12100 Y0.34045
X-0.12100 Y0.33945
X-0.12000 Y0.33945
X-0.12000 Y0.33845
X-0.11900 Y0.33845
X-0.11900 Y0.33745
X-0.11800 Y0.33745
X-0.11800 Y0.33645
X-0.11700 Y0.33645
X-0.11700 Y0.33545
X-0.11600 Y0.33545
X-0.11600 Y0.33445
X-0.11500 Y0.33445
X-0.11500 Y0.33345
X-0.11400 Y0.33345
X-0.11400 Y0.33245
X-0.11300 Y0.33245
X-0.11300 Y0.33145
X-0.11200 Y0.33145
X-0.11200 Y0.33045
X-0.11100 Y0.33045
X-0.11100 Y0.32945
X-0.11000 Y0.32945
X-0.11000 Y0.32845
X-0.10900 Y0.32845
X-0.10900 Y0.32745
X-0.10800 Y0.32745
X-0.10800 Y0.32645
X-0.10700 Y0.32645
X-0.10700 Y0.32545
X-0.10600 Y0.32545
X-0.10600 Y0.32445
X-0.10500 Y0.32445
X-0.10500 Y0.32345
X-0.10400 Y0.32345
X-0.10400 Y0.32245
X-0.10300 Y0.32245
X-0.10300 Y0.32145
X-0.10200 Y0.32145
X-0.10200 Y0.32045
X-0.10100 Y0.32045
X-0.10100 Y0.31945
X-0.10000 Y0.31945
X-0.10000 Y0.31845
X-0.09900 Y0.31845
X-0.09900 Y0.31745
X-0.09800 Y0.31745
X-0.09800 Y0.31645
X-0.09700 Y0.31645
X-0.09700 Y0.31545
X-0.09600 Y0.31545
X-0.09600 Y0.31445
X-0.09500 Y0.31445
X-0.09500 Y0.31345
X-0.09400 Y0.31345
X-0.09400 Y0.31245
X-0.09300 Y0.31245
X-0.09300 Y0.31145
X-0.09200 Y0.31145
X-0.09200 Y0.31045
X-0.09100 Y0.31045
X-0.09100 Y0.30945
X-0.09000 Y0.30945
X-0.09000 Y0.30845
X-0.08900 Y0.30845
X-0.08900 Y0.30745
X-0.08800 Y0.30745
X-0.08800 Y0.30645
X-0.08700 Y0.30645
X-0.08700 Y0.30545
X-0.08600 Y0.30545
X-0.08600 Y0.30445
X-0.08500 Y0.30445
X-0.08500 Y0.30345
X-0.08400 Y0.30345
X-0.08400 Y0.30245
X-0.08300 Y0.30245
X-0.08300 Y0.30145
X-0.08200 Y0.30145
X-0.08200 Y0.30045
X-0.08100 Y0.30045
X-0.08100 Y0.29945
X-0.08000 Y0.29945
X-0.08000 Y0.29845
X-0.07900 Y0.29845
X-0.07900 Y0.29745
X-0.07800 Y0.29745
X-0.07800 Y0.29645
X-0.07700 Y0.29645
X-0.07700 Y0.29545
X-0.07600 Y0.29545
X-0.07600 Y0.29445
X-0.07500 Y0.29445
X-0.07500 Y0.29345
X-0.07400 Y0.29345
X-0.07400 Y0.29245
X-0.07300 Y0.29245
X-0.07300 Y0.29145
X-0.07200 Y0.29145
X-0.07200 Y0.29045
X-0.07100 Y0.29045
X-0.07100 Y0.28945
X-0.07000 Y0.28945
X-0.07000 Y0.28845
X-0.06900 Y0.28845
X-0.06900 Y0.28745
X-0.06800 Y0.28745
X-0.06800 Y0.28645
X-0.06700 Y0.28645
X-0.06700 Y0.28545
X-0.06600 Y0.28545
X-0.06600 Y0.28445
X-0.06500 Y0.28445
X-0.06500 Y0.28345
X-0.06400 Y0.28345
X-0.06400 Y0.28245
X-0.06300 Y0.28245
X-0.06300 Y0.28145
X-0.06200 Y0.28145
X-0.06200 Y0.28045
X-0.06100 Y0.28045
X-0.06100 Y0.27945
X-0.06000 Y0.27945
X-0.06000 Y0.27845
X-0.05900 Y0.27845
X-0.05900 Y0.27745
X-0.05800 Y0.27745
X-0.05800 Y0.27645
X-0.05700 Y0.27645
X-0.05700 Y0.27545
X-0.05600 Y0.27545
X-0.05600 Y0.27445
X-0.05500 Y0.27445
X-0.05500 Y0.27345
X-0.05400 Y0.27345
X-0.05400 Y0.27245
X-0.05300 Y0.27245
X-0.05300 Y0.27145
X-0.05200 Y0.27145
X-0.05200 Y0.27045
X-0.05100 Y0.27045
X-0.05100 Y0.26945
X-0.05000 Y0.26945
X-0.05000 Y0.26845
X-0.04900 Y0.26845
X-0.04900 Y0.26745
X-0.04800 Y0.26745
X-0.04800 Y0.26645
X-0.04700 Y0.26645
X-0.04700 Y0.26545
X-0.04600 Y0.26545
X-0.04600 Y0.26445
X-0.04500 Y0.26445
X-0.04500 Y0.26345
X-0.04400 Y0.26345
X-0.04400 Y0.26245
X-0.04300 Y0.26245
X-0.04300 Y0.26145
X-0.04200 Y0.26145
X-0.04200 Y0.26045
X-0.04100 Y0.26045
X-0.04100 Y0.25945
X-0.04000 Y0.25945
X-0.04000 Y0.25845
X-0.03900 Y0.25845
X-0.03900 Y0.25745
X-0.03800 Y0.25745
X-0.03800 Y0.25645
X-0.03700 Y0.25645
X-0.03700 Y0.25545
X-0.03600 Y0.25545
X-0.03600 Y0.25445
X-0.03500 Y0.25445
X-0.03500 Y0.25345
X-0.03400 Y0.25345
X-0.03400 Y0.25245
X-0.03300 Y0.25245
X-0.03300 Y0.25145
X-0.03200 Y0.25145
X-0.03200 Y0.25045
X-0.03100 Y0.25045
X-0.03100 Y0.24945
X-0.03000 Y0.24945
X-0.03000 Y0.24845
X-0.02900 Y0.24845
X-0.02900 Y0.24745
X-0.02800 Y0.24745
X-0.02800 Y0.24645
X-0.02700 Y0.24645
X-0.02700 Y0.24545
X-0.02600 Y0.24545
X-0.02600 Y0.24445
X-0.02500 Y0.24445
X-0.02500 Y0.24345
X-0.02400 Y0.24345
X-0.02400 Y0.24245
X-0.02300 Y0.24245
X-0.02300 Y0.24145
X-0.02200 Y0.24145
X-0.02200 Y0.24045
X-0.02100 Y0.24045
X-0.02100 Y0.23945
X-0.02000 Y0.23945
X-0.02000 Y0.23845
X-0.01900 Y0.23845
X-0.01900 Y0.23745
X-0.01800 Y0.23745
X-0.01800 Y0.23645
X-0.01700 Y0.23645
X-0.01700 Y0.23545
X-0.01600 Y0.23545
X-0.01600 Y0.23445
X-0.01500 Y0.23445
X-0.01500 Y0.23345
X-0.01400 Y0.23345
X-0.01400 Y0.23245
X-0.01300 Y0.23245
X-0.01300 Y0.23145
X-0.01200 Y0.23145
X-0.01200 Y0.23045
X-0.01100 Y0.23045
X-0.01100 Y0.22945
X-0.01000 Y0.22945
X-0.01000 Y0.22845
X-0.00900 Y0.22845
X-0.00900 Y0.22745
X-0.00800 Y0.22745
X-0.00800 Y0.22645
X-0.00700 Y0.22645
X-0.00700 Y0.22545
X-0.00600 Y0.22545
X-0.00600 Y0.22445
X-0.00500 Y0.22445
X-0.00500 Y0.22345
X-0.00400 Y0.22345
X-0.00400 Y0.22245
X-0.00300 Y0.22245
X-0.00300 Y0.22145
X-0.00200 Y0.22145
X-0.00200 Y0.22045
X-0.00100 Y0.22045
X-0.00100 Y0.21945
X0.00000 Y0.21945
X0.00000 Y0.21845
X0.00100 Y0.21845
X0.00100 Y0.21745
X0.00200 Y0.21745
X0.00200 Y0.21645
X0.00300 Y0.21645
X0.00300 Y0.21545
X0.00400 Y0.21545
X0.00400 Y0.21445
X0.00500 Y0.21445
X0.00500 Y0.21345
X0.00600 Y0.21345
X0.00600 Y0.21245
X0.00700 Y0.21245
X0.00700 Y0.21145
X0.00800 Y0.21145
X0.00800 Y0.21045
X0.00900 Y0.21045
X0.00900 Y0.20945
X0.01000 Y0.20945
X0.01000 Y0.20845
X0.01100 Y0.20845
X0.01100 Y0.20745
X0.01200 Y0.20745
X0.01200 Y0.20645
X0.01300 Y0.20645
X0.01300 Y0.20545
X0.01400 Y0.20545
X0.01400 Y0.20445
X0.01500 Y0.20445
X0.01500 Y0.20345
X0.01600 Y0.20345
X0.01600 Y0.20245
X0.01700 Y0.20245
X0.01700 Y0.20145
X0.01800 Y0.20145
X0.01800 Y0.20045
X0.01900 Y0.20045
X0.01900 Y0.19945
X0.02000 Y0.19945
X0.02000 Y0.19845
X0.02100 Y0.19845
X0.02100 Y0.19745
X0.02200 Y0.19745
X0.02200 Y0.19645
X0.02300 Y0.19645
X0.02300 Y0.19545
X0.02400 Y0.19545
X0.02400 Y0.19445
X0.02500 Y0.19445
X0.02500 Y0.19345
X0.02600 Y0.19345
X0.02600 Y0.19245
X0.02700 Y0.19245
X0.02700 Y0.19145
X0.02800 Y0.19145
X0.02800 Y0.19045
X0.02900 Y0.19045
X0.02900 Y0.18745
X0.03000 Y0.18745
X0.03000 Y-0.00855
X0.13800 Y-0.00855
X0.13800 Y-0.00555
X0.13900 Y-0.00555
X0.13900 Y-0.00355
X0.14000 Y-0.00355
X0.14000 Y-0.00255
X0.14100 Y-0.00255
X0.14100 Y-0.00155
X0.14200 Y-0.00155
X0.14200 Y-0.00055
X0.14300 Y-0.00055
X0.14300 Y0.00045
X0.14400 Y0.00045
X0.14400 Y0.00145
X0.14600 Y0.00145
X0.14600 Y0.00245
X0.14800 Y0.00245
X0.14800 Y0.00345
X0.15000 Y0.00345
X0.15000 Y0.01645
X0.13600 Y0.01645
X0.13600 Y0.10545
X0.18500 Y0.10545
X0.18500 Y0.01645
X0.17100 Y0.01645
X0.17100 Y0.00245
X0.17300 Y0.00245
X0.17300 Y0.00145
X0.17500 Y0.00145
X0.17500 Y0.00045
X0.17600 Y0.00045
X0.17600 Y-0.00055
X0.17700 Y-0.00055
X0.17700 Y-0.00155
X0.17800 Y-0.00155
X0.17800 Y-0.00255
X0.17900 Y-0.00255
X0.17900 Y-0.00355
X0.18000 Y-0.00355
X0.18000 Y-0.00555
X0.18100 Y-0.00555
X0.18100 Y-0.00855
X0.18200 Y-0.00855
X0.18200 Y-0.02955
X0.18100 Y-0.02955
X0.18100 Y-0.03255
X0.18000 Y-0.03255
X0.18000 Y-0.03455
X0.17900 Y-0.03455
X0.17900 Y-0.03555
X0.17800 Y-0.03555
X0.17800 Y-0.03655
X0.17700 Y-0.03655
X0.17700 Y-0.03755
X0.17600 Y-0.03755
X0.17600 Y-0.03855
X0.17500 Y-0.03855
X0.17500 Y-0.03955
X0.17300 Y-0.03955
X0.17300 Y-0.04055
X0.17100 Y-0.04055
X0.17100 Y-0.04155
X0.14800 Y-0.04155
X0.14800 Y-0.04055
X0.14600 Y-0.04055
X0.14600 Y-0.03955
X0.14400 Y-0.03955
X0.14400 Y-0.03855
X0.14300 Y-0.03855
X0.14300 Y-0.03755
X0.14200 Y-0.03755
X0.14200 Y-0.03655
X0.14100 Y-0.03655
X0.14100 Y-0.03555
X0.14000 Y-0.03555
X0.14000 Y-0.03455
X0.13900 Y-0.03455
X0.13900 Y-0.03255
X0.13800 Y-0.03255
X0.13800 Y-0.02955
X0.01200 Y-0.02955
X0.01200 Y-0.02855
X0.01100 Y-0.02855
X0.01100 Y-0.02755
X0.01000 Y-0.02755
X0.01000 Y-0.02555
X0.00900 Y-0.02555
X0.00900 Y0.17345
X0.00800 Y0.17345
X0.00800 Y0.17445
X0.00700 Y0.17445
X0.00700 Y0.17545
X0.00600 Y0.17545
X0.00600 Y0.17645
X0.00500 Y0.17645
X0.00500 Y0.17745
X0.00400 Y0.17745
X0.00400 Y0.17845
X0.00300 Y0.17845
X0.00300 Y0.17945
X0.00200 Y0.17945
X0.00200 Y0.18045
X0.00100 Y0.18045
X0.00100 Y0.18145
X0.00000 Y0.18145
X0.00000 Y0.18245
X-0.00100 Y0.18245
X-0.00100 Y0.18345
X-0.00200 Y0.18345
X-0.00200 Y0.18445
X-0.00300 Y0.18445
X-0.00300 Y0.18545
X-0.00400 Y0.18545
X-0.00400 Y0.18645
X-0.00500 Y0.18645
X-0.00500 Y0.18745
X-0.00600 Y0.18745
X-0.00600 Y0.18845
X-0.00700 Y0.18845
X-0.00700 Y0.18945
X-0.00800 Y0.18945
X-0.00800 Y0.19045
X-0.00900 Y0.19045
X-0.00900 Y0.19145
X-0.01000 Y0.19145
X-0.01000 Y0.19245
X-0.01100 Y0.19245
X-0.01100 Y0.19345
X-0.01200 Y0.19345
X-0.01200 Y0.19445
X-0.01300 Y0.19445
X-0.01300 Y0.19545
X-0.01400 Y0.19545
X-0.01400 Y0.19645
X-0.01500 Y0.19645
X-0.01500 Y0.19745
X-0.01600 Y0.19745
X-0.01600 Y0.19845
X-0.01700 Y0.19845
X-0.01700 Y0.19945
X-0.01800 Y0.19945
X-0.01800 Y0.20045
X-0.01900 Y0.20045
X-0.01900 Y0.20145
X-0.02000 Y0.20145
X-0.02000 Y0.20245
X-0.02100 Y0.20245
X-0.02100 Y0.20345
X-0.02200 Y0.20345
X-0.02200 Y0.20445
X-0.02300 Y0.20445
X-0.02300 Y0.20545
X-0.02400 Y0.20545
X-0.02400 Y0.20645
X-0.02500 Y0.20645
X-0.02500 Y0.20745
X-0.02600 Y0.20745
X-0.02600 Y0.20845
X-0.02700 Y0.20845
X-0.02700 Y0.20945
X-0.02800 Y0.20945
X-0.02800 Y0.21045
X-0.02900 Y0.21045
X-0.02900 Y0.21145
X-0.03000 Y0.21145
X-0.03000 Y0.21245
X-0.03100 Y0.21245
X-0.03100 Y0.21345
X-0.03200 Y0.21345
X-0.03200 Y0.21445
X-0.03300 Y0.21445
X-0.03300 Y0.21545
X-0.03400 Y0.21545
X-0.03400 Y0.21645
X-0.03500 Y0.21645
X-0.03500 Y0.21745
X-0.03600 Y0.21745
X-0.03600 Y0.21845
X-0.03700 Y0.21845
X-0.03700 Y0.21945
X-0.03800 Y0.21945
X-0.03800 Y0.22045
X-0.03900 Y0.22045
X-0.03900 Y0.22145
X-0.04000 Y0.22145
X-0.04000 Y0.22245
X-0.04100 Y0.22245
X-0.04100 Y0.22345
X-0.04200 Y0.22345
X-0.04200 Y0.22445
X-0.04300 Y0.22445
X-0.04300 Y0.22545
X-0.04400 Y0.22545
X-0.04400 Y0.22645
X-0.04500 Y0.22645
X-0.04500 Y0.22745
X-0.04600 Y0.22745
X-0.04600 Y0.22845
X-0.04700 Y0.22845
X-0.04700 Y0.22945
X-0.04800 Y0.22945
X-0.04800 Y0.23045
X-0.04900 Y0.23045
X-0.04900 Y0.23145
X-0.05000 Y0.23145
X-0.05000 Y0.23245
X-0.05100 Y0.23245
X-0.05100 Y0.23345
X-0.05200 Y0.23345
X-0.05200 Y0.23445
X-0.05300 Y0.23445
X-0.05300 Y0.23545
X-0.05400 Y0.23545
X-0.05400 Y0.23645
X-0.05500 Y0.23645
X-0.05500 Y0.23745
X-0.05600 Y0.23745
X-0.05600 Y0.23845
X-0.05700 Y0.23845
X-0.05700 Y0.23945
X-0.05800 Y0.23945
X-0.05800 Y0.24045
X-0.05900 Y0.24045
X-0.05900 Y0.24145
X-0.06000 Y0.24145
X-0.06000 Y0.24245
X-0.06100 Y0.24245
X-0.06100 Y0.24345
X-0.06200 Y0.24345
X-0.06200 Y0.24445
X-0.06300 Y0.24445
X-0.06300 Y0.24545
X-0.06400 Y0.24545
X-0.06400 Y0.24645
X-0.06500 Y0.24645
X-0.06500 Y0.24745
X-0.06600 Y0.24745
X-0.06600 Y0.24845
X-0.06700 Y0.24845
X-0.06700 Y0.24945
X-0.06800 Y0.24945
X-0.06800 Y0.25045
X-0.06900 Y0.25045
X-0.06900 Y0.25145
X-0.07000 Y0.25145
X-0.07000 Y0.25245
X-0.07100 Y0.25245
X-0.07100 Y0.25345
X-0.07200 Y0.25345
X-0.07200 Y0.25445
X-0.07300 Y0.25445
X-0.07300 Y0.25545
X-0.07400 Y0.25545
X-0.07400 Y0.25645
X-0.07500 Y0.25645
X-0.07500 Y0.25745
X-0.07600 Y0.25745
X-0.07600 Y0.25845
X-0.07700 Y0.25845
X-0.07700 Y0.25945
X-0.07800 Y0.25945
X-0.07800 Y0.26045
X-0.07900 Y0.26045
X-0.07900 Y0.26145
X-0.08000 Y0.26145
X-0.08000 Y0.26245
X-0.08100 Y0.26245
X-0.08100 Y0.26345
X-0.08200 Y0.26345
X-0.08200 Y0.26445
X-0.08300 Y0.26445
X-0.08300 Y0.26545
X-0.08400 Y0.26545
X-0.08400 Y0.26645
X-0.08500 Y0.26645
X-0.08500 Y0.26745
X-0.08600 Y0.26745
X-0.08600 Y0.26845
X-0.08700 Y0.26845
X-0.08700 Y0.26945
X-0.08800 Y0.26945
X-0.08800 Y0.27045
X-0.08900 Y0.27045
X-0.08900 Y0.27145
X-0.09000 Y0.27145
X-0.09000 Y0.27245
X-0.09100 Y0.27245
X-0.09100 Y0.27345
X-0.09200 Y0.27345
X-0.09200 Y0.27445
X-0.09300 Y0.27445
X-0.09300 Y0.27545
X-0.09400 Y0.27545
X-0.09400 Y0.27645
X-0.09500 Y0.27645
X-0.09500 Y0.27745
X-0.09600 Y0.27745
X-0.09600 Y0.27845
X-0.09700 Y0.27845
X-0.09700 Y0.27945
X-0.09800 Y0.27945
X-0.09800 Y0.28045
X-0.09900 Y0.28045
X-0.09900 Y0.28145
X-0.10000 Y0.28145
X-0.10000 Y0.28245
X-0.10100 Y0.28245
X-0.10100 Y0.28345
X-0.10200 Y0.28345
X-0.10200 Y0.28445
X-0.10300 Y0.28445
X-0.10300 Y0.28545
X-0.10400 Y0.28545
X-0.10400 Y0.28645
X-0.10500 Y0.28645
X-0.10500 Y0.28745
X-0.10600 Y0.28745
X-0.10600 Y0.28845
X-0.10700 Y0.28845
X-0.10700 Y0.28945
X-0.10800 Y0.28945
X-0.10800 Y0.29045
X-0.10900 Y0.29045
X-0.10900 Y0.29145
X-0.11000 Y0.29145
X-0.11000 Y0.29245
X-0.11100 Y0.29245
X-0.11100 Y0.29345
X-0.11200 Y0.29345
X-0.11200 Y0.29445
X-0.11300 Y0.29445
X-0.11300 Y0.29545
X-0.11400 Y0.29545
X-0.11400 Y0.29645
X-0.11500 Y0.29645
X-0.11500 Y0.29745
X-0.11600 Y0.29745
X-0.11600 Y0.29845
X-0.11700 Y0.29845
X-0.11700 Y0.29945
X-0.11800 Y0.29945
X-0.11800 Y0.30045
X-0.11900 Y0.30045
X-0.11900 Y0.30145
X-0.12000 Y0.30145
X-0.12000 Y0.30245
X-0.12100 Y0.30245
X-0.12100 Y0.30345
X-0.12200 Y0.30345
X-0.12200 Y0.30445
X-0.12300 Y0.30445
X-0.12300 Y0.30545
X-0.12400 Y0.30545
X-0.12400 Y0.30645
X-0.12500 Y0.30645
X-0.12500 Y0.30745
X-0.12600 Y0.30745
X-0.12600 Y0.30845
X-0.12700 Y0.30845
X-0.12700 Y0.30945
X-0.12800 Y0.30945
X-0.12800 Y0.31045
X-0.12900 Y0.31045
X-0.12900 Y0.31145
X-0.13000 Y0.31145
X-0.13000 Y0.31245
X-0.13100 Y0.31245
X-0.13100 Y0.31345
X-0.13200 Y0.31345
X-0.13200 Y0.31445
X-0.13300 Y0.31445
X-0.13300 Y0.31545
X-0.13400 Y0.31545
X-0.13400 Y0.31645
X-0.13500 Y0.31645
X-0.13500 Y0.31745
X-0.13600 Y0.31745
X-0.13600 Y0.31845
X-0.13700 Y0.31845
X-0.13700 Y0.31945
X-0.13800 Y0.31945
X-0.13800 Y0.32045
X-0.13900 Y0.32045
X-0.13900 Y0.32145
X-0.14000 Y0.32145
X-0.14000 Y0.32245
X-0.14100 Y0.32245
X-0.14100 Y0.32345
X-0.14200 Y0.32345
X-0.14200 Y0.32445
X-0.14300 Y0.32445
X-0.14300 Y0.32545
X-0.14400 Y0.32545
X-0.14400 Y0.32645
X-0.14500 Y0.32645
X-0.14500 Y0.32745
X-0.14600 Y0.32745
X-0.14600 Y0.32845
X-0.14700 Y0.32845
X-0.14700 Y0.32945
X-0.14800 Y0.32945
X-0.14800 Y0.33045
X-0.14900 Y0.33045
X-0.14900 Y0.33145
X-0.15000 Y0.33145
X-0.15000 Y0.33245
X-0.15100 Y0.33245
X-0.15100 Y0.33345
X-0.15200 Y0.33345
X-0.15200 Y0.33445
X-0.15300 Y0.33445
X-0.15300 Y0.33545
X-0.15400 Y0.33545
X-0.15400 Y0.33645
X-0.15500 Y0.33645
X-0.15500 Y0.33745
X-0.15600 Y0.33745
X-0.15600 Y0.33845
X-0.15700 Y0.33845
X-0.15700 Y0.33945
X-0.15800 Y0.33945
X-0.15800 Y0.34045
X-0.15900 Y0.34045
X-0.15900 Y0.34145
X-0.16000 Y0.34145
X-0.16000 Y0.34245
X-0.16100 Y0.34245
X-0.16100 Y0.34345
X-0.16200 Y0.34345
X-0.16200 Y0.34445
X-0.16300 Y0.34445
X-0.16300 Y0.34545
X-0.16400 Y0.34545
X-0.16400 Y0.34645
X-0.16500 Y0.34645
X-0.16500 Y0.34745
X-0.16600 Y0.34745
X-0.16600 Y0.34845
X-0.16700 Y0.34845
X-0.16700 Y0.34945
X-0.16800 Y0.34945
X-0.16800 Y0.35045
X-0.16900 Y0.35045
X-0.16900 Y0.35145
X-0.17000 Y0.35145
X-0.17000 Y0.35245
X-0.17100 Y0.35245
X-0.17100 Y0.35345
X-0.17200 Y0.35345
X-0.17200 Y0.35445
X-0.17300 Y0.35445
X-0.17300 Y0.35545
X-0.17400 Y0.35545
X-0.17400 Y0.35645
X-0.17500 Y0.35645
X-0.17500 Y0.35745
X-0.17600 Y0.35745
X-0.17600 Y0.35845
X-0.17700 Y0.35845
X-0.17700 Y0.35945
X-0.17800 Y0.35945
X-0.17800 Y0.36045
X-0.17900 Y0.36045
X-0.17900 Y0.36145
X-0.18000 Y0.36145
X-0.18000 Y0.36245
X-0.18100 Y0.36245
X-0.18100 Y0.36345
X-0.18200 Y0.36345
X-0.18200 Y0.36445
X-0.18300 Y0.36445
X-0.18300 Y0.36545
X-0.18400 Y0.36545
X-0.18400 Y0.36645
X-0.18500 Y0.36645
X-0.18500 Y0.36745
X-0.18600 Y0.36745
X-0.18600 Y0.36845
X-0.18700 Y0.36845
X-0.18700 Y0.36945
X-0.18800 Y0.36945
X-0.18800 Y0.37045
X-0.18900 Y0.37045
X-0.18900 Y0.37145
X-0.19000 Y0.37145
X-0.19000 Y0.37245
X-0.19100 Y0.37245
X-0.19100 Y0.37345
X-0.19200 Y0.37345
X-0.19200 Y0.37445
X-0.19300 Y0.37445
X-0.19300 Y0.37545
X-0.19400 Y0.37545
X-0.19400 Y0.37645
X-0.19500 Y0.37645
X-0.19500 Y0.37745
X-0.19600 Y0.37745
X-0.19600 Y0.37845
X-0.19700 Y0.37845
X-0.19700 Y0.37945
X-0.19800 Y0.37945
X-0.19800 Y0.38045
X-0.19900 Y0.38045
X-0.19900 Y0.38145
X-0.20000 Y0.38145
X-0.20000 Y0.38245
X-0.20100 Y0.38245
X-0.20100 Y0.38345
X-0.20200 Y0.38345
X-0.20200 Y0.38445
X-0.20300 Y0.38445
X-0.20300 Y0.38545
X-0.20400 Y0.38545
X-0.20400 Y0.38645
X-0.20500 Y0.38645
X-0.20500 Y0.38745
X-0.20600 Y0.38745
X-0.20600 Y0.38845
X-0.20700 Y0.38845
X-0.20700 Y0.38945
X-0.20800 Y0.38945
X-0.20800 Y0.39045
X-0.20900 Y0.39045
X-0.20900 Y0.39145
X-0.21000 Y0.39145
X-0.21000 Y0.39245
X-0.21100 Y0.39245
X-0.21100 Y0.39345
X-0.21200 Y0.39345
X-0.21200 Y0.39445
X-0.21300 Y0.39445
X-0.21300 Y0.39545
X-0.21400 Y0.39545
X-0.21400 Y0.39645
X-0.21500 Y0.39645
X-0.21500 Y0.39745
X-0.21600 Y0.39745
X-0.21600 Y0.39845
X-0.21700 Y0.39845
X-0.21700 Y0.39945
X-0.21800 Y0.39945
X-0.21800 Y0.40045
X-0.21900 Y0.40045
X-0.21900 Y0.40145
X-0.22000 Y0.40145
X-0.22000 Y0.40245
X-0.22100 Y0.40245
X-0.22100 Y0.40345
X-0.22200 Y0.40345
X-0.22200 Y0.40445
X-0.22300 Y0.40445
X-0.22300 Y0.40545
X-0.22400 Y0.40545
X-0.22400 Y0.40645
X-0.22500 Y0.40645
X-0.22500 Y0.40745
X-0.22600 Y0.40745
X-0.22600 Y0.40845
X-0.22700 Y0.40845
X-0.22700 Y0.40945
X-0.22800 Y0.40945
X-0.22800 Y0.41045
X-0.22900 Y0.41045
X-0.22900 Y0.41145
X-0.23000 Y0.41145
X-0.23000 Y0.41245
X-0.23100 Y0.41245
X-0.23100 Y0.41345
X-0.23200 Y0.41345
X-0.23200 Y0.41445
X-0.23300 Y0.41445
X-0.23300 Y0.41545
X-0.23400 Y0.41545
X-0.23400 Y0.41645
X-0.23500 Y0.41645
X-0.23500 Y0.41745
X-0.23600 Y0.41745
X-0.23600 Y0.41845
X-0.23700 Y0.41845
X-0.23700 Y0.41945
X-0.23800 Y0.41945
X-0.23800 Y0.42045
X-0.23900 Y0.42045
X-0.23900 Y0.42145
X-0.24000 Y0.42145
X-0.24000 Y0.42245
X-0.24100 Y0.42245
X-0.24100 Y0.42345
X-0.24200 Y0.42345
X-0.24200 Y0.42445
X-0.24300 Y0.42445
X-0.24300 Y0.42545
X-0.24400 Y0.42545
X-0.24400 Y0.42645
X-0.24500 Y0.42645
X-0.24500 Y0.42745
X-0.24600 Y0.42745
X-0.24600 Y0.42845
X-0.24700 Y0.42845
X-0.24700 Y0.42945
X-0.24800 Y0.42945
X-0.24800 Y0.43045
X-0.24900 Y0.43045
X-0.24900 Y0.43145
X-0.25000 Y0.43145
X-0.25000 Y0.43445
X-0.25100 Y0.43445
X-0.25100 Y0.86745
X-0.25000 Y0.86745
X-0.25000 Y0.87045
X-0.24900 Y0.87045
X-0.24900 Y0.87145
X-0.24800 Y0.87145
X-0.24800 Y0.87245
X-0.24700 Y0.87245
X-0.24700 Y0.87345
X-0.24600 Y0.87345
X-0.24600 Y0.87445
X-0.24500 Y0.87445
X-0.24500 Y0.87545
X-0.24400 Y0.87545
X-0.24400 Y0.87645
X-0.24300 Y0.87645
X-0.24300 Y0.87745
X-0.24200 Y0.87745
X-0.24200 Y0.87845
X-0.24100 Y0.87845
X-0.24100 Y0.87945
X-0.24000 Y0.87945
X-0.24000 Y0.88045
X-0.23900 Y0.88045
X-0.23900 Y0.88145
X-0.23800 Y0.88145
X-0.23800 Y0.88245
X-0.23700 Y0.88245
X-0.23700 Y0.88345
X-0.23600 Y0.88345
X-0.23600 Y0.88445
X-0.23500 Y0.88445
X-0.23500 Y0.88545
X-0.23400 Y0.88545
X-0.23400 Y0.88645
X-0.23300 Y0.88645
X-0.23300 Y0.88745
X-0.23200 Y0.88745
X-0.23200 Y0.88845
X-0.23100 Y0.88845
X-0.23100 Y0.88945
X-0.23000 Y0.88945
X-0.23000 Y0.89045
X-0.22900 Y0.89045
X-0.22900 Y0.89145
X-0.22800 Y0.89145
X-0.22800 Y0.89245
X-0.22700 Y0.89245
X-0.22700 Y0.89345
X-0.22600 Y0.89345
X-0.22600 Y0.89445
X-0.22500 Y0.89445
X-0.22500 Y0.89545
X-0.22400 Y0.89545
X-0.22400 Y0.89645
X-0.22300 Y0.89645
X-0.22300 Y0.89745
X-0.22200 Y0.89745
X-0.22200 Y0.89845
X-0.22100 Y0.89845
X-0.22100 Y0.89945
X-0.22000 Y0.89945
X-0.22000 Y0.90045
X-0.21900 Y0.90045
X-0.21900 Y0.90145
X-0.21800 Y0.90145
X-0.21800 Y0.90245
X-0.21700 Y0.90245
X-0.21700 Y0.90345
X-0.21600 Y0.90345
X-0.21600 Y0.90445
X-0.21500 Y0.90445
X-0.21500 Y0.90545
X-0.21400 Y0.90545
X-0.21400 Y0.90645
X-0.21300 Y0.90645
X-0.21300 Y0.90745
X-0.21200 Y0.90745
X-0.21200 Y0.90845
X-0.21100 Y0.90845
X-0.21100 Y0.90945
X-0.21000 Y0.90945
X-0.21000 Y0.91045
X-0.20900 Y0.91045
X-0.20900 Y0.91145
X-0.20800 Y0.91145
X-0.20800 Y0.91245
X-0.20700 Y0.91245
X-0.20700 Y0.91345
X-0.20600 Y0.91345
X-0.20600 Y0.91445
X-0.20500 Y0.91445
X-0.20500 Y0.91545
X-0.20400 Y0.91545
X-0.20400 Y0.91645
X-0.20300 Y0.91645
X-0.20300 Y0.91745
X-0.20200 Y0.91745
X-0.20200 Y0.91845
X-0.20100 Y0.91845
X-0.20100 Y0.91945
X-0.20000 Y0.91945
X-0.20000 Y0.92045
X-0.19900 Y0.92045
X-0.19900 Y0.92145
X-0.19800 Y0.92145
X-0.19800 Y0.92245
X-0.19700 Y0.92245
X-0.19700 Y0.92345
X-0.19600 Y0.92345
X-0.19600 Y0.92445
X-0.19500 Y0.92445
X-0.19500 Y0.92545
X-0.19400 Y0.92545
X-0.19400 Y0.92645
X-0.19300 Y0.92645
X-0.19300 Y0.92745
X-0.19200 Y0.92745
X-0.19200 Y0.92845
X-0.19100 Y0.92845
X-0.19100 Y0.92945
X-0.19000 Y0.92945
X-0.19000 Y0.93045
X-0.18900 Y0.93045
X-0.18900 Y0.93145
X-0.18800 Y0.93145
X-0.18800 Y0.93245
X-0.18700 Y0.93245
X-0.18700 Y0.93345
X-0.18600 Y0.93345
X-0.18600 Y0.93445
X-0.18500 Y0.93445
X-0.18500 Y0.93545
X-0.18400 Y0.93545
X-0.18400 Y0.93645
X-0.18300 Y0.93645
X-0.18300 Y0.93745
X-0.18200 Y0.93745
X-0.18200 Y0.93845
X-0.18100 Y0.93845
X-0.18100 Y0.93945
X-0.18000 Y0.93945
X-0.18000 Y0.94045
X-0.17900 Y0.94045
X-0.17900 Y0.94145
X-0.17800 Y0.94145
X-0.17800 Y0.94245
X-0.17700 Y0.94245
X-0.17700 Y0.94345
X-0.17600 Y0.94345
X-0.17600 Y0.94445
X-0.17500 Y0.94445
X-0.17500 Y0.94545
X-0.17400 Y0.94545
X-0.17400 Y0.94645
X-0.17300 Y0.94645
X-0.17300 Y0.94745
X-0.17200 Y0.94745
X-0.17200 Y0.94845
X-0.17100 Y0.94845
X-0.17100 Y0.94945
X-0.17000 Y0.94945
X-0.17000 Y0.95045
X-0.16900 Y0.95045
X-0.16900 Y0.95145
X-0.16800 Y0.95145
X-0.16800 Y0.95245
X-0.16700 Y0.95245
X-0.16700 Y0.95345
X-0.16600 Y0.95345
X-0.16600 Y0.95445
X-0.16500 Y0.95445
X-0.16500 Y0.95545
X-0.16400 Y0.95545
X-0.16400 Y0.95645
X-0.16300 Y0.95645
X-0.16300 Y0.95745
X-0.16200 Y0.95745
X-0.16200 Y0.95845
X-0.16100 Y0.95845
X-0.16100 Y0.95945
X-0.16000 Y0.95945
X-0.16000 Y0.96045
X-0.15900 Y0.96045
X-0.15900 Y0.96145
X-0.15800 Y0.96145
X-0.15800 Y0.96245
X-0.15700 Y0.96245
X-0.15700 Y0.96345
X-0.15600 Y0.96345
X-0.15600 Y0.96445
X-0.15500 Y0.96445
X-0.15500 Y0.96545
X-0.15400 Y0.96545
X-0.15400 Y0.96645
X-0.15300 Y0.96645
X-0.15300 Y0.96745
X-0.15200 Y0.96745
X-0.15200 Y0.96845
X-0.15100 Y0.96845
X-0.15100 Y0.96945
X-0.15000 Y0.96945
X-0.15000 Y0.97045
X-0.14900 Y0.97045
X-0.14900 Y0.97145
X-0.14800 Y0.97145
X-0.14800 Y0.97245
X-0.14700 Y0.97245
X-0.14700 Y0.97345
X-0.14600 Y0.97345
X-0.14600 Y0.97445
X-0.14500 Y0.97445
X-0.14500 Y0.97545
X-0.14400 Y0.97545
X-0.14400 Y0.97645
X-0.14300 Y0.97645
X-0.14300 Y0.97745
X-0.14200 Y0.97745
X-0.14200 Y0.97845
X-0.14100 Y0.97845
X-0.14100 Y0.97945
X-0.14000 Y0.97945
X-0.14000 Y0.98045
X-0.13900 Y0.98045
X-0.13900 Y0.98145
X-0.13800 Y0.98145
X-0.13800 Y0.98245
X-0.13700 Y0.98245
X-0.13700 Y0.98345
X-0.13600 Y0.98345
X-0.13600 Y0.98445
X-0.13500 Y0.98445
X-0.13500 Y0.98545
X-0.13400 Y0.98545
X-0.13400 Y0.98645
X-0.13300 Y0.98645
X-0.13300 Y0.98745
X-0.13200 Y0.98745
X-0.13200 Y0.98845
X-0.13100 Y0.98845
X-0.13100 Y0.98945
X-0.13000 Y0.98945
X-0.13000 Y0.99045
X-0.12900 Y0.99045
X-0.12900 Y0.99145
X-0.12800 Y0.99145
X-0.12800 Y0.99245
X-0.12700 Y0.99245
X-0.12700 Y0.99345
X-0.12600 Y0.99345
X-0.12600 Y0.99445
X-0.12500 Y0.99445
X-0.12500 Y0.99545
X-0.12400 Y0.99545
X-0.12400 Y0.99645
X-0.12300 Y0.99645
X-0.12300 Y0.99745
X-0.12200 Y0.99745
X-0.12200 Y0.99845
X-0.12100 Y0.99845
X-0.12100 Y0.99945
X-0.12000 Y0.99945
X-0.12000 Y1.00045
X-0.11900 Y1.00045
X-0.11900 Y1.00145
X-0.11800 Y1.00145
X-0.11800 Y1.00245
X-0.11700 Y1.00245
X-0.11700 Y1.00345
X-0.11600 Y1.00345
X-0.11600 Y1.00445
X-0.11500 Y1.00445
X-0.11500 Y1.00545
X-0.11400 Y1.00545
X-0.11400 Y1.00645
X-0.11300 Y1.00645
X-0.11300 Y1.00745
X-0.11200 Y1.00745
X-0.11200 Y1.00845
X-0.11100 Y1.00845
X-0.11100 Y1.60845
X-0.11000 Y1.60845
X-0.11000 Y1.61045
X-0.10900 Y1.61045
X-0.10900 Y1.61145
X-0.10800 Y1.61145
X-0.10800 Y1.61345
X-0.10700 Y1.61345
X-0.10700 Y1.61445
X-0.10600 Y1.61445
X-0.10600 Y1.61645
X-0.10500 Y1.61645
X-0.10500 Y1.61745
X-0.10400 Y1.61745
X-0.10400 Y1.61945
X-0.10300 Y1.61945
X-0.10300 Y1.62045
X-0.10200 Y1.62045
X-0.10200 Y1.62245
X-0.10100 Y1.62245
X-0.10100 Y1.62345
X-0.10000 Y1.62345
X-0.10000 Y1.62545
X-0.09900 Y1.62545
X-0.09900 Y1.62645
X-0.09800 Y1.62645
X-0.09800 Y1.62845
X-0.09700 Y1.62845
X-0.09700 Y1.62945
X-0.09600 Y1.62945
X-0.09600 Y1.63145
X-0.09500 Y1.63145
X-0.09500 Y1.63245
X-0.09400 Y1.63245
X-0.09400 Y1.63445
X-0.09300 Y1.63445
X-0.09300 Y1.63545
X-0.09200 Y1.63545
X-0.09200 Y1.63745
X-0.09100 Y1.63745
X-0.09100 Y1.63845
X-0.09000 Y1.63845
X-0.09000 Y1.64045
X-0.08900 Y1.64045
X-0.08900 Y1.64145
X-0.08800 Y1.64145
X-0.08800 Y1.64345
X-0.08700 Y1.64345
X-0.08700 Y1.64445
X-0.08600 Y1.64445
X-0.08600 Y1.64645
X-0.08500 Y1.64645
X-0.08500 Y1.64745
X-0.08400 Y1.64745
X-0.08400 Y1.64945
X-0.08300 Y1.64945
X-0.08300 Y1.65045
X-0.08200 Y1.65045
X-0.08200 Y1.65245
X-0.08100 Y1.65245
X-0.08100 Y1.65345
X-0.08000 Y1.65345
X-0.08000 Y1.65545
X-0.07900 Y1.65545
X-0.07900 Y1.65645
X-0.07800 Y1.65645
X-0.07800 Y1.65845
X-0.07700 Y1.65845
X-0.07700 Y1.65945
X-0.07600 Y1.65945
X-0.07600 Y1.66145
X-0.07500 Y1.66145
X-0.07500 Y1.66245
X-0.07400 Y1.66245
X-0.07400 Y1.66445
X-0.07300 Y1.66445
X-0.07300 Y1.66545
X-0.07200 Y1.66545
X-0.07200 Y1.66745
X-0.07100 Y1.66745
X-0.07100 Y1.66845
X-0.07000 Y1.66845
X-0.07000 Y1.67045
X-0.06900 Y1.67045
X-0.06900 Y1.67145
X-0.06800 Y1.67145
X-0.06800 Y1.67345
X-0.06700 Y1.67345
X-0.06700 Y1.67445
X-0.06600 Y1.67445
X-0.06600 Y1.67645
X-0.06500 Y1.67645
X-0.06500 Y1.67745
X-0.06400 Y1.67745
X-0.06400 Y1.67945
X-0.06300 Y1.67945
X-0.06300 Y1.68045
X-0.06200 Y1.68045
X-0.06200 Y1.68245
X-0.06100 Y1.68245
X-0.06100 Y1.68345
X-0.06000 Y1.68345
X-0.06000 Y1.68545
X-0.05900 Y1.68545
X-0.05900 Y1.68645
X-0.05800 Y1.68645
X-0.05800 Y1.68845
X-0.05700 Y1.68845
X-0.05700 Y1.68945
X-0.05600 Y1.68945
X-0.05600 Y1.69145
X-0.05500 Y1.69145
X-0.05500 Y1.69245
X-0.05400 Y1.69245
X-0.05400 Y1.69445
X-0.05300 Y1.69445
X-0.05300 Y1.69545
X-0.05200 Y1.69545
X-0.05200 Y1.69745
X-0.05100 Y1.69745
X-0.05100 Y1.69845
X-0.05000 Y1.69845
X-0.05000 Y1.70045
X-0.04900 Y1.70045
X-0.04900 Y1.70145
X-0.04800 Y1.70145
X-0.04800 Y1.70345
X-0.04700 Y1.70345
X-0.04700 Y1.70445
X-0.04600 Y1.70445
X-0.04600 Y1.70645
X-0.04500 Y1.70645
X-0.04500 Y1.70745
X-0.04400 Y1.70745
X-0.04400 Y1.70945
X-0.04300 Y1.70945
X-0.04300 Y1.71045
X-0.04200 Y1.71045
X-0.04200 Y1.71245
X-0.04100 Y1.71245
X-0.04100 Y1.71345
X-0.04000 Y1.71345
X-0.04000 Y1.71545
X-0.03900 Y1.71545
X-0.03900 Y1.71645
X-0.03800 Y1.71645
X-0.03800 Y1.71845
X-0.03700 Y1.71845
X-0.03700 Y1.71945
X-0.03600 Y1.71945
X-0.03600 Y1.72145
X-0.03500 Y1.72145
X-0.03500 Y1.72245
X-0.03400 Y1.72245
X-0.03400 Y1.72445
X-0.03300 Y1.72445
X-0.03300 Y1.72545
X-0.03200 Y1.72545
X-0.03200 Y1.72745
X-0.03100 Y1.72745
X-0.03100 Y1.72845
X-0.03000 Y1.72845
X-0.03000 Y1.73045
X-0.02900 Y1.73045
X-0.02900 Y1.73145
X-0.02800 Y1.73145
X-0.02800 Y1.73345
X-0.02700 Y1.73345
X-0.02700 Y1.73445
X-0.02600 Y1.73445
X-0.02600 Y1.73645
X-0.02500 Y1.73645
X-0.02500 Y1.73745
X-0.02400 Y1.73745
X-0.02400 Y1.73945
X-0.02300 Y1.73945
X-0.02300 Y1.74045
X-0.02200 Y1.74045
X-0.02200 Y1.74245
X-0.02100 Y1.74245
X-0.02100 Y1.74345
X-0.02000 Y1.74345
X-0.02000 Y1.74545
X-0.01900 Y1.74545
X-0.01900 Y1.74645
X-0.01800 Y1.74645
X-0.01800 Y1.74845
X-0.01700 Y1.74845
X-0.01700 Y1.74945
X-0.01600 Y1.74945
X-0.01600 Y1.75145
X-0.01500 Y1.75145
X-0.01500 Y1.75245
X-0.01400 Y1.75245
X-0.01400 Y1.75445
X-0.01300 Y1.75445
X-0.01300 Y1.75545
X-0.01200 Y1.75545
X-0.01200 Y1.75745
X-0.01100 Y1.75745
X-0.01100 Y1.75845
X-0.01000 Y1.75845
X-0.01000 Y1.76045
X-0.00900 Y1.76045
X-0.00900 Y1.76145
X-0.00800 Y1.76145
X-0.00800 Y1.76345
X-0.00700 Y1.76345
X-0.00700 Y1.76445
X-0.00600 Y1.76445
X-0.00600 Y1.76645
X-0.00500 Y1.76645
X-0.00500 Y1.76745
X-0.00400 Y1.76745
X-0.00400 Y1.76945
X-0.00300 Y1.76945
X-0.00300 Y1.77045
X-0.00200 Y1.77045
X-0.00200 Y1.77245
X-0.00100 Y1.77245
X-0.00100 Y1.77345
X0.00000 Y1.77345
X0.00000 Y1.77545
X0.00100 Y1.77545
X0.00100 Y1.77645
X0.00200 Y1.77645
X0.00200 Y1.77845
X0.00300 Y1.77845
X0.00300 Y1.77945
X0.00400 Y1.77945
X0.00400 Y1.78145
X0.00500 Y1.78145
X0.00500 Y1.78245
X0.00600 Y1.78245
X0.00600 Y1.78445
X0.00700 Y1.78445
X0.00700 Y1.78545
X0.00800 Y1.78545
X0.00800 Y1.78745
X0.00900 Y1.78745
X0.00900 Y1.78845
X0.01000 Y1.78845
X0.01000 Y1.78945
X0.01100 Y1.78945
X0.01100 Y1.79045
X0.01200 Y1.79045
X0.01200 Y1.79145
X0.24700 Y1.79145
X0.24700 Y1.79045
X0.24800 Y1.79045
X0.24800 Y1.78945
X0.24900 Y1.78945
X0.24900 Y1.78845
X0.25000 Y1.78845
X0.25000 Y1.78645
X0.25100 Y1.78645
X0.25100 Y1.78545
G04 P0 ( dwell for no time -- G64 should not smooth over this point )
G00 Z0.08000 ( retract )

G00 X0.19300 Y1.74545 ( rapid move to begin. )
G01 Z-0.00200 F6.00000 ( plunge. )
G04 P0 ( dwell for no time -- G64 should not smooth over this point )
X0.19300 Y1.74545
X0.19400 Y1.74545
X0.19400 Y1.74445
X0.19500 Y1.74445
X0.19500 Y1.74345
X0.19600 Y1.74345
X0.19600 Y1.74245
X0.19700 Y1.74245
X0.19700 Y1.74145
X0.19800 Y1.74145
X0.19800 Y1.74045
X0.19900 Y1.74045
X0.19900 Y1.73945
X0.20000 Y1.73945
X0.20000 Y1.73845
X0.20100 Y1.73845
X0.20100 Y1.73745
X0.20200 Y1.73745
X0.20200 Y1.73645
X0.20300 Y1.73645
X0.20300 Y1.73545
X0.20400 Y1.73545
X0.20400 Y1.73445
X0.20500 Y1.73445
X0.20500 Y1.73345
X0.20600 Y1.73345
X0.20600 Y1.73245
X0.20700 Y1.73245
X0.20700 Y1.73145
X0.20800 Y1.73145
X0.20800 Y1.73045
X0.20900 Y1.73045
X0.20900 Y1.72945
X0.21000 Y1.72945
X0.21000 Y1.72845
X0.21100 Y1.72845
X0.21100 Y1.72745
X0.21200 Y1.72745
X0.21200 Y1.72645
X0.21300 Y1.72645
X0.21300 Y1.72545
X0.21400 Y1.72545
X0.21400 Y1.72445
X0.21500 Y1.72445
X0.21500 Y1.72345
X0.21600 Y1.72345
X0.21600 Y1.72245
X0.21700 Y1.72245
X0.21700 Y1.72145
X0.21800 Y1.72145
X0.21800 Y1.72045
X0.21900 Y1.72045
X0.21900 Y1.71945
X0.22000 Y1.71945
X0.22000 Y1.71845
X0.22100 Y1.71845
X0.22100 Y1.71745
X0.22200 Y1.71745
X0.22200 Y1.71645
X0.22300 Y1.71645
X0.22300 Y1.71545
X0.22400 Y1.71545
X0.22400 Y1.71445
X0.22500 Y1.71445
X0.22500 Y1.71345
X0.22600 Y1.71345
X0.22600 Y1.71245
X0.22700 Y1.71245
X0.22700 Y1.71145
X0.22800 Y1.71145
X0.22800 Y1.71045
X0.22900 Y1.71045
X0.22900 Y1.70945
X0.23000 Y1.70945
X0.23000 Y1.70845
X0.23100 Y1.70845
X0.23100 Y1.70745
X0.23200 Y1.70745
X0.23200 Y1.70645
X0.23300 Y1.70645
X0.23300 Y1.70545
X0.23400 Y1.70545
X0.23400 Y1.70445
X0.23500 Y1.70445
X0.23500 Y1.70345
X0.23600 Y1.70345
X0.23600 Y1.70245
X0.23700 Y1.70245
X0.23700 Y1.70145
X0.23800 Y1.70145
X0.23800 Y1.70045
X0.23900 Y1.70045
X0.23900 Y1.69945
X0.24000 Y1.69945
X0.24000 Y1.69845
X0.24100 Y1.69845
X0.24100 Y1.69745
X0.24200 Y1.69745
X0.24200 Y1.69645
X0.24300 Y1.69645
X0.24300 Y1.69545
X0.24400 Y1.69545
X0.24400 Y1.69445
X0.24500 Y1.69445
X0.24500 Y1.69345
X0.24600 Y1.69345
X0.24600 Y1.69245
X0.24700 Y1.69245
X0.24700 Y1.69145
X0.24800 Y1.69145
X0.24800 Y1.69045
X0.24900 Y1.69045
X0.24900 Y1.68945
X0.25000 Y1.68945
X0.25000 Y1.68845
X0.25100 Y1.68845
X0.25100 Y1.68745
X0.25200 Y1.68745
X0.25200 Y1.68645
X0.25300 Y1.68645
X0.25300 Y1.68545
X0.25400 Y1.68545
X0.25400 Y1.68445
X0.25500 Y1.68445
X0.25500 Y1.68345
X0.25600 Y1.68345
X0.25600 Y1.68245
X0.25700 Y1.68245
X0.25700 Y1.68145
X0.25800 Y1.68145
X0.25800 Y1.68045
X0.25900 Y1.68045
X0.25900 Y1.67945
X0.26000 Y1.67945
X0.26000 Y1.67845
X0.26100 Y1.67845
X0.26100 Y1.67745
X0.26200 Y1.67745
X0.26200 Y1.67645
X0.26300 Y1.67645
X0.26300 Y1.67545
X0.26400 Y1.67545
X0.26400 Y1.67445
X0.26500 Y1.67445
X0.26500 Y1.67345
X0.26600 Y1.67345
X0.26600 Y1.67245
X0.26700 Y1.67245
X0.26700 Y1.67145
X0.26800 Y1.67145
X0.26800 Y1.67045
X0.26900 Y1.67045
X0.26900 Y1.66745
X0.27000 Y1.66745
X0.27000 Y1.59445
X0.26900 Y1.59445
X0.26900 Y1.59145
X0.26800 Y1.59145
X0.26800 Y1.59045
X0.26700 Y1.59045
X0.26700 Y1.58945
X0.26600 Y1.58945
X0.26600 Y1.58845
X0.26500 Y1.58845
X0.26500 Y1.58745
X0.26400 Y1.58745
X0.26400 Y1.58645
X0.26300 Y1.58645
X0.26300 Y1.58545
X0.26200 Y1.58545
X0.26200 Y1.58445
X0.26100 Y1.58445
X0.26100 Y1.58345
X0.26000 Y1.58345
X0.26000 Y1.58245
X0.25900 Y1.58245
X0.25900 Y1.58145
X0.25800 Y1.58145
X0.25800 Y1.58045
X0.25700 Y1.58045
X0.25700 Y1.57945
X0.25600 Y1.57945
X0.25600 Y1.57845
X0.25500 Y1.57845
X0.25500 Y1.57745
X0.25400 Y1.57745
X0.25400 Y1.57645
X0.25300 Y1.57645
X0.25300 Y1.57545
X0.25200 Y1.57545
X0.25200 Y1.57445
X0.25100 Y1.57445
X0.25100 Y1.57345
X0.25000 Y1.57345
X0.25000 Y1.57245
X0.24900 Y1.57245
X0.24900 Y1.57145
X0.24800 Y1.57145
X0.24800 Y1.57045
X0.24700 Y1.57045
X0.24700 Y1.56945
X0.24600 Y1.56945
X0.24600 Y1.56845
X0.24500 Y1.56845
X0.24500 Y1.56745
X0.24400 Y1.56745
X0.24400 Y1.56645
X0.24300 Y1.56645
X0.24300 Y1.56545
X0.24200 Y1.56545
X0.24200 Y1.56445
X0.24100 Y1.56445
X0.24100 Y1.56345
X0.24000 Y1.56345
X0.24000 Y1.56245
X0.23900 Y1.56245
X0.23900 Y1.56145
X0.23800 Y1.56145
X0.23800 Y1.56045
X0.23700 Y1.56045
X0.23700 Y1.55945
X0.23600 Y1.55945
X0.23600 Y1.55845
X0.23500 Y1.55845
X0.23500 Y1.55745
X0.23400 Y1.55745
X0.23400 Y1.55645
X0.23300 Y1.55645
X0.23300 Y1.55545
X0.23200 Y1.55545
X0.23200 Y1.55445
X0.23100 Y1.55445
X0.23100 Y1.55345
X0.23000 Y1.55345
X0.23000 Y1.55245
X0.22900 Y1.55245
X0.22900 Y1.55145
X0.22800 Y1.55145
X0.22800 Y1.55045
X0.22700 Y1.55045
X0.22700 Y1.54945
X0.22600 Y1.54945
X0.22600 Y1.54845
X0.22500 Y1.54845
X0.22500 Y1.54745
X0.22400 Y1.54745
X0.22400 Y1.54645
X0.22300 Y1.54645
X0.22300 Y1.54545
X0.22200 Y1.54545
X0.22200 Y1.54445
X0.22100 Y1.54445
X0.22100 Y1.54345
X0.22000 Y1.54345
X0.22000 Y1.54245
X0.21900 Y1.54245
X0.21900 Y1.54145
X0.21800 Y1.54145
X0.21800 Y1.54045
X0.21700 Y1.54045
X0.21700 Y1.53945
X0.21600 Y1.53945
X0.21600 Y1.53845
X0.21500 Y1.53845
X0.21500 Y1.53745
X0.21400 Y1.53745
X0.21400 Y1.53645
X0.21300 Y1.53645
X0.21300 Y1.53045
X0.24800 Y1.53045
X0.24800 Y1.52945
X0.25000 Y1.52945
X0.25000 Y1.52845
X0.25100 Y1.52845
X0.25100 Y1.52745
X0.25200 Y1.52745
X0.25200 Y1.52645
X0.25300 Y1.52645
X0.25300 Y1.52545
X0.25400 Y1.52545
X0.25400 Y1.52445
X0.25500 Y1.52445
X0.25500 Y1.52345
X0.27100 Y1.52345
X0.27100 Y1.52245
X0.27300 Y1.52245
X0.27300 Y1.52145
X0.27500 Y1.52145
X0.27500 Y1.52045
X0.27600 Y1.52045
X0.27600 Y1.51945
X0.27700 Y1.51945
X0.27700 Y1.51845
X0.27800 Y1.51845
X0.27800 Y1.51745
X0.27900 Y1.51745
X0.27900 Y1.51645
X0.28000 Y1.51645
X0.28000 Y1.51445
X0.28100 Y1.51445
X0.28100 Y1.51145
X0.28200 Y1.51145
X0.28200 Y1.49045
X0.28100 Y1.49045
X0.28100 Y1.48745
X0.28000 Y1.48745
X0.28000 Y1.48545
X0.27900 Y1.48545
X0.27900 Y1.48445
X0.27800 Y1.48445
X0.27800 Y1.48345
X0.27700 Y1.48345
X0.27700 Y1.48245
X0.27600 Y1.48245
X0.27600 Y1.48145
X0.27500 Y1.48145
X0.27500 Y1.48045
X0.27300 Y1.48045
X0.27300 Y1.47945
X0.27100 Y1.47945
X0.27100 Y1.47845
X0.24800 Y1.47845
X0.24800 Y1.47945
X0.24600 Y1.47945
X0.24600 Y1.48045
X0.24400 Y1.48045
X0.24400 Y1.48145
X0.24300 Y1.48145
X0.24300 Y1.48245
X0.24200 Y1.48245
X0.24200 Y1.48345
X0.24100 Y1.48345
X0.24100 Y1.48445
X0.24000 Y1.48445
X0.24000 Y1.48545
X0.23900 Y1.48545
X0.23900 Y1.48745
X0.23800 Y1.48745
X0.23800 Y1.49045
X0.23700 Y1.49045
X0.23700 Y1.50545
X0.23600 Y1.50545
X0.23600 Y1.50645
X0.23500 Y1.50645
X0.23500 Y1.50745
X0.23400 Y1.50745
X0.23400 Y1.50845
X0.23300 Y1.50845
X0.23300 Y1.50945
X0.20000 Y1.50945
X0.20000 Y1.50745
X0.19900 Y1.50745
X0.19900 Y1.50545
X0.19800 Y1.50545
X0.19800 Y1.50445
X0.19700 Y1.50445
X0.19700 Y1.50245
X0.19600 Y1.50245
X0.19600 Y1.50045
X0.19500 Y1.50045
X0.19500 Y1.49845
X0.19400 Y1.49845
X0.19400 Y1.49745
X0.19300 Y1.49745
X0.19300 Y1.49545
X0.19200 Y1.49545
X0.19200 Y1.49345
X0.19100 Y1.49345
X0.19100 Y1.49245
X0.19000 Y1.49245
X0.19000 Y1.49045
X0.18900 Y1.49045
X0.18900 Y1.48945
X0.17700 Y1.48945
X0.17700 Y1.49045
X0.17500 Y1.49045
X0.17500 Y1.49145
X0.17400 Y1.49145
X0.17400 Y1.49245
X0.17200 Y1.49245
X0.17200 Y1.49345
X0.17000 Y1.49345
X0.17000 Y1.49445
X0.16900 Y1.49445
X0.16900 Y1.49545
X0.16700 Y1.49545
X0.16700 Y1.49645
X0.16500 Y1.49645
X0.16500 Y1.49745
X0.16400 Y1.49745
X0.16400 Y1.49845
X0.16200 Y1.49845
X0.16200 Y1.49945
X0.16100 Y1.49945
X0.16100 Y1.51145
X0.16200 Y1.51145
X0.16200 Y1.51345
X0.16300 Y1.51345
X0.16300 Y1.51445
X0.16400 Y1.51445
X0.16400 Y1.51645
X0.16500 Y1.51645
X0.16500 Y1.51845
X0.16600 Y1.51845
X0.16600 Y1.51945
X0.16700 Y1.51945
X0.16700 Y1.52145
X0.16800 Y1.52145
X0.16800 Y1.52345
X0.16900 Y1.52345
X0.16900 Y1.52445
X0.17000 Y1.52445
X0.17000 Y1.52645
X0.17100 Y1.52645
X0.17100 Y1.52845
X0.17200 Y1.52845
X0.17200 Y1.52945
X0.17300 Y1.52945
X0.17300 Y1.53145
X0.17400 Y1.53145
X0.17400 Y1.53345
X0.17500 Y1.53345
X0.17500 Y1.53445
X0.17600 Y1.53445
X0.17600 Y1.53645
X0.17700 Y1.53645
X0.17700 Y1.53845
X0.17800 Y1.53845
X0.17800 Y1.53945
X0.17900 Y1.53945
X0.17900 Y1.54145
X0.18000 Y1.54145
X0.18000 Y1.54345
X0.18100 Y1.54345
X0.18100 Y1.54445
X0.18200 Y1.54445
X0.18200 Y1.54645
X0.18300 Y1.54645
X0.18300 Y1.54845
X0.18400 Y1.54845
X0.18400 Y1.54945
X0.18500 Y1.54945
X0.18500 Y1.55045
X0.19100 Y1.55045
X0.19100 Y1.55145
X0.19200 Y1.55145
X0.19200 Y1.55245
X0.19300 Y1.55245
X0.19300 Y1.55345
X0.19400 Y1.55345
X0.19400 Y1.55445
X0.19500 Y1.55445
X0.19500 Y1.55545
X0.19600 Y1.55545
X0.19600 Y1.55645
X0.19700 Y1.55645
X0.19700 Y1.55745
X0.19800 Y1.55745
X0.19800 Y1.55845
X0.19900 Y1.55845
X0.19900 Y1.55945
X0.20000 Y1.55945
X0.20000 Y1.56045
X0.20100 Y1.56045
X0.20100 Y1.56145
X0.20200 Y1.56145
X0.20200 Y1.56245
X0.20300 Y1.56245
X0.20300 Y1.56345
X0.20400 Y1.56345
X0.20400 Y1.56445
X0.20500 Y1.56445
X0.20500 Y1.56545
X0.20600 Y1.56545
X0.20600 Y1.56645
X0.20700 Y1.56645
X0.20700 Y1.56745
X0.20800 Y1.56745
X0.20800 Y1.56845
X0.20900 Y1.56845
X0.20900 Y1.56945
X0.21000 Y1.56945
X0.21000 Y1.57045
X0.21100 Y1.57045
X0.21100 Y1.57145
X0.21200 Y1.57145
X0.21200 Y1.57245
X0.21300 Y1.57245
X0.21300 Y1.57345
X0.21400 Y1.57345
X0.21400 Y1.57445
X0.21500 Y1.57445
X0.21500 Y1.57545
X0.21600 Y1.57545
X0.21600 Y1.57645
X0.21700 Y1.57645
X0.21700 Y1.57745
X0.21800 Y1.57745
X0.21800 Y1.57845
X0.21900 Y1.57845
X0.21900 Y1.57945
X0.22000 Y1.57945
X0.22000 Y1.58045
X0.22100 Y1.58045
X0.22100 Y1.58145
X0.22200 Y1.58145
X0.22200 Y1.58245
X0.22300 Y1.58245
X0.22300 Y1.58345
X0.22400 Y1.58345
X0.22400 Y1.58445
X0.22500 Y1.58445
X0.22500 Y1.58545
X0.22600 Y1.58545
X0.22600 Y1.58645
X0.22700 Y1.58645
X0.22700 Y1.58745
X0.22800 Y1.58745
X0.22800 Y1.58845
X0.22900 Y1.58845
X0.22900 Y1.58945
X0.23000 Y1.58945
X0.23000 Y1.59045
X0.23100 Y1.59045
X0.23100 Y1.59145
X0.23200 Y1.59145
X0.23200 Y1.59245
X0.23300 Y1.59245
X0.23300 Y1.59345
X0.23400 Y1.59345
X0.23400 Y1.59445
X0.23500 Y1.59445
X0.23500 Y1.59545
X0.23600 Y1.59545
X0.23600 Y1.59645
X0.23700 Y1.59645
X0.23700 Y1.59745
X0.23800 Y1.59745
X0.23800 Y1.59845
X0.23900 Y1.59845
X0.23900 Y1.59945
X0.24000 Y1.59945
X0.24000 Y1.60045
X0.24100 Y1.60045
X0.24100 Y1.60145
X0.24200 Y1.60145
X0.24200 Y1.60245
X0.24300 Y1.60245
X0.24300 Y1.60345
X0.24400 Y1.60345
X0.24400 Y1.60445
X0.24500 Y1.60445
X0.24500 Y1.60545
X0.24600 Y1.60545
X0.24600 Y1.60645
X0.24700 Y1.60645
X0.24700 Y1.60745
X0.24800 Y1.60745
X0.24800 Y1.60845
X0.24900 Y1.60845
X0.24900 Y1.65345
X0.24800 Y1.65345
X0.24800 Y1.65445
X0.24700 Y1.65445
X0.24700 Y1.65545
X0.24600 Y1.65545
X0.24600 Y1.65645
X0.24500 Y1.65645
X0.24500 Y1.65745
X0.24400 Y1.65745
X0.24400 Y1.65845
X0.24300 Y1.65845
X0.24300 Y1.65945
X0.24200 Y1.65945
X0.24200 Y1.66045
X0.24100 Y1.66045
X0.24100 Y1.66145
X0.24000 Y1.66145
X0.24000 Y1.66245
X0.23900 Y1.66245
X0.23900 Y1.66345
X0.23800 Y1.66345
X0.23800 Y1.66445
X0.23700 Y1.66445
X0.23700 Y1.66545
X0.23600 Y1.66545
X0.23600 Y1.66645
X0.23500 Y1.66645
X0.23500 Y1.66745
X0.23400 Y1.66745
X0.23400 Y1.66845
X0.23300 Y1.66845
X0.23300 Y1.66945
X0.23200 Y1.66945
X0.23200 Y1.67045
X0.23100 Y1.67045
X0.23100 Y1.67145
X0.23000 Y1.67145
X0.23000 Y1.67245
X0.22900 Y1.67245
X0.22900 Y1.67345
X0.22800 Y1.67345
X0.22800 Y1.67445
X0.22700 Y1.67445
X0.22700 Y1.67545
X0.22600 Y1.67545
X0.22600 Y1.67645
X0.22500 Y1.67645
X0.22500 Y1.67745
X0.22400 Y1.67745
X0.22400 Y1.67845
X0.22300 Y1.67845
X0.22300 Y1.67945
X0.22200 Y1.67945
X0.22200 Y1.68045
X0.22100 Y1.68045
X0.22100 Y1.68145
X0.22000 Y1.68145
X0.22000 Y1.68245
X0.21900 Y1.68245
X0.21900 Y1.68345
X0.21800 Y1.68345
X0.21800 Y1.68445
X0.21700 Y1.68445
X0.21700 Y1.68545
X0.21600 Y1.68545
X0.21600 Y1.68645
X0.21500 Y1.68645
X0.21500 Y1.68745
X0.21400 Y1.68745
X0.21400 Y1.68845
X0.21300 Y1.68845
X0.21300 Y1.68945
X0.21200 Y1.68945
X0.21200 Y1.69045
X0.21100 Y1.69045
X0.21100 Y1.69145
X0.21000 Y1.69145
X0.21000 Y1.69245
X0.20900 Y1.69245
X0.20900 Y1.69345
X0.20800 Y1.69345
X0.20800 Y1.69445
X0.20700 Y1.69445
X0.20700 Y1.69545
X0.20600 Y1.69545
X0.20600 Y1.69645
X0.20500 Y1.69645
X0.20500 Y1.69745
X0.20400 Y1.69745
X0.20400 Y1.69845
X0.20300 Y1.69845
X0.20300 Y1.69945
X0.20200 Y1.69945
X0.20200 Y1.70045
X0.20100 Y1.70045
X0.20100 Y1.70145
X0.20000 Y1.70145
X0.20000 Y1.70245
X0.19900 Y1.70245
X0.19900 Y1.70345
X0.19800 Y1.70345
X0.19800 Y1.70445
X0.19700 Y1.70445
X0.19700 Y1.70545
X0.19600 Y1.70545
X0.19600 Y1.70645
X0.19500 Y1.70645
X0.19500 Y1.70745
X0.19400 Y1.70745
X0.19400 Y1.70845
X0.19300 Y1.70845
X0.19300 Y1.70945
X0.19200 Y1.70945
X0.19200 Y1.71045
X0.19100 Y1.71045
X0.19100 Y1.71145
X0.19000 Y1.71145
X0.19000 Y1.71245
X0.18900 Y1.71245
X0.18900 Y1.71345
X0.18800 Y1.71345
X0.18800 Y1.71445
X0.18700 Y1.71445
X0.18700 Y1.71545
X0.18600 Y1.71545
X0.18600 Y1.71645
X0.18500 Y1.71645
X0.18500 Y1.71745
X0.18400 Y1.71745
X0.18400 Y1.71845
X0.18300 Y1.71845
X0.18300 Y1.71945
X0.18200 Y1.71945
X0.18200 Y1.72045
X0.18100 Y1.72045
X0.18100 Y1.72145
X0.18000 Y1.72145
X0.18000 Y1.72245
X0.17900 Y1.72245
X0.17900 Y1.72345
X0.17800 Y1.72345
X0.17800 Y1.72445
X0.17700 Y1.72445
X0.17700 Y1.72545
X0.17600 Y1.72545
X0.17600 Y1.72645
X0.17500 Y1.72645
X0.17500 Y1.72745
X0.17400 Y1.72745
X0.17400 Y1.72845
X0.17300 Y1.72845
X0.17300 Y1.72945
X0.17200 Y1.72945
X0.17200 Y1.73045
X0.06700 Y1.73045
X0.06700 Y1.72945
X0.06600 Y1.72945
X0.06600 Y1.72845
X0.06500 Y1.72845
X0.06500 Y1.72745
X0.06400 Y1.72745
X0.06400 Y1.72645
X0.06300 Y1.72645
X0.06300 Y1.72545
X0.06200 Y1.72545
X0.06200 Y1.72445
X0.06100 Y1.72445
X0.06100 Y1.72345
