( pcb2gcode 1.1.4 )

G94     ( Inches per minute feed rate. )
G20     ( Units == INCHES.             )
G90     ( Absolute coordinates.        )
S30000  ( RPM spindle speed.           )
M3      ( Spindle on clockwise.        )

G64 P0.00500 ( set maximum deviation from commanded toolpath )

G04 P0 ( dwell for no time -- G64 should not smooth over this point )
G00 Z0.08000 ( retract )

G00 X1.01600 Y0.94800 ( rapid move to begin. )
G01 Z-0.00300 F6.00000 ( plunge. )
G04 P0 ( dwell for no time -- G64 should not smooth over this point )
X1.01600 Y0.94800
X1.01600 Y0.08500
X0.08200 Y0.08500
X0.08200 Y0.95800
X1.01600 Y0.95800
X1.01600 Y0.94800
G04 P0 ( dwell for no time -- G64 should not smooth over this point )
G00 Z0.08000 ( retract )

G00 X0.35000 Y0.87000 ( rapid move to begin. )
G01 Z-0.00300 F6.00000 ( plunge. )
G04 P0 ( dwell for no time -- G64 should not smooth over this point )
X0.35000 Y0.87000
X0.35000 Y0.85500
X0.36000 Y0.85500
X0.36000 Y0.82400
X0.36100 Y0.82400
X0.36100 Y0.82300
X0.36200 Y0.82300
X0.36200 Y0.82200
X0.36300 Y0.82200
X0.36300 Y0.82100
X0.36400 Y0.82100
X0.36400 Y0.82000
X0.36500 Y0.82000
X0.36500 Y0.81900
X0.36600 Y0.81900
X0.36600 Y0.81800
X0.36700 Y0.81800
X0.36700 Y0.81700
X0.36800 Y0.81700
X0.36800 Y0.81600
X0.36900 Y0.81600
X0.36900 Y0.81500
X0.37000 Y0.81500
X0.37000 Y0.81400
X0.37100 Y0.81400
X0.37100 Y0.81300
X0.37200 Y0.81300
X0.37200 Y0.81200
X0.37300 Y0.81200
X0.37300 Y0.81100
X0.37400 Y0.81100
X0.37400 Y0.81000
X0.37500 Y0.81000
X0.37500 Y0.80900
X0.37600 Y0.80900
X0.37600 Y0.80800
X0.37700 Y0.80800
X0.37700 Y0.80700
X0.37800 Y0.80700
X0.37800 Y0.80600
X0.37900 Y0.80600
X0.37900 Y0.80500
X0.38000 Y0.80500
X0.38000 Y0.80400
X0.38100 Y0.80400
X0.38100 Y0.80300
X0.38200 Y0.80300
X0.38200 Y0.80200
X0.38300 Y0.80200
X0.38300 Y0.80100
X0.38400 Y0.80100
X0.38400 Y0.80000
X0.38500 Y0.80000
X0.38500 Y0.79900
X0.38600 Y0.79900
X0.38600 Y0.79800
X0.38700 Y0.79800
X0.38700 Y0.79700
X0.38800 Y0.79700
X0.38800 Y0.79600
X0.38900 Y0.79600
X0.38900 Y0.79500
X0.39000 Y0.79500
X0.39000 Y0.79400
X0.39100 Y0.79400
X0.39100 Y0.79300
X0.39200 Y0.79300
X0.39200 Y0.79200
X0.39300 Y0.79200
X0.39300 Y0.79100
X0.41800 Y0.79100
X0.41800 Y0.79600
X0.51900 Y0.79600
X0.51900 Y0.73100
X0.33600 Y0.73100
X0.33600 Y0.73200
X0.33300 Y0.73200
X0.33300 Y0.73300
X0.33000 Y0.73300
X0.33000 Y0.73400
X0.32700 Y0.73400
X0.32700 Y0.73500
X0.32400 Y0.73500
X0.32400 Y0.73600
X0.32100 Y0.73600
X0.32100 Y0.73700
X0.31800 Y0.73700
X0.31800 Y0.73800
X0.31500 Y0.73800
X0.31500 Y0.73900
X0.31200 Y0.73900
X0.31200 Y0.74000
X0.30900 Y0.74000
X0.30900 Y0.74100
X0.30600 Y0.74100
X0.30600 Y0.74200
X0.30500 Y0.74200
X0.30500 Y0.74300
X0.30400 Y0.74300
X0.30400 Y0.74400
X0.30300 Y0.74400
X0.30300 Y0.74500
X0.30200 Y0.74500
X0.30200 Y0.74600
X0.30100 Y0.74600
X0.30100 Y0.74700
X0.30000 Y0.74700
X0.30000 Y0.74800
X0.29100 Y0.74800
X0.29100 Y0.74900
X0.29000 Y0.74900
X0.29000 Y0.75000
X0.28900 Y0.75000
X0.28900 Y0.75100
X0.28800 Y0.75100
X0.28800 Y0.75200
X0.28700 Y0.75200
X0.28700 Y0.75300
X0.28600 Y0.75300
X0.28600 Y0.75400
X0.28500 Y0.75400
X0.28500 Y0.75500
X0.27900 Y0.75500
X0.27900 Y0.83600
X0.27800 Y0.83600
X0.27800 Y0.83700
X0.27700 Y0.83700
X0.27700 Y0.83800
X0.27600 Y0.83800
X0.27600 Y0.83900
X0.27500 Y0.83900
X0.27500 Y0.84000
X0.21200 Y0.84000
X0.21200 Y0.83900
X0.21100 Y0.83900
X0.21100 Y0.83800
X0.21000 Y0.83800
X0.21000 Y0.83700
X0.20900 Y0.83700
X0.20900 Y0.83600
X0.20800 Y0.83600
X0.20800 Y0.83500
X0.20700 Y0.83500
X0.20700 Y0.83400
X0.20600 Y0.83400
X0.20600 Y0.83300
X0.20500 Y0.83300
X0.20500 Y0.83100
X0.20400 Y0.83100
X0.20400 Y0.83000
X0.20100 Y0.83000
X0.20100 Y0.82900
X0.19800 Y0.82900
X0.19800 Y0.82800
X0.19500 Y0.82800
X0.19500 Y0.82700
X0.19200 Y0.82700
X0.19200 Y0.82600
X0.18900 Y0.82600
X0.18900 Y0.82500
X0.18600 Y0.82500
X0.18600 Y0.82400
X0.18300 Y0.82400
X0.18300 Y0.82300
X0.18000 Y0.82300
X0.18000 Y0.82200
X0.17700 Y0.82200
X0.17700 Y0.82100
X0.17400 Y0.82100
X0.17400 Y0.82000
X0.17100 Y0.82000
X0.17100 Y0.81900
X0.16800 Y0.81900
X0.16800 Y0.81800
X0.16500 Y0.81800
X0.16500 Y0.81700
X0.16400 Y0.81700
X0.16400 Y0.81600
X0.16300 Y0.81600
X0.16300 Y0.81400
X0.16200 Y0.81400
X0.16200 Y0.81200
X0.16100 Y0.81200
X0.16100 Y0.80900
X0.16000 Y0.80900
X0.16000 Y0.80600
X0.15900 Y0.80600
X0.15900 Y0.62300
X0.16000 Y0.62300
X0.16000 Y0.62100
X0.16100 Y0.62100
X0.16100 Y0.62000
X0.16200 Y0.62000
X0.16200 Y0.61900
X0.16300 Y0.61900
X0.16300 Y0.61800
X0.16400 Y0.61800
X0.16400 Y0.61700
X0.16500 Y0.61700
X0.16500 Y0.61600
X0.16600 Y0.61600
X0.16600 Y0.61500
X0.16700 Y0.61500
X0.16700 Y0.61400
X0.16800 Y0.61400
X0.16800 Y0.61300
X0.16900 Y0.61300
X0.16900 Y0.61200
X0.17000 Y0.61200
X0.17000 Y0.61100
X0.17100 Y0.61100
X0.17100 Y0.61000
X0.17200 Y0.61000
X0.17200 Y0.60900
X0.17300 Y0.60900
X0.17300 Y0.60800
X0.17400 Y0.60800
X0.17400 Y0.25400
X0.17500 Y0.25400
X0.17500 Y0.25300
X0.17600 Y0.25300
X0.17600 Y0.25200
X0.17700 Y0.25200
X0.17700 Y0.25100
X0.17800 Y0.25100
X0.17800 Y0.25000
X0.17900 Y0.25000
X0.17900 Y0.24900
X0.18000 Y0.24900
X0.18000 Y0.24800
X0.18100 Y0.24800
X0.18100 Y0.24700
X0.18200 Y0.24700
X0.18200 Y0.24600
X0.18300 Y0.24600
X0.18300 Y0.24500
X0.18400 Y0.24500
X0.18400 Y0.24400
X0.18500 Y0.24400
X0.18500 Y0.24300
X0.18600 Y0.24300
X0.18600 Y0.24200
X0.18700 Y0.24200
X0.18700 Y0.24100
X0.18800 Y0.24100
X0.18800 Y0.24000
X0.18900 Y0.24000
X0.18900 Y0.23900
X0.19000 Y0.23900
X0.19000 Y0.23800
X0.19100 Y0.23800
X0.19100 Y0.23700
X0.19200 Y0.23700
X0.19200 Y0.23600
X0.19300 Y0.23600
X0.19300 Y0.23500
X0.19400 Y0.23500
X0.19400 Y0.23400
X0.19500 Y0.23400
X0.19500 Y0.23300
X0.19600 Y0.23300
X0.19600 Y0.23200
X0.19700 Y0.23200
X0.19700 Y0.23100
X0.19800 Y0.23100
X0.19800 Y0.23000
X0.19900 Y0.23000
X0.19900 Y0.22900
X0.20000 Y0.22900
X0.20000 Y0.22800
X0.20100 Y0.22800
X0.20100 Y0.22700
X0.20200 Y0.22700
X0.20200 Y0.22600
X0.20300 Y0.22600
X0.20300 Y0.22500
X0.20400 Y0.22500
X0.20400 Y0.22400
X0.20500 Y0.22400
X0.20500 Y0.22300
X0.20600 Y0.22300
X0.20600 Y0.22200
X0.20700 Y0.22200
X0.20700 Y0.22100
X0.20800 Y0.22100
X0.20800 Y0.22000
X0.20900 Y0.22000
X0.20900 Y0.21900
X0.21000 Y0.21900
X0.21000 Y0.21800
X0.21100 Y0.21800
X0.21100 Y0.21700
X0.21200 Y0.21700
X0.21200 Y0.21600
X0.21300 Y0.21600
X0.21300 Y0.21500
X0.21400 Y0.21500
X0.21400 Y0.21400
X0.21500 Y0.21400
X0.21500 Y0.21300
X0.21600 Y0.21300
X0.21600 Y0.21200
X0.21700 Y0.21200
X0.21700 Y0.21100
X0.21800 Y0.21100
X0.21800 Y0.21000
X0.21900 Y0.21000
X0.21900 Y0.20900
X0.22000 Y0.20900
X0.22000 Y0.20800
X0.22100 Y0.20800
X0.22100 Y0.20700
X0.22200 Y0.20700
X0.22200 Y0.20600
X0.22300 Y0.20600
X0.22300 Y0.20500
X0.22400 Y0.20500
X0.22400 Y0.20400
X0.22500 Y0.20400
X0.22500 Y0.20300
X0.22600 Y0.20300
X0.22600 Y0.20200
X0.22700 Y0.20200
X0.22700 Y0.20100
X0.22800 Y0.20100
X0.22800 Y0.20000
X0.22900 Y0.20000
X0.22900 Y0.19900
X0.23000 Y0.19900
X0.23000 Y0.19800
X0.23100 Y0.19800
X0.23100 Y0.19700
X0.23200 Y0.19700
X0.23200 Y0.19600
X0.23300 Y0.19600
X0.23300 Y0.19500
X0.23400 Y0.19500
X0.23400 Y0.19400
X0.23500 Y0.19400
X0.23500 Y0.19300
X0.23600 Y0.19300
X0.23600 Y0.19200
X0.23700 Y0.19200
X0.23700 Y0.19100
X0.23800 Y0.19100
X0.23800 Y0.19000
X0.23900 Y0.19000
X0.23900 Y0.18900
X0.24000 Y0.18900
X0.24000 Y0.18800
X0.24100 Y0.18800
X0.24100 Y0.18700
X0.24200 Y0.18700
X0.24200 Y0.18600
X0.24300 Y0.18600
X0.24300 Y0.18500
X0.24400 Y0.18500
X0.24400 Y0.18400
X0.24500 Y0.18400
X0.24500 Y0.18300
X0.24600 Y0.18300
X0.24600 Y0.18200
X0.24700 Y0.18200
X0.24700 Y0.18100
X0.24800 Y0.18100
X0.24800 Y0.18000
X0.24900 Y0.18000
X0.24900 Y0.17900
X0.25000 Y0.17900
X0.25000 Y0.17800
X0.25100 Y0.17800
X0.25100 Y0.17700
X0.38600 Y0.17700
X0.38600 Y0.17800
X0.38700 Y0.17800
X0.38700 Y0.17900
X0.38800 Y0.17900
X0.38800 Y0.18000
X0.38900 Y0.18000
X0.38900 Y0.18100
X0.39000 Y0.18100
X0.39000 Y0.18200
X0.39100 Y0.18200
X0.39100 Y0.18300
X0.39200 Y0.18300
X0.39200 Y0.18400
X0.39300 Y0.18400
X0.39300 Y0.18500
X0.39400 Y0.18500
X0.39400 Y0.18600
X0.39500 Y0.18600
X0.39500 Y0.18700
X0.39600 Y0.18700
X0.39600 Y0.18800
X0.39700 Y0.18800
X0.39700 Y0.18900
X0.39800 Y0.18900
X0.39800 Y0.19000
X0.39900 Y0.19000
X0.39900 Y0.19100
X0.40000 Y0.19100
X0.40000 Y0.19200
X0.40100 Y0.19200
X0.40100 Y0.19300
X0.40400 Y0.19300
X0.40400 Y0.19400
X0.40700 Y0.19400
X0.40700 Y0.19500
X0.41000 Y0.19500
X0.41000 Y0.19600
X0.41300 Y0.19600
X0.41300 Y0.19700
X0.41600 Y0.19700
X0.41600 Y0.19800
X0.41900 Y0.19800
X0.41900 Y0.19900
X0.42000 Y0.19900
X0.42000 Y0.33100
X0.42400 Y0.33100
X0.42400 Y0.56800
X0.41800 Y0.56800
X0.41800 Y0.62300
X0.41900 Y0.62300
X0.41900 Y0.62400
X0.42000 Y0.62400
X0.42000 Y0.62500
X0.42100 Y0.62500
X0.42100 Y0.62600
X0.42200 Y0.62600
X0.42200 Y0.62700
X0.42300 Y0.62700
X0.42300 Y0.62800
X0.42400 Y0.62800
X0.42400 Y0.62900
X0.42500 Y0.62900
X0.42500 Y0.63000
X0.42600 Y0.63000
X0.42600 Y0.63100
X0.42700 Y0.63100
X0.42700 Y0.63200
X0.42800 Y0.63200
X0.42800 Y0.63300
X0.51400 Y0.63300
X0.51400 Y0.63400
X0.51500 Y0.63400
X0.51500 Y0.63500
X0.51600 Y0.63500
X0.51600 Y0.63600
X0.51700 Y0.63600
X0.51700 Y0.63700
X0.51800 Y0.63700
X0.51800 Y0.63800
X0.52000 Y0.63800
X0.52000 Y0.63700
X0.52100 Y0.63700
X0.52100 Y0.63600
X0.52200 Y0.63600
X0.52200 Y0.63500
X0.52300 Y0.63500
X0.52300 Y0.63400
X0.52400 Y0.63400
X0.52400 Y0.63300
X0.62000 Y0.63300
X0.62000 Y0.57200
X0.68600 Y0.57200
X0.68600 Y0.57100
X0.68700 Y0.57100
X0.68700 Y0.57000
X0.68800 Y0.57000
X0.68800 Y0.56800
X0.68900 Y0.56800
X0.68900 Y0.41500
X0.68800 Y0.41500
X0.68800 Y0.41300
X0.68700 Y0.41300
X0.68700 Y0.41200
X0.68600 Y0.41200
X0.68600 Y0.41100
X0.53100 Y0.41100
X0.53100 Y0.41200
X0.53000 Y0.41200
X0.53000 Y0.41300
X0.52900 Y0.41300
X0.52900 Y0.41500
X0.52800 Y0.41500
X0.52800 Y0.56800
X0.49900 Y0.56800
X0.49900 Y0.56700
X0.49800 Y0.56700
X0.49800 Y0.56600
X0.49700 Y0.56600
X0.49700 Y0.56500
X0.49600 Y0.56500
X0.49600 Y0.56400
X0.49500 Y0.56400
X0.49500 Y0.33100
X0.49900 Y0.33100
X0.49900 Y0.19200
X0.49500 Y0.19200
X0.49500 Y0.15100
X0.49400 Y0.15100
X0.49400 Y0.14800
X0.49300 Y0.14800
X0.49300 Y0.14700
X0.49200 Y0.14700
X0.49200 Y0.14600
X0.49100 Y0.14600
X0.49100 Y0.14500
X0.49000 Y0.14500
X0.49000 Y0.14400
X0.48900 Y0.14400
X0.48900 Y0.14300
X0.48800 Y0.14300
X0.48800 Y0.14200
X0.48700 Y0.14200
X0.48700 Y0.14100
X0.48600 Y0.14100
X0.48600 Y0.14000
X0.48500 Y0.14000
X0.48500 Y0.13900
X0.48400 Y0.13900
X0.48400 Y0.13800
X0.48300 Y0.13800
X0.48300 Y0.13700
X0.48200 Y0.13700
X0.48200 Y0.13600
X0.48100 Y0.13600
X0.48100 Y0.13500
X0.48000 Y0.13500
X0.48000 Y0.13400
X0.47900 Y0.13400
X0.47900 Y0.13300
X0.47800 Y0.13300
X0.47800 Y0.13200
X0.47700 Y0.13200
X0.47700 Y0.13100
X0.47600 Y0.13100
X0.47600 Y0.13000
X0.47500 Y0.13000
X0.47500 Y0.12900
X0.47400 Y0.12900
X0.47400 Y0.12800
X0.47300 Y0.12800
X0.47300 Y0.12700
X0.47200 Y0.12700
X0.47200 Y0.12600
X0.47100 Y0.12600
X0.47100 Y0.12500
X0.47000 Y0.12500
X0.47000 Y0.12400
X0.46900 Y0.12400
X0.46900 Y0.12300
X0.46800 Y0.12300
X0.46800 Y0.12200
X0.46700 Y0.12200
X0.46700 Y0.12100
X0.46600 Y0.12100
X0.46600 Y0.12000
X0.46500 Y0.12000
X0.46500 Y0.11900
X0.46400 Y0.11900
X0.46400 Y0.11800
X0.46300 Y0.11800
X0.46300 Y0.11700
X0.46200 Y0.11700
X0.46200 Y0.11600
X0.46100 Y0.11600
X0.46100 Y0.11500
X0.46000 Y0.11500
X0.46000 Y0.11400
X0.45900 Y0.11400
X0.45900 Y0.11300
X0.45800 Y0.11300
X0.45800 Y0.11200
X0.45700 Y0.11200
X0.45700 Y0.11100
X0.45600 Y0.11100
X0.45600 Y0.11000
X0.45500 Y0.11000
X0.45500 Y0.10900
X0.18200 Y0.10900
X0.18200 Y0.11000
X0.18100 Y0.11000
X0.18100 Y0.11100
X0.18000 Y0.11100
X0.18000 Y0.11200
X0.17900 Y0.11200
X0.17900 Y0.11300
X0.17800 Y0.11300
X0.17800 Y0.11400
X0.17700 Y0.11400
X0.17700 Y0.11500
X0.17600 Y0.11500
X0.17600 Y0.11600
X0.17500 Y0.11600
X0.17500 Y0.11700
X0.17400 Y0.11700
X0.17400 Y0.11800
X0.17300 Y0.11800
X0.17300 Y0.11900
X0.17200 Y0.11900
X0.17200 Y0.12000
X0.17100 Y0.12000
X0.17100 Y0.12100
X0.17000 Y0.12100
X0.17000 Y0.12200
X0.16900 Y0.12200
X0.16900 Y0.12300
X0.16800 Y0.12300
X0.16800 Y0.12400
X0.16700 Y0.12400
X0.16700 Y0.12500
X0.16600 Y0.12500
X0.16600 Y0.12600
X0.16500 Y0.12600
X0.16500 Y0.12700
X0.16400 Y0.12700
X0.16400 Y0.12800
X0.16300 Y0.12800
X0.16300 Y0.12900
X0.16200 Y0.12900
X0.16200 Y0.13000
X0.16100 Y0.13000
X0.16100 Y0.13100
X0.16000 Y0.13100
X0.16000 Y0.13200
X0.15900 Y0.13200
X0.15900 Y0.13300
X0.15800 Y0.13300
X0.15800 Y0.13400
X0.15700 Y0.13400
X0.15700 Y0.13500
X0.15600 Y0.13500
X0.15600 Y0.13600
X0.15500 Y0.13600
X0.15500 Y0.13700
X0.15400 Y0.13700
X0.15400 Y0.13800
X0.15300 Y0.13800
X0.15300 Y0.13900
X0.15200 Y0.13900
X0.15200 Y0.14000
X0.15100 Y0.14000
X0.15100 Y0.14100
X0.15000 Y0.14100
X0.15000 Y0.14200
X0.14900 Y0.14200
X0.14900 Y0.14300
X0.14800 Y0.14300
X0.14800 Y0.14400
X0.14700 Y0.14400
X0.14700 Y0.14500
X0.14600 Y0.14500
X0.14600 Y0.14600
X0.14500 Y0.14600
X0.14500 Y0.14700
X0.14400 Y0.14700
X0.14400 Y0.14800
X0.14300 Y0.14800
X0.14300 Y0.14900
X0.14200 Y0.14900
X0.14200 Y0.15000
X0.14100 Y0.15000
X0.14100 Y0.15100
X0.14000 Y0.15100
X0.14000 Y0.15200
X0.13900 Y0.15200
X0.13900 Y0.15300
X0.13800 Y0.15300
X0.13800 Y0.15400
X0.13700 Y0.15400
X0.13700 Y0.15500
X0.13600 Y0.15500
X0.13600 Y0.15600
X0.13500 Y0.15600
X0.13500 Y0.15700
X0.13400 Y0.15700
X0.13400 Y0.15800
X0.13300 Y0.15800
X0.13300 Y0.15900
X0.13200 Y0.15900
X0.13200 Y0.16000
X0.13100 Y0.16000
X0.13100 Y0.16100
X0.13000 Y0.16100
X0.13000 Y0.16200
X0.12900 Y0.16200
X0.12900 Y0.16300
X0.12800 Y0.16300
X0.12800 Y0.16400
X0.12700 Y0.16400
X0.12700 Y0.16500
X0.12600 Y0.16500
X0.12600 Y0.16600
X0.12500 Y0.16600
X0.12500 Y0.16700
X0.12400 Y0.16700
X0.12400 Y0.16800
X0.12300 Y0.16800
X0.12300 Y0.16900
X0.12200 Y0.16900
X0.12200 Y0.17000
X0.12100 Y0.17000
X0.12100 Y0.17100
X0.12000 Y0.17100
X0.12000 Y0.17200
X0.11900 Y0.17200
X0.11900 Y0.17300
X0.11800 Y0.17300
X0.11800 Y0.17400
X0.11700 Y0.17400
X0.11700 Y0.17500
X0.11600 Y0.17500
X0.11600 Y0.17600
X0.11500 Y0.17600
X0.11500 Y0.17700
X0.11400 Y0.17700
X0.11400 Y0.17800
X0.11300 Y0.17800
X0.11300 Y0.17900
X0.11200 Y0.17900
X0.11200 Y0.18000
X0.11100 Y0.18000
X0.11100 Y0.18100
X0.11000 Y0.18100
X0.11000 Y0.18200
X0.10900 Y0.18200
X0.10900 Y0.18300
X0.10800 Y0.18300
X0.10800 Y0.18400
X0.10700 Y0.18400
X0.10700 Y0.85900
X0.10800 Y0.85900
X0.10800 Y0.86000
X0.10900 Y0.86000
X0.10900 Y0.86100
X0.11000 Y0.86100
X0.11000 Y0.86200
X0.11100 Y0.86200
X0.11100 Y0.86300
X0.11200 Y0.86300
X0.11200 Y0.86400
X0.11300 Y0.86400
X0.11300 Y0.86500
X0.11400 Y0.86500
X0.11400 Y0.86600
X0.11500 Y0.86600
X0.11500 Y0.86700
X0.11600 Y0.86700
X0.11600 Y0.86800
X0.11700 Y0.86800
X0.11700 Y0.86900
X0.11800 Y0.86900
X0.11800 Y0.87000
X0.11900 Y0.87000
X0.11900 Y0.87100
X0.12000 Y0.87100
X0.12000 Y0.87200
X0.12100 Y0.87200
X0.12100 Y0.87300
X0.12200 Y0.87300
X0.12200 Y0.87400
X0.12300 Y0.87400
X0.12300 Y0.87500
X0.12400 Y0.87500
X0.12400 Y0.87600
X0.12500 Y0.87600
X0.12500 Y0.87700
X0.12600 Y0.87700
X0.12600 Y0.87800
X0.12700 Y0.87800
X0.12700 Y0.87900
X0.12800 Y0.87900
X0.12800 Y0.88000
X0.12900 Y0.88000
X0.12900 Y0.88100
X0.13000 Y0.88100
X0.13000 Y0.88200
X0.13100 Y0.88200
X0.13100 Y0.88300
X0.13200 Y0.88300
X0.13200 Y0.88400
X0.13300 Y0.88400
X0.13300 Y0.88500
X0.13400 Y0.88500
X0.13400 Y0.88600
X0.13500 Y0.88600
X0.13500 Y0.88700
X0.13600 Y0.88700
X0.13600 Y0.88800
X0.13700 Y0.88800
X0.13700 Y0.88900
X0.13800 Y0.88900
X0.13800 Y0.89000
X0.13900 Y0.89000
X0.13900 Y0.89100
X0.14000 Y0.89100
X0.14000 Y0.89200
X0.14100 Y0.89200
X0.14100 Y0.89300
X0.14200 Y0.89300
X0.14200 Y0.89400
X0.14300 Y0.89400
X0.14300 Y0.89500
X0.14400 Y0.89500
X0.14400 Y0.89600
X0.14600 Y0.89600
X0.14600 Y0.89700
X0.27700 Y0.89700
X0.27700 Y0.89800
X0.27800 Y0.89800
X0.27800 Y0.89900
X0.27900 Y0.89900
X0.27900 Y0.90000
X0.28000 Y0.90000
X0.28000 Y0.90100
X0.34800 Y0.90100
X0.34800 Y0.90000
X0.34900 Y0.90000
X0.34900 Y0.89800
X0.35000 Y0.89800
X0.35000 Y0.87000
G04 P0 ( dwell for no time -- G64 should not smooth over this point )
G00 Z0.08000 ( retract )

G00 X0.94200 Y0.82600 ( rapid move to begin. )
G01 Z-0.00300 F6.00000 ( plunge. )
G04 P0 ( dwell for no time -- G64 should not smooth over this point )
X0.94200 Y0.82600
X0.94300 Y0.82600
X0.94300 Y0.82500
X0.94400 Y0.82500
X0.94400 Y0.82400
X0.94500 Y0.82400
X0.94500 Y0.82300
X0.94600 Y0.82300
X0.94600 Y0.82200
X0.94700 Y0.82200
X0.94700 Y0.82100
X0.94800 Y0.82100
X0.94800 Y0.82000
X0.94900 Y0.82000
X0.94900 Y0.81900
X0.95000 Y0.81900
X0.95000 Y0.81800
X0.95100 Y0.81800
X0.95100 Y0.81700
X0.95200 Y0.81700
X0.95200 Y0.81600
X0.95300 Y0.81600
X0.95300 Y0.81300
X0.95400 Y0.81300
X0.95400 Y0.29000
X0.95300 Y0.29000
X0.95300 Y0.28700
X0.95200 Y0.28700
X0.95200 Y0.28600
X0.95100 Y0.28600
X0.95100 Y0.28500
X0.95000 Y0.28500
X0.95000 Y0.28400
X0.94900 Y0.28400
X0.94900 Y0.28300
X0.94800 Y0.28300
X0.94800 Y0.28200
X0.94700 Y0.28200
X0.94700 Y0.28100
X0.94600 Y0.28100
X0.94600 Y0.28000
X0.94500 Y0.28000
X0.94500 Y0.27900
X0.94400 Y0.27900
X0.94400 Y0.27800
X0.94300 Y0.27800
X0.94300 Y0.27700
X0.94200 Y0.27700
X0.94200 Y0.27600
X0.94100 Y0.27600
X0.94100 Y0.27500
X0.94000 Y0.27500
X0.94000 Y0.27400
X0.93900 Y0.27400
X0.93900 Y0.27300
X0.93800 Y0.27300
X0.93800 Y0.27200
X0.93700 Y0.27200
X0.93700 Y0.27100
X0.93600 Y0.27100
X0.93600 Y0.27000
X0.93500 Y0.27000
X0.93500 Y0.26900
X0.93400 Y0.26900
X0.93400 Y0.26800
X0.93300 Y0.26800
X0.93300 Y0.26700
X0.93200 Y0.26700
X0.93200 Y0.26600
X0.93100 Y0.26600
X0.93100 Y0.26500
X0.93000 Y0.26500
X0.93000 Y0.26400
X0.92900 Y0.26400
X0.92900 Y0.26300
X0.92800 Y0.26300
X0.92800 Y0.26200
X0.92700 Y0.26200
X0.92700 Y0.26100
X0.92600 Y0.26100
X0.92600 Y0.26000
X0.92500 Y0.26000
X0.92500 Y0.25900
X0.92400 Y0.25900
X0.92400 Y0.25800
X0.92300 Y0.25800
X0.92300 Y0.25700
X0.92200 Y0.25700
X0.92200 Y0.25600
X0.92100 Y0.25600
X0.92100 Y0.25500
X0.92000 Y0.25500
X0.92000 Y0.25400
X0.91900 Y0.25400
X0.91900 Y0.25300
X0.91800 Y0.25300
X0.91800 Y0.25200
X0.91700 Y0.25200
X0.91700 Y0.25100
X0.91600 Y0.25100
X0.91600 Y0.25000
X0.91500 Y0.25000
X0.91500 Y0.24900
X0.91400 Y0.24900
X0.91400 Y0.24800
X0.91300 Y0.24800
X0.91300 Y0.24700
X0.91200 Y0.24700
X0.91200 Y0.24600
X0.91100 Y0.24600
X0.91100 Y0.24500
X0.91000 Y0.24500
X0.91000 Y0.24400
X0.90900 Y0.24400
X0.90900 Y0.24300
X0.90800 Y0.24300
X0.90800 Y0.24200
X0.90700 Y0.24200
X0.90700 Y0.24100
X0.90600 Y0.24100
X0.90600 Y0.24000
X0.90500 Y0.24000
X0.90500 Y0.23900
X0.90400 Y0.23900
X0.90400 Y0.23800
X0.90300 Y0.23800
X0.90300 Y0.23700
X0.90200 Y0.23700
X0.90200 Y0.23600
X0.90100 Y0.23600
X0.90100 Y0.23500
X0.90000 Y0.23500
X0.90000 Y0.23400
X0.89900 Y0.23400
X0.89900 Y0.23300
X0.89800 Y0.23300
X0.89800 Y0.23200
X0.89700 Y0.23200
X0.89700 Y0.23100
X0.89600 Y0.23100
X0.89600 Y0.23000
X0.89500 Y0.23000
X0.89500 Y0.22900
X0.89400 Y0.22900
X0.89400 Y0.22800
X0.89300 Y0.22800
X0.89300 Y0.22700
X0.89100 Y0.22700
X0.89100 Y0.22600
X0.66700 Y0.22600
X0.66700 Y0.19200
X0.57800 Y0.19200
X0.57800 Y0.32500
X0.57900 Y0.32500
X0.57900 Y0.32600
X0.58200 Y0.32600
X0.58200 Y0.32700
X0.58500 Y0.32700
X0.58500 Y0.32800
X0.58800 Y0.32800
X0.58800 Y0.32900
X0.66500 Y0.32900
X0.66500 Y0.32800
X0.66600 Y0.32800
X0.66600 Y0.32700
X0.66700 Y0.32700
X0.66700 Y0.29700
X0.82600 Y0.29700
X0.82600 Y0.29800
X0.82700 Y0.29800
X0.82700 Y0.29900
X0.82800 Y0.29900
X0.82800 Y0.30000
X0.82900 Y0.30000
X0.82900 Y0.30100
X0.83000 Y0.30100
X0.83000 Y0.30200
X0.83100 Y0.30200
X0.83100 Y0.30300
X0.83200 Y0.30300
X0.83200 Y0.30400
X0.83300 Y0.30400
X0.83300 Y0.30500
X0.83400 Y0.30500
X0.83400 Y0.30600
X0.83500 Y0.30600
X0.83500 Y0.30700
X0.83600 Y0.30700
X0.83600 Y0.30800
X0.83700 Y0.30800
X0.83700 Y0.30900
X0.83800 Y0.30900
X0.83800 Y0.31000
X0.83900 Y0.31000
X0.83900 Y0.31100
X0.84000 Y0.31100
X0.84000 Y0.31200
X0.84100 Y0.31200
X0.84100 Y0.31300
X0.84200 Y0.31300
X0.84200 Y0.31400
X0.84300 Y0.31400
X0.84300 Y0.31500
X0.84400 Y0.31500
X0.84400 Y0.31600
X0.84500 Y0.31600
X0.84500 Y0.31700
X0.84600 Y0.31700
X0.84600 Y0.31800
X0.84700 Y0.31800
X0.84700 Y0.31900
X0.84800 Y0.31900
X0.84800 Y0.32000
X0.84900 Y0.32000
X0.84900 Y0.32100
X0.85000 Y0.32100
X0.85000 Y0.32200
X0.85100 Y0.32200
X0.85100 Y0.32300
X0.85200 Y0.32300
X0.85200 Y0.32400
X0.85300 Y0.32400
X0.85300 Y0.32500
X0.85400 Y0.32500
X0.85400 Y0.32600
X0.85500 Y0.32600
X0.85500 Y0.32700
X0.85600 Y0.32700
X0.85600 Y0.32800
X0.85700 Y0.32800
X0.85700 Y0.32900
X0.85800 Y0.32900
X0.85800 Y0.33000
X0.85900 Y0.33000
X0.85900 Y0.33100
X0.86000 Y0.33100
X0.86000 Y0.33200
X0.86100 Y0.33200
X0.86100 Y0.33300
X0.86200 Y0.33300
X0.86200 Y0.33400
X0.86300 Y0.33400
X0.86300 Y0.33500
X0.86400 Y0.33500
X0.86400 Y0.33600
X0.86500 Y0.33600
X0.86500 Y0.33700
X0.86600 Y0.33700
X0.86600 Y0.33800
X0.86700 Y0.33800
X0.86700 Y0.33900
X0.86800 Y0.33900
X0.86800 Y0.34000
X0.86900 Y0.34000
X0.86900 Y0.34100
X0.87000 Y0.34100
X0.87000 Y0.34200
X0.87100 Y0.34200
X0.87100 Y0.34300
X0.87200 Y0.34300
X0.87200 Y0.34400
X0.87300 Y0.34400
X0.87300 Y0.34500
X0.87400 Y0.34500
X0.87400 Y0.34600
X0.87500 Y0.34600
X0.87500 Y0.34700
X0.87600 Y0.34700
X0.87600 Y0.34800
X0.87700 Y0.34800
X0.87700 Y0.34900
X0.87800 Y0.34900
X0.87800 Y0.35000
X0.87900 Y0.35000
X0.87900 Y0.35100
X0.88000 Y0.35100
X0.88000 Y0.35200
X0.88100 Y0.35200
X0.88100 Y0.35300
X0.88200 Y0.35300
X0.88200 Y0.35400
X0.88300 Y0.35400
X0.88300 Y0.41200
X0.88400 Y0.41200
X0.88400 Y0.41400
X0.88500 Y0.41400
X0.88500 Y0.41800
X0.88600 Y0.41800
X0.88600 Y0.56500
X0.88500 Y0.56500
X0.88500 Y0.56900
X0.88400 Y0.56900
X0.88400 Y0.57100
X0.88300 Y0.57100
X0.88300 Y0.74900
X0.88200 Y0.74900
X0.88200 Y0.75000
X0.88100 Y0.75000
X0.88100 Y0.75100
X0.88000 Y0.75100
X0.88000 Y0.75200
X0.87900 Y0.75200
X0.87900 Y0.75300
X0.87800 Y0.75300
X0.87800 Y0.75400
X0.87700 Y0.75400
X0.87700 Y0.75500
X0.87600 Y0.75500
X0.87600 Y0.75600
X0.87500 Y0.75600
X0.87500 Y0.75700
X0.87400 Y0.75700
X0.87400 Y0.75800
X0.87300 Y0.75800
X0.87300 Y0.75900
X0.87200 Y0.75900
X0.87200 Y0.76000
X0.87100 Y0.76000
X0.87100 Y0.76100
X0.87000 Y0.76100
X0.87000 Y0.76200
X0.86900 Y0.76200
X0.86900 Y0.76300
X0.86800 Y0.76300
X0.86800 Y0.76400
X0.86700 Y0.76400
X0.86700 Y0.76500
X0.86600 Y0.76500
X0.86600 Y0.76600
X0.86500 Y0.76600
X0.86500 Y0.76700
X0.86400 Y0.76700
X0.86400 Y0.76800
X0.86300 Y0.76800
X0.86300 Y0.77100
X0.86200 Y0.77100
X0.86200 Y0.77400
X0.86100 Y0.77400
X0.86100 Y0.77700
X0.86000 Y0.77700
X0.86000 Y0.78000
X0.85900 Y0.78000
X0.85900 Y0.78300
X0.85800 Y0.78300
X0.85800 Y0.78600
X0.85700 Y0.78600
X0.85700 Y0.78900
X0.85600 Y0.78900
X0.85600 Y0.79200
X0.85500 Y0.79200
X0.85500 Y0.79500
X0.85400 Y0.79500
X0.85400 Y0.79600
X0.85300 Y0.79600
X0.85300 Y0.79700
X0.85200 Y0.79700
X0.85200 Y0.79800
X0.77900 Y0.79800
X0.77900 Y0.71300
X0.77800 Y0.71300
X0.77800 Y0.71200
X0.76100 Y0.71200
X0.76100 Y0.71300
X0.75800 Y0.71300
X0.75800 Y0.71400
X0.75500 Y0.71400
X0.75500 Y0.71500
X0.75200 Y0.71500
X0.75200 Y0.71600
X0.74900 Y0.71600
X0.74900 Y0.71700
X0.74600 Y0.71700
X0.74600 Y0.71800
X0.74300 Y0.71800
X0.74300 Y0.71900
X0.74000 Y0.71900
X0.74000 Y0.72000
X0.73700 Y0.72000
X0.73700 Y0.72100
X0.73400 Y0.72100
X0.73400 Y0.72200
X0.73100 Y0.72200
X0.73100 Y0.72300
X0.72800 Y0.72300
X0.72800 Y0.72400
X0.72500 Y0.72400
X0.72500 Y0.72500
X0.72200 Y0.72500
X0.72200 Y0.72600
X0.71800 Y0.72600
X0.71800 Y0.72700
X0.70800 Y0.72700
X0.70800 Y0.72800
X0.70700 Y0.72800
X0.70700 Y0.72900
X0.70600 Y0.72900
X0.70600 Y0.73000
X0.70500 Y0.73000
X0.70500 Y0.73100
X0.51900 Y0.73100
X0.51900 Y0.79600
X0.62000 Y0.79600
X0.62000 Y0.79100
X0.69400 Y0.79100
X0.69400 Y0.81100
X0.71000 Y0.81100
X0.71000 Y0.84000
X0.71100 Y0.84000
X0.71100 Y0.84300
X0.71200 Y0.84300
X0.71200 Y0.84400
X0.71300 Y0.84400
X0.71300 Y0.84500
X0.71400 Y0.84500
X0.71400 Y0.84600
X0.71500 Y0.84600
X0.71500 Y0.84700
X0.71600 Y0.84700
X0.71600 Y0.84800
X0.71700 Y0.84800
X0.71700 Y0.84900
X0.71800 Y0.84900
X0.71800 Y0.85000
X0.71900 Y0.85000
X0.71900 Y0.85100
X0.72000 Y0.85100
X0.72000 Y0.85200
X0.72100 Y0.85200
X0.72100 Y0.85300
X0.72200 Y0.85300
X0.72200 Y0.85400
X0.72300 Y0.85400
X0.72300 Y0.85500
X0.72400 Y0.85500
X0.72400 Y0.85600
X0.72600 Y0.85600
X0.72600 Y0.85700
X0.91100 Y0.85700
X0.91100 Y0.85600
X0.91300 Y0.85600
X0.91300 Y0.85500
X0.91400 Y0.85500
X0.91400 Y0.85400
X0.91500 Y0.85400
X0.91500 Y0.85300
X0.91600 Y0.85300
X0.91600 Y0.85200
X0.91700 Y0.85200
X0.91700 Y0.85100
X0.91800 Y0.85100
X0.91800 Y0.85000
X0.91900 Y0.85000
X0.91900 Y0.84900
X0.92000 Y0.84900
X0.92000 Y0.84800
X0.92100 Y0.84800
X0.92100 Y0.84700
X0.92200 Y0.84700
X0.92200 Y0.84600
X0.92300 Y0.84600
X0.92300 Y0.84500
X0.92400 Y0.84500
X0.92400 Y0.84400
X0.92500 Y0.84400
X0.92500 Y0.84300
X0.92600 Y0.84300
X0.92600 Y0.84200
X0.92700 Y0.84200
X0.92700 Y0.84100
X0.92800 Y0.84100
X0.92800 Y0.84000
X0.92900 Y0.84000
X0.92900 Y0.83900
X0.93000 Y0.83900
X0.93000 Y0.83800
X0.93100 Y0.83800
X0.93100 Y0.83700
X0.93200 Y0.83700
X0.93200 Y0.83600
X0.93300 Y0.83600
X0.93300 Y0.83500
X0.93400 Y0.83500
X0.93400 Y0.83400
X0.93500 Y0.83400
X0.93500 Y0.83300
X0.93600 Y0.83300
X0.93600 Y0.83200
X0.93700 Y0.83200
X0.93700 Y0.83100
X0.93800 Y0.83100
X0.93800 Y0.83000
X0.93900 Y0.83000
X0.93900 Y0.82900
X0.94000 Y0.82900
X0.94000 Y0.82800
X0.94100 Y0.82800
X0.94100 Y0.82700
X0.94200 Y0.82700
X0.94200 Y0.82600
G04 P0 ( dwell for no time -- G64 should not smooth over this point )
G00 Z0.08000 ( retract )

G00 X0.27900 Y0.82400 ( rapid move to begin. )
G01 Z-0.00300 F6.00000 ( plunge. )
G04 P0 ( dwell for no time -- G64 should not smooth over this point )
X0.27900 Y0.82400
X0.27900 Y0.75500
X0.20600 Y0.75500
X0.20600 Y0.75400
X0.20500 Y0.75400
X0.20500 Y0.75300
X0.20400 Y0.75300
X0.20400 Y0.75200
X0.20300 Y0.75200
X0.20300 Y0.75100
X0.20200 Y0.75100
X0.20200 Y0.75000
X0.20100 Y0.75000
X0.20100 Y0.74900
X0.20000 Y0.74900
X0.20000 Y0.68600
X0.20100 Y0.68600
X0.20100 Y0.68500
X0.20200 Y0.68500
X0.20200 Y0.68400
X0.20300 Y0.68400
X0.20300 Y0.68300
X0.20400 Y0.68300
X0.20400 Y0.68200
X0.51900 Y0.68200
X0.51900 Y0.63800
X0.51800 Y0.63800
X0.51800 Y0.63700
X0.51700 Y0.63700
X0.51700 Y0.63600
X0.51600 Y0.63600
X0.51600 Y0.63500
X0.51500 Y0.63500
X0.51500 Y0.63400
X0.51400 Y0.63400
X0.51400 Y0.63300
X0.42800 Y0.63300
X0.42800 Y0.63200
X0.42700 Y0.63200
X0.42700 Y0.63100
X0.42600 Y0.63100
X0.42600 Y0.63000
X0.42500 Y0.63000
X0.42500 Y0.62900
X0.42400 Y0.62900
X0.42400 Y0.62800
X0.42300 Y0.62800
X0.42300 Y0.62700
X0.42200 Y0.62700
X0.42200 Y0.62600
X0.42100 Y0.62600
X0.42100 Y0.62500
X0.42000 Y0.62500
X0.42000 Y0.62400
X0.41900 Y0.62400
X0.41900 Y0.62300
X0.41800 Y0.62300
X0.41800 Y0.62200
X0.33200 Y0.62200
X0.33200 Y0.62100
X0.33300 Y0.62100
X0.33300 Y0.62000
X0.33400 Y0.62000
X0.33400 Y0.61900
X0.33500 Y0.61900
X0.33500 Y0.61800
X0.33600 Y0.61800
X0.33600 Y0.61700
X0.33700 Y0.61700
X0.33700 Y0.61600
X0.33800 Y0.61600
X0.33800 Y0.61500
X0.33900 Y0.61500
X0.33900 Y0.61400
X0.34000 Y0.61400
X0.34000 Y0.61300
X0.34100 Y0.61300
X0.34100 Y0.61200
X0.34200 Y0.61200
X0.34200 Y0.61100
X0.34300 Y0.61100
X0.34300 Y0.61000
X0.34400 Y0.61000
X0.34400 Y0.60900
X0.34500 Y0.60900
X0.34500 Y0.60800
X0.34600 Y0.60800
X0.34600 Y0.60700
X0.34700 Y0.60700
X0.34700 Y0.60600
X0.34800 Y0.60600
X0.34800 Y0.60500
X0.34900 Y0.60500
X0.34900 Y0.60400
X0.35000 Y0.60400
X0.35000 Y0.60300
X0.35100 Y0.60300
X0.35100 Y0.60200
X0.35200 Y0.60200
X0.35200 Y0.60100
X0.35300 Y0.60100
X0.35300 Y0.60000
X0.35400 Y0.60000
X0.35400 Y0.59900
X0.35500 Y0.59900
X0.35500 Y0.59800
X0.35600 Y0.59800
X0.35600 Y0.59700
X0.35700 Y0.59700
X0.35700 Y0.59600
X0.35800 Y0.59600
X0.35800 Y0.59500
X0.35900 Y0.59500
X0.35900 Y0.59400
X0.36000 Y0.59400
X0.36000 Y0.59300
X0.36100 Y0.59300
X0.36100 Y0.59200
X0.36200 Y0.59200
X0.36200 Y0.59100
X0.36300 Y0.59100
X0.36300 Y0.59000
X0.36400 Y0.59000
X0.36400 Y0.58900
X0.36500 Y0.58900
X0.36500 Y0.58800
X0.36600 Y0.58800
X0.36600 Y0.58700
X0.36700 Y0.58700
X0.36700 Y0.58600
X0.36800 Y0.58600
X0.36800 Y0.58500
X0.36900 Y0.58500
X0.36900 Y0.58400
X0.37000 Y0.58400
X0.37000 Y0.58300
X0.37100 Y0.58300
X0.37100 Y0.58200
X0.37200 Y0.58200
X0.37200 Y0.58100
X0.37300 Y0.58100
X0.37300 Y0.58000
X0.37400 Y0.58000
X0.37400 Y0.57900
X0.37500 Y0.57900
X0.37500 Y0.57800
X0.37600 Y0.57800
X0.37600 Y0.57700
X0.37700 Y0.57700
X0.37700 Y0.57600
X0.37800 Y0.57600
X0.37800 Y0.57500
X0.37900 Y0.57500
X0.37900 Y0.57400
X0.38000 Y0.57400
X0.38000 Y0.57300
X0.38100 Y0.57300
X0.38100 Y0.57200
X0.38200 Y0.57200
X0.38200 Y0.57100
X0.38300 Y0.57100
X0.38300 Y0.57000
X0.38400 Y0.57000
X0.38400 Y0.56900
X0.38500 Y0.56900
X0.38500 Y0.56800
X0.38600 Y0.56800
X0.38600 Y0.56700
X0.38700 Y0.56700
X0.38700 Y0.56600
X0.38800 Y0.56600
X0.38800 Y0.56500
X0.38900 Y0.56500
X0.38900 Y0.56400
X0.39000 Y0.56400
X0.39000 Y0.56300
X0.39100 Y0.56300
X0.39100 Y0.56200
X0.39200 Y0.56200
X0.39200 Y0.56100
X0.39300 Y0.56100
X0.39300 Y0.56000
X0.39400 Y0.56000
X0.39400 Y0.55900
X0.39500 Y0.55900
X0.39500 Y0.55800
X0.39600 Y0.55800
X0.39600 Y0.55700
X0.39700 Y0.55700
X0.39700 Y0.55600
X0.39800 Y0.55600
X0.39800 Y0.55500
X0.39900 Y0.55500
X0.39900 Y0.55400
X0.40000 Y0.55400
X0.40000 Y0.55300
X0.40100 Y0.55300
X0.40100 Y0.55200
X0.40200 Y0.55200
X0.40200 Y0.55100
X0.40300 Y0.55100
X0.40300 Y0.55000
X0.40400 Y0.55000
X0.40400 Y0.54900
X0.40500 Y0.54900
X0.40500 Y0.54800
X0.40600 Y0.54800
X0.40600 Y0.54700
X0.40700 Y0.54700
X0.40700 Y0.54600
X0.40800 Y0.54600
X0.40800 Y0.54500
X0.40900 Y0.54500
X0.40900 Y0.54400
X0.41000 Y0.54400
X0.41000 Y0.54300
X0.41100 Y0.54300
X0.41100 Y0.54200
X0.41200 Y0.54200
X0.41200 Y0.54100
X0.41300 Y0.54100
X0.41300 Y0.54000
X0.41400 Y0.54000
X0.41400 Y0.53900
X0.41500 Y0.53900
X0.41500 Y0.53600
X0.41600 Y0.53600
X0.41600 Y0.33100
X0.42000 Y0.33100
X0.42000 Y0.19900
X0.41900 Y0.19900
X0.41900 Y0.19800
X0.41600 Y0.19800
X0.41600 Y0.19700
X0.41300 Y0.19700
X0.41300 Y0.19600
X0.41000 Y0.19600
X0.41000 Y0.19500
X0.40700 Y0.19500
X0.40700 Y0.19400
X0.40400 Y0.19400
X0.40400 Y0.19300
X0.40100 Y0.19300
X0.40100 Y0.19200
X0.33100 Y0.19200
X0.33100 Y0.33100
X0.34500 Y0.33100
X0.34500 Y0.47200
X0.34400 Y0.47200
X0.34400 Y0.47300
X0.34300 Y0.47300
X0.34300 Y0.47400
X0.34200 Y0.47400
X0.34200 Y0.47500
X0.34100 Y0.47500
X0.34100 Y0.47600
X0.34000 Y0.47600
X0.34000 Y0.47700
X0.33900 Y0.47700
X0.33900 Y0.47800
X0.33800 Y0.47800
X0.33800 Y0.47900
X0.33700 Y0.47900
X0.33700 Y0.48000
X0.33600 Y0.48000
X0.33600 Y0.48100
X0.33500 Y0.48100
X0.33500 Y0.48200
X0.33400 Y0.48200
X0.33400 Y0.48300
X0.33300 Y0.48300
X0.33300 Y0.48400
X0.33200 Y0.48400
X0.33200 Y0.48500
X0.33100 Y0.48500
X0.33100 Y0.48600
X0.33000 Y0.48600
X0.33000 Y0.48700
X0.32900 Y0.48700
X0.32900 Y0.48800
X0.32800 Y0.48800
X0.32800 Y0.48900
X0.32700 Y0.48900
X0.32700 Y0.49000
X0.32600 Y0.49000
X0.32600 Y0.49100
X0.32500 Y0.49100
X0.32500 Y0.49200
X0.32400 Y0.49200
X0.32400 Y0.49300
X0.32300 Y0.49300
X0.32300 Y0.49400
X0.32200 Y0.49400
X0.32200 Y0.49500
X0.32100 Y0.49500
X0.32100 Y0.49600
X0.32000 Y0.49600
X0.32000 Y0.49700
X0.31900 Y0.49700
X0.31900 Y0.49800
X0.31800 Y0.49800
X0.31800 Y0.49900
X0.31700 Y0.49900
X0.31700 Y0.50000
X0.31600 Y0.50000
X0.31600 Y0.50100
X0.31500 Y0.50100
X0.31500 Y0.50200
X0.31400 Y0.50200
X0.31400 Y0.50300
X0.31300 Y0.50300
X0.31300 Y0.50400
X0.31200 Y0.50400
X0.31200 Y0.50500
X0.31100 Y0.50500
X0.31100 Y0.50600
X0.31000 Y0.50600
X0.31000 Y0.50700
X0.30900 Y0.50700
X0.30900 Y0.50800
X0.30800 Y0.50800
X0.30800 Y0.50900
X0.30700 Y0.50900
X0.30700 Y0.51000
X0.30600 Y0.51000
X0.30600 Y0.51100
X0.30500 Y0.51100
X0.30500 Y0.51200
X0.30400 Y0.51200
X0.30400 Y0.51300
X0.30300 Y0.51300
X0.30300 Y0.51400
X0.30200 Y0.51400
X0.30200 Y0.51500
X0.30100 Y0.51500
X0.30100 Y0.51600
X0.30000 Y0.51600
X0.30000 Y0.51700
X0.29900 Y0.51700
X0.29900 Y0.51800
X0.29800 Y0.51800
X0.29800 Y0.51900
X0.29700 Y0.51900
X0.29700 Y0.52000
X0.29600 Y0.52000
X0.29600 Y0.52100
X0.29500 Y0.52100
X0.29500 Y0.52200
X0.29400 Y0.52200
X0.29400 Y0.52300
X0.29300 Y0.52300
X0.29300 Y0.52400
X0.29200 Y0.52400
X0.29200 Y0.52500
X0.29100 Y0.52500
X0.29100 Y0.52600
X0.29000 Y0.52600
X0.29000 Y0.52700
X0.28900 Y0.52700
X0.28900 Y0.52800
X0.28800 Y0.52800
X0.28800 Y0.52900
X0.28700 Y0.52900
X0.28700 Y0.53000
X0.28600 Y0.53000
X0.28600 Y0.53100
X0.28500 Y0.53100
X0.28500 Y0.53200
X0.28400 Y0.53200
X0.28400 Y0.53300
X0.28300 Y0.53300
X0.28300 Y0.53400
X0.28200 Y0.53400
X0.28200 Y0.53500
X0.28100 Y0.53500
X0.28100 Y0.53600
X0.28000 Y0.53600
X0.28000 Y0.53700
X0.27900 Y0.53700
X0.27900 Y0.53800
X0.27800 Y0.53800
X0.27800 Y0.53900
X0.27700 Y0.53900
X0.27700 Y0.54000
X0.27600 Y0.54000
X0.27600 Y0.54100
X0.27500 Y0.54100
X0.27500 Y0.54200
X0.27400 Y0.54200
X0.27400 Y0.54300
X0.27300 Y0.54300
X0.27300 Y0.54400
X0.27200 Y0.54400
X0.27200 Y0.54500
X0.27100 Y0.54500
X0.27100 Y0.54600
X0.27000 Y0.54600
X0.27000 Y0.54700
X0.26900 Y0.54700
X0.26900 Y0.54800
X0.26800 Y0.54800
X0.26800 Y0.54900
X0.26700 Y0.54900
X0.26700 Y0.55000
X0.26600 Y0.55000
X0.26600 Y0.55100
X0.26500 Y0.55100
X0.26500 Y0.55200
X0.26400 Y0.55200
X0.26400 Y0.55300
X0.26300 Y0.55300
X0.26300 Y0.55400
X0.26200 Y0.55400
X0.26200 Y0.55500
X0.26100 Y0.55500
X0.26100 Y0.55600
X0.26000 Y0.55600
X0.26000 Y0.55700
X0.25900 Y0.55700
X0.25900 Y0.55800
X0.25800 Y0.55800
X0.25800 Y0.55900
X0.25700 Y0.55900
X0.25700 Y0.56000
X0.25600 Y0.56000
X0.25600 Y0.56100
X0.25500 Y0.56100
X0.25500 Y0.56200
X0.25400 Y0.56200
X0.25400 Y0.56300
X0.25300 Y0.56300
X0.25300 Y0.56400
X0.25200 Y0.56400
X0.25200 Y0.56500
X0.25100 Y0.56500
X0.25100 Y0.56600
X0.25000 Y0.56600
X0.25000 Y0.56700
X0.24900 Y0.56700
X0.24900 Y0.56800
X0.24800 Y0.56800
X0.24800 Y0.56900
X0.24700 Y0.56900
X0.24700 Y0.57000
X0.24600 Y0.57000
X0.24600 Y0.57100
X0.24500 Y0.57100
X0.24500 Y0.57200
X0.24400 Y0.57200
X0.24400 Y0.57300
X0.24300 Y0.57300
X0.24300 Y0.57400
X0.24200 Y0.57400
X0.24200 Y0.57500
X0.24100 Y0.57500
X0.24100 Y0.57600
X0.24000 Y0.57600
X0.24000 Y0.57700
X0.23900 Y0.57700
X0.23900 Y0.57800
X0.23800 Y0.57800
X0.23800 Y0.57900
X0.23700 Y0.57900
X0.23700 Y0.58000
X0.23600 Y0.58000
X0.23600 Y0.58100
X0.23500 Y0.58100
X0.23500 Y0.58200
X0.23400 Y0.58200
X0.23400 Y0.58300
X0.23300 Y0.58300
X0.23300 Y0.58400
X0.23200 Y0.58400
X0.23200 Y0.58500
X0.23100 Y0.58500
X0.23100 Y0.58600
X0.23000 Y0.58600
X0.23000 Y0.58700
X0.22900 Y0.58700
X0.22900 Y0.58800
X0.22800 Y0.58800
X0.22800 Y0.58900
X0.22700 Y0.58900
X0.22700 Y0.59000
X0.22600 Y0.59000
X0.22600 Y0.59100
X0.22500 Y0.59100
X0.22500 Y0.59200
X0.22400 Y0.59200
X0.22400 Y0.59300
X0.22300 Y0.59300
X0.22300 Y0.59400
X0.22200 Y0.59400
X0.22200 Y0.59500
X0.22100 Y0.59500
X0.22100 Y0.59600
X0.22000 Y0.59600
X0.22000 Y0.59700
X0.21900 Y0.59700
X0.21900 Y0.59800
X0.21800 Y0.59800
X0.21800 Y0.59900
X0.21700 Y0.59900
X0.21700 Y0.60000
X0.21600 Y0.60000
X0.21600 Y0.60100
X0.18500 Y0.60100
X0.18500 Y0.60700
X0.17400 Y0.60700
X0.17400 Y0.60800
X0.17300 Y0.60800
X0.17300 Y0.60900
X0.17200 Y0.60900
X0.17200 Y0.61000
X0.17100 Y0.61000
X0.17100 Y0.61100
X0.17000 Y0.61100
X0.17000 Y0.61200
X0.16900 Y0.61200
X0.16900 Y0.61300
X0.16800 Y0.61300
X0.16800 Y0.61400
X0.16700 Y0.61400
X0.16700 Y0.61500
X0.16600 Y0.61500
X0.16600 Y0.61600
X0.16500 Y0.61600
X0.16500 Y0.61700
X0.16400 Y0.61700
X0.16400 Y0.61800
X0.16300 Y0.61800
X0.16300 Y0.61900
X0.16200 Y0.61900
X0.16200 Y0.62000
X0.16100 Y0.62000
X0.16100 Y0.62100
X0.16000 Y0.62100
X0.16000 Y0.62300
X0.15900 Y0.62300
X0.15900 Y0.80600
X0.16000 Y0.80600
X0.16000 Y0.80900
X0.16100 Y0.80900
X0.16100 Y0.81200
X0.16200 Y0.81200
X0.16200 Y0.81400
X0.16300 Y0.81400
X0.16300 Y0.81600
X0.16400 Y0.81600
X0.16400 Y0.81700
X0.16500 Y0.81700
X0.16500 Y0.81800
X0.16800 Y0.81800
X0.16800 Y0.81900
X0.17100 Y0.81900
X0.17100 Y0.82000
X0.17400 Y0.82000
X0.17400 Y0.82100
X0.17700 Y0.82100
X0.17700 Y0.82200
X0.18000 Y0.82200
X0.18000 Y0.82300
X0.18300 Y0.82300
X0.18300 Y0.82400
X0.18600 Y0.82400
X0.18600 Y0.82500
X0.18900 Y0.82500
X0.18900 Y0.82600
X0.19200 Y0.82600
X0.19200 Y0.82700
X0.19500 Y0.82700
X0.19500 Y0.82800
X0.19800 Y0.82800
X0.19800 Y0.82900
X0.20100 Y0.82900
X0.20100 Y0.83000
X0.20400 Y0.83000
X0.20400 Y0.83100
X0.20500 Y0.83100
X0.20500 Y0.83300
X0.20600 Y0.83300
X0.20600 Y0.83400
X0.20700 Y0.83400
X0.20700 Y0.83500
X0.20800 Y0.83500
X0.20800 Y0.83600
X0.20900 Y0.83600
X0.20900 Y0.83700
X0.21000 Y0.83700
X0.21000 Y0.83800
X0.21100 Y0.83800
X0.21100 Y0.83900
X0.21200 Y0.83900
X0.21200 Y0.84000
X0.27500 Y0.84000
X0.27500 Y0.83900
X0.27600 Y0.83900
X0.27600 Y0.83800
X0.27700 Y0.83800
X0.27700 Y0.83700
X0.27800 Y0.83700
X0.27800 Y0.83600
X0.27900 Y0.83600
X0.27900 Y0.82400
G04 P0 ( dwell for no time -- G64 should not smooth over this point )
G00 Z0.08000 ( retract )

G00 X0.85900 Y0.78000 ( rapid move to begin. )
G01 Z-0.00300 F6.00000 ( plunge. )
G04 P0 ( dwell for no time -- G64 should not smooth over this point )
X0.85900 Y0.78000
X0.86000 Y0.78000
X0.86000 Y0.77700
X0.86100 Y0.77700
X0.86100 Y0.77400
X0.86200 Y0.77400
X0.86200 Y0.77100
X0.86300 Y0.77100
X0.86300 Y0.76800
X0.86400 Y0.76800
X0.86400 Y0.71200
X0.84800 Y0.71200
X0.84800 Y0.71100
X0.86400 Y0.71100
X0.86400 Y0.61200
X0.84800 Y0.61200
X0.84800 Y0.57200
X0.88300 Y0.57200
X0.88300 Y0.57100
X0.88400 Y0.57100
X0.88400 Y0.56900
X0.88500 Y0.56900
X0.88500 Y0.56500
X0.88600 Y0.56500
X0.88600 Y0.41800
X0.88500 Y0.41800
X0.88500 Y0.41400
X0.88400 Y0.41400
X0.88400 Y0.41200
X0.88300 Y0.41200
X0.88300 Y0.41100
X0.78000 Y0.41100
X0.78000 Y0.41200
X0.77900 Y0.41200
X0.77900 Y0.41300
X0.77800 Y0.41300
X0.77800 Y0.41400
X0.77700 Y0.41400
X0.77700 Y0.41500
X0.77600 Y0.41500
X0.77600 Y0.41700
X0.77500 Y0.41700
X0.77500 Y0.42100
X0.77400 Y0.42100
X0.77400 Y0.56200
X0.77500 Y0.56200
X0.77500 Y0.56600
X0.77600 Y0.56600
X0.77600 Y0.56800
X0.77700 Y0.56800
X0.77700 Y0.56900
X0.77800 Y0.56900
X0.77800 Y0.57000
X0.77900 Y0.57000
X0.77900 Y0.70900
X0.77800 Y0.70900
X0.77800 Y0.71000
X0.77700 Y0.71000
X0.77700 Y0.71200
X0.77800 Y0.71200
X0.77800 Y0.71300
X0.77900 Y0.71300
X0.77900 Y0.79800
X0.85200 Y0.79800
X0.85200 Y0.79700
X0.85300 Y0.79700
X0.85300 Y0.79600
X0.85400 Y0.79600
X0.85400 Y0.79500
X0.85500 Y0.79500
X0.85500 Y0.79200
X0.85600 Y0.79200
X0.85600 Y0.78900
X0.85700 Y0.78900
X0.85700 Y0.78600
X0.85800 Y0.78600
X0.85800 Y0.78300
X0.85900 Y0.78300
X0.85900 Y0.78000
G04 P0 ( dwell for no time -- G64 should not smooth over this point )
G00 Z0.08000 ( retract )

G00 X0.33300 Y0.73200 ( rapid move to begin. )
G01 Z-0.00300 F6.00000 ( plunge. )
G04 P0 ( dwell for no time -- G64 should not smooth over this point )
X0.33300 Y0.73200
X0.33600 Y0.73200
X0.33600 Y0.73100
X0.51900 Y0.73100
X0.51900 Y0.68200
X0.20400 Y0.68200
X0.20400 Y0.68300
X0.20300 Y0.68300
X0.20300 Y0.68400
X0.20200 Y0.68400
X0.20200 Y0.68500
X0.20100 Y0.68500
X0.20100 Y0.68600
X0.20000 Y0.68600
X0.20000 Y0.74900
X0.20100 Y0.74900
X0.20100 Y0.75000
X0.20200 Y0.75000
X0.20200 Y0.75100
X0.20300 Y0.75100
X0.20300 Y0.75200
X0.20400 Y0.75200
X0.20400 Y0.75300
X0.20500 Y0.75300
X0.20500 Y0.75400
X0.20600 Y0.75400
X0.20600 Y0.75500
X0.28500 Y0.75500
X0.28500 Y0.75400
X0.28600 Y0.75400
X0.28600 Y0.75300
X0.28700 Y0.75300
X0.28700 Y0.75200
X0.28800 Y0.75200
X0.28800 Y0.75100
X0.28900 Y0.75100
X0.28900 Y0.75000
X0.29000 Y0.75000
X0.29000 Y0.74900
X0.29100 Y0.74900
X0.29100 Y0.74800
X0.29200 Y0.74800
X0.29200 Y0.74200
X0.30600 Y0.74200
X0.30600 Y0.74100
X0.30900 Y0.74100
X0.30900 Y0.74000
X0.31200 Y0.74000
X0.31200 Y0.73900
X0.31500 Y0.73900
X0.31500 Y0.73800
X0.31800 Y0.73800
X0.31800 Y0.73700
X0.32100 Y0.73700
X0.32100 Y0.73600
X0.32400 Y0.73600
X0.32400 Y0.73500
X0.32700 Y0.73500
X0.32700 Y0.73400
X0.33000 Y0.73400
X0.33000 Y0.73300
X0.33300 Y0.73300
X0.33300 Y0.73200
G04 P0 ( dwell for no time -- G64 should not smooth over this point )
G00 Z0.08000 ( retract )

G00 X0.74900 Y0.71600 ( rapid move to begin. )
G01 Z-0.00300 F6.00000 ( plunge. )
G04 P0 ( dwell for no time -- G64 should not smooth over this point )
X0.74900 Y0.71600
X0.75200 Y0.71600
X0.75200 Y0.71500
X0.75500 Y0.71500
X0.75500 Y0.71400
X0.75800 Y0.71400
X0.75800 Y0.71300
X0.76100 Y0.71300
X0.76100 Y0.71200
X0.76400 Y0.71200
X0.76400 Y0.71100
X0.77700 Y0.71100
X0.77700 Y0.71000
X0.77800 Y0.71000
X0.77800 Y0.70900
X0.77900 Y0.70900
X0.77900 Y0.57000
X0.77800 Y0.57000
X0.77800 Y0.56900
X0.77700 Y0.56900
X0.77700 Y0.56800
X0.77600 Y0.56800
X0.77600 Y0.56600
X0.77500 Y0.56600
X0.77500 Y0.56200
X0.77400 Y0.56200
X0.77400 Y0.42100
X0.77500 Y0.42100
X0.77500 Y0.41700
X0.77600 Y0.41700
X0.77600 Y0.41500
X0.77700 Y0.41500
X0.77700 Y0.41400
X0.77800 Y0.41400
X0.77800 Y0.41300
X0.77900 Y0.41300
X0.77900 Y0.41200
X0.78000 Y0.41200
X0.78000 Y0.41100
X0.78100 Y0.41100
X0.78100 Y0.33700
X0.78000 Y0.33700
X0.78000 Y0.33400
X0.77900 Y0.33400
X0.77900 Y0.33300
X0.77800 Y0.33300
X0.77800 Y0.33200
X0.77700 Y0.33200
X0.77700 Y0.33100
X0.77600 Y0.33100
X0.77600 Y0.33000
X0.77500 Y0.33000
X0.77500 Y0.32900
X0.77400 Y0.32900
X0.77400 Y0.32800
X0.77300 Y0.32800
X0.77300 Y0.32700
X0.77100 Y0.32700
X0.77100 Y0.32600
X0.66700 Y0.32600
X0.66700 Y0.32700
X0.66600 Y0.32700
X0.66600 Y0.32800
X0.66500 Y0.32800
X0.66500 Y0.32900
X0.58800 Y0.32900
X0.58800 Y0.32800
X0.58500 Y0.32800
X0.58500 Y0.32700
X0.58200 Y0.32700
X0.58200 Y0.32600
X0.57900 Y0.32600
X0.57900 Y0.32500
X0.57800 Y0.32500
X0.57800 Y0.19200
X0.49900 Y0.19200
X0.49900 Y0.33100
X0.50300 Y0.33100
X0.50300 Y0.37300
X0.50400 Y0.37300
X0.50400 Y0.37600
X0.50500 Y0.37600
X0.50500 Y0.37700
X0.50600 Y0.37700
X0.50600 Y0.37800
X0.50700 Y0.37800
X0.50700 Y0.37900
X0.50800 Y0.37900
X0.50800 Y0.38000
X0.50900 Y0.38000
X0.50900 Y0.38100
X0.51000 Y0.38100
X0.51000 Y0.38200
X0.51100 Y0.38200
X0.51100 Y0.38300
X0.51200 Y0.38300
X0.51200 Y0.38400
X0.51300 Y0.38400
X0.51300 Y0.38500
X0.51400 Y0.38500
X0.51400 Y0.38600
X0.51500 Y0.38600
X0.51500 Y0.38700
X0.51600 Y0.38700
X0.51600 Y0.38800
X0.51700 Y0.38800
X0.51700 Y0.38900
X0.51800 Y0.38900
X0.51800 Y0.39000
X0.51900 Y0.39000
X0.51900 Y0.39100
X0.52000 Y0.39100
X0.52000 Y0.39200
X0.52100 Y0.39200
X0.52100 Y0.39300
X0.52200 Y0.39300
X0.52200 Y0.39400
X0.52300 Y0.39400
X0.52300 Y0.39500
X0.52400 Y0.39500
X0.52400 Y0.39600
X0.52600 Y0.39600
X0.52600 Y0.39700
X0.70600 Y0.39700
X0.70600 Y0.39800
X0.70700 Y0.39800
X0.70700 Y0.39900
X0.70800 Y0.39900
X0.70800 Y0.40000
X0.70900 Y0.40000
X0.70900 Y0.40100
X0.71000 Y0.40100
X0.71000 Y0.61200
X0.69400 Y0.61200
X0.69400 Y0.64500
X0.69300 Y0.64500
X0.69300 Y0.64600
X0.69200 Y0.64600
X0.69200 Y0.64700
X0.69100 Y0.64700
X0.69100 Y0.64800
X0.69000 Y0.64800
X0.69000 Y0.64900
X0.68900 Y0.64900
X0.68900 Y0.65000
X0.68800 Y0.65000
X0.68800 Y0.65100
X0.68700 Y0.65100
X0.68700 Y0.65200
X0.68600 Y0.65200
X0.68600 Y0.65300
X0.68500 Y0.65300
X0.68500 Y0.65400
X0.68400 Y0.65400
X0.68400 Y0.65500
X0.68300 Y0.65500
X0.68300 Y0.65600
X0.68200 Y0.65600
X0.68200 Y0.65700
X0.68100 Y0.65700
X0.68100 Y0.65800
X0.68000 Y0.65800
X0.68000 Y0.65900
X0.67900 Y0.65900
X0.67900 Y0.66000
X0.67800 Y0.66000
X0.67800 Y0.66100
X0.67700 Y0.66100
X0.67700 Y0.66200
X0.67600 Y0.66200
X0.67600 Y0.66300
X0.67500 Y0.66300
X0.67500 Y0.66400
X0.67400 Y0.66400
X0.67400 Y0.66500
X0.67300 Y0.66500
X0.67300 Y0.66600
X0.67200 Y0.66600
X0.67200 Y0.66700
X0.67100 Y0.66700
X0.67100 Y0.66800
X0.67000 Y0.66800
X0.67000 Y0.66900
X0.66900 Y0.66900
X0.66900 Y0.67000
X0.66800 Y0.67000
X0.66800 Y0.67100
X0.61900 Y0.67100
X0.61900 Y0.67200
X0.61800 Y0.67200
X0.61800 Y0.67300
X0.61700 Y0.67300
X0.61700 Y0.67400
X0.61600 Y0.67400
X0.61600 Y0.67500
X0.61500 Y0.67500
X0.61500 Y0.67600
X0.61400 Y0.67600
X0.61400 Y0.67700
X0.61300 Y0.67700
X0.61300 Y0.67800
X0.61200 Y0.67800
X0.61200 Y0.67900
X0.61100 Y0.67900
X0.61100 Y0.68000
X0.61000 Y0.68000
X0.61000 Y0.68100
X0.60900 Y0.68100
X0.60900 Y0.68200
X0.51900 Y0.68200
X0.51900 Y0.73100
X0.70500 Y0.73100
X0.70500 Y0.73000
X0.70600 Y0.73000
X0.70600 Y0.72900
X0.70700 Y0.72900
X0.70700 Y0.72800
X0.70800 Y0.72800
X0.70800 Y0.72700
X0.71800 Y0.72700
X0.71800 Y0.72600
X0.72200 Y0.72600
X0.72200 Y0.72500
X0.72500 Y0.72500
X0.72500 Y0.72400
X0.72800 Y0.72400
X0.72800 Y0.72300
X0.73100 Y0.72300
X0.73100 Y0.72200
X0.73400 Y0.72200
X0.73400 Y0.72100
X0.73700 Y0.72100
X0.73700 Y0.72000
X0.74000 Y0.72000
X0.74000 Y0.71900
X0.74300 Y0.71900
X0.74300 Y0.71800
X0.74600 Y0.71800
X0.74600 Y0.71700
X0.74900 Y0.71700
X0.74900 Y0.71600
G04 P0 ( dwell for no time -- G64 should not smooth over this point )
G00 Z0.08000 ( retract )

G00 X0.62000 Y0.66700 ( rapid move to begin. )
G01 Z-0.00300 F6.00000 ( plunge. )
G04 P0 ( dwell for no time -- G64 should not smooth over this point )
X0.62000 Y0.66700
X0.62000 Y0.63300
X0.52400 Y0.63300
X0.52400 Y0.63400
X0.52300 Y0.63400
X0.52300 Y0.63500
X0.52200 Y0.63500
X0.52200 Y0.63600
X0.52100 Y0.63600
X0.52100 Y0.63700
X0.52000 Y0.63700
X0.52000 Y0.63800
X0.51900 Y0.63800
X0.51900 Y0.68200
X0.60900 Y0.68200
X0.60900 Y0.68100
X0.61000 Y0.68100
X0.61000 Y0.68000
X0.61100 Y0.68000
X0.61100 Y0.67900
X0.61200 Y0.67900
X0.61200 Y0.67800
X0.61300 Y0.67800
X0.61300 Y0.67700
X0.61400 Y0.67700
X0.61400 Y0.67600
X0.61500 Y0.67600
X0.61500 Y0.67500
X0.61600 Y0.67500
X0.61600 Y0.67400
X0.61700 Y0.67400
X0.61700 Y0.67300
X0.61800 Y0.67300
X0.61800 Y0.67200
X0.61900 Y0.67200
X0.61900 Y0.67100
X0.62000 Y0.67100
X0.62000 Y0.66700

G04 P0 ( dwell for no time -- G64 should not smooth over this point )
G00 Z0.80000 ( retract )

M9 ( Coolant off. )
M2 ( Program end. )

